yagami-light7/gravity_identification/results/trig_fit/mc02_capture_cleaned/20260425_221431/data/fit_predictions.csv
sample_id,theta1,theta2,theta3,theta4,theta5,theta6,tau_meas2,tau_pred2,err2,tau_meas3,tau_pred3,err3
0,0.2008209228515625,-0.10002660751342773,0.1111598014831543,0.0728640928864479,1.6506060361862183,0.24460363388061523,-1.5531158447265625,-1.7059614003255126,-0.15284555559895008,8.600730895996094,10.399339465498123,1.7986085695020293
1,0.2008209228515625,-0.10002660751342773,0.1111598014831543,0.0728640928864479,1.6506060361862183,0.24460363388061523,-1.7289352416992188,-1.7059614003255126,0.022973841373706172,8.600730895996094,10.399339465498123,1.7986085695020293
2,0.2008209228515625,-0.10002660751342773,0.1111598014831543,0.0728640928864479,1.6506060361862183,0.24460363388061523,-1.5531158447265625,-1.7059614003255126,-0.15284555559895008,8.717948913574219,10.399339465498123,1.6813905519239043
3,0.2008209228515625,-0.10002660751342773,0.1111598014831543,0.0728640928864479,1.6506060361862183,0.24460363388061523,-1.7289352416992188,-1.7059614003255126,0.022973841373706172,8.688644409179688,10.399339465498123,1.7106950563184355
4,0.2008209228515625,-0.10002660751342773,0.1111598014831543,0.0728640928864479,1.6506060361862183,0.24460363388061523,-1.611724853515625,-1.7059614003255126,-0.09423654680988758,8.600730895996094,10.399339465498123,1.7986085695020293
5,0.2008209228515625,-0.10002660751342773,0.1111598014831543,0.0728640928864479,1.6506060361862183,0.24460363388061523,-1.6703262329101562,-1.7059614003255126,-0.03563516741535633,8.512821197509766,10.399339465498123,1.8865182679883574
6,0.2008209228515625,-0.10002660751342773,0.1111598014831543,0.0728640928864479,1.6506060361862183,0.24460363388061523,-1.6703262329101562,-1.7059614003255126,-0.03563516741535633,8.600730895996094,10.399339465498123,1.7986085695020293
7,0.2012042999267578,-0.10002660751342773,0.1111598014831543,0.0728640928864479,1.6506060361862183,0.24460363388061523,-1.611724853515625,-1.7059614003255126,-0.09423654680988758,8.659339904785156,10.399339465498123,1.7399995607129668
8,0.2008209228515625,-0.10002660751342773,0.1111598014831543,0.0728640928864479,1.6506060361862183,0.24460363388061523,-1.5531158447265625,-1.7059614003255126,-0.15284555559895008,8.571430206298828,10.399339465498123,1.827909259199295
9,0.2012042999267578,-0.10002660751342773,0.1111598014831543,0.0728640928864479,1.6506060361862183,0.24460363388061523,-1.611724853515625,-1.7059614003255126,-0.09423654680988758,8.688644409179688,10.399339465498123,1.7106950563184355
10,0.2008209228515625,-0.10002660751342773,0.1111598014831543,0.0728640928864479,1.6506060361862183,0.24460363388061523,-1.6703262329101562,-1.7059614003255126,-0.03563516741535633,8.659339904785156,10.399339465498123,1.7399995607129668
11,0.2008209228515625,-0.10002660751342773,0.1111598014831543,0.0728640928864479,1.6506060361862183,0.24460363388061523,-1.6703262329101562,-1.7059614003255126,-0.03563516741535633,8.571430206298828,10.399339465498123,1.827909259199295
12,0.2008209228515625,-0.10002660751342773,0.1111598014831543,0.0728640928864479,1.6506060361862183,0.24460363388061523,-1.5531158447265625,-1.7059614003255126,-0.15284555559895008,8.630035400390625,10.399339465498123,1.769304065107498
13,0.2008209228515625,-0.10002660751342773,0.1111598014831543,0.0728640928864479,1.6506060361862183,0.24460363388061523,-1.6703262329101562,-1.7059614003255126,-0.03563516741535633,8.600730895996094,10.399339465498123,1.7986085695020293
14,0.2008209228515625,-0.10002660751342773,0.1111598014831543,0.0728640928864479,1.6506060361862183,0.24460363388061523,-1.7289352416992188,-1.7059614003255126,0.022973841373706172,8.571430206298828,10.399339465498123,1.827909259199295
15,0.2008209228515625,-0.10002660751342773,0.1111598014831543,0.0728640928864479,1.6506060361862183,0.24460363388061523,-1.7289352416992188,-1.7059614003255126,0.022973841373706172,8.630035400390625,10.399339465498123,1.769304065107498
16,0.2008209228515625,-0.10002660751342773,0.1111598014831543,0.0728640928864479,1.6506060361862183,0.24460363388061523,-1.5531158447265625,-1.7059614003255126,-0.15284555559895008,8.600730895996094,10.399339465498123,1.7986085695020293
17,0.2012042999267578,-0.10002660751342773,0.1111598014831543,0.0728640928864479,1.6506060361862183,0.24460363388061523,-1.7875442504882812,-1.7059614003255126,0.08158285016276867,8.630035400390625,10.399339465498123,1.769304065107498
18,0.2008209228515625,-0.10002660751342773,0.1111598014831543,0.0728640928864479,1.6506060361862183,0.24460363388061523,-1.5531158447265625,-1.7059614003255126,-0.15284555559895008,8.600730895996094,10.399339465498123,1.7986085695020293
19,0.2008209228515625,-0.10002660751342773,0.1111598014831543,0.0728640928864479,1.6506060361862183,0.24460363388061523,-1.6703262329101562,-1.7059614003255126,-0.03563516741535633,8.630035400390625,10.399339465498123,1.769304065107498
20,0.2008209228515625,-0.10002660751342773,0.1111598014831543,0.0728640928864479,1.6506060361862183,0.24460363388061523,-1.6703262329101562,-1.7059614003255126,-0.03563516741535633,8.571430206298828,10.399339465498123,1.827909259199295
21,0.2008209228515625,-0.10002660751342773,0.1111598014831543,0.0728640928864479,1.6506060361862183,0.24460363388061523,-1.611724853515625,-1.7059614003255126,-0.09423654680988758,8.600730895996094,10.399339465498123,1.7986085695020293
22,0.2012042999267578,-0.10002660751342773,0.1111598014831543,0.0728640928864479,1.6506060361862183,0.24460363388061523,-1.611724853515625,-1.7059614003255126,-0.09423654680988758,8.659339904785156,10.399339465498123,1.7399995607129668
23,0.2008209228515625,-0.10002660751342773,0.1111598014831543,0.0728640928864479,1.6506060361862183,0.24460363388061523,-1.611724853515625,-1.7059614003255126,-0.09423654680988758,8.630035400390625,10.399339465498123,1.769304065107498
24,0.2008209228515625,-0.10002660751342773,0.1111598014831543,0.0728640928864479,1.6506060361862183,0.24460363388061523,-1.5531158447265625,-1.7059614003255126,-0.15284555559895008,8.571430206298828,10.399339465498123,1.827909259199295
25,0.2008209228515625,-0.10002660751342773,0.1111598014831543,0.0728640928864479,1.6506060361862183,0.24460363388061523,-1.6703262329101562,-1.7059614003255126,-0.03563516741535633,8.571430206298828,10.399339465498123,1.827909259199295
26,0.2012042999267578,-0.10002660751342773,0.1111598014831543,0.0728640928864479,1.6506060361862183,0.24460363388061523,-1.611724853515625,-1.7059614003255126,-0.09423654680988758,8.630035400390625,10.399339465498123,1.769304065107498
27,0.2008209228515625,-0.10002660751342773,0.1111598014831543,0.0728640928864479,1.6506060361862183,0.24460363388061523,-1.5531158447265625,-1.7059614003255126,-0.15284555559895008,8.600730895996094,10.399339465498123,1.7986085695020293
28,0.2008209228515625,-0.10002660751342773,0.1111598014831543,0.0728640928864479,1.6506060361862183,0.24460363388061523,-1.6703262329101562,-1.7059614003255126,-0.03563516741535633,8.571430206298828,10.399339465498123,1.827909259199295
29,0.2008209228515625,-0.10002660751342773,0.1111598014831543,0.0728640928864479,1.6506060361862183,0.24460363388061523,-1.6703262329101562,-1.7059614003255126,-0.03563516741535633,8.630035400390625,10.399339465498123,1.769304065107498
30,0.2012042999267578,-0.10002660751342773,0.1111598014831543,0.0728640928864479,1.6506060361862183,0.24460363388061523,-1.7289352416992188,-1.7059614003255126,0.022973841373706172,8.542125701904297,10.399339465498123,1.8572137635938262
31,0.2008209228515625,-0.10002660751342773,0.1111598014831543,0.0728640928864479,1.6506060361862183,0.24460363388061523,-1.5531158447265625,-1.7059614003255126,-0.15284555559895008,8.571430206298828,10.399339465498123,1.827909259199295
32,0.2008209228515625,-0.10002660751342773,0.1111598014831543,0.0728640928864479,1.6506060361862183,0.24460363388061523,-1.5531158447265625,-1.7059614003255126,-0.15284555559895008,8.688644409179688,10.399339465498123,1.7106950563184355
33,0.004795074462890625,-0.6771707534790039,0.14606904983520508,0.08743690699338913,2.2833518981933594,-0.049444861710071564,2.6080551147460938,2.139576076225211,-0.4684790385208828,8.39560317993164,7.552224673436051,-0.8433785064955899
34,0.004795074462890625,-0.6771707534790039,0.1464533805847168,0.08820389956235886,2.2833518981933594,-0.049444861710071564,2.4322357177734375,2.137173069096118,-0.29506264867731957,7.428569793701172,7.552184707385401,0.1236149136842295
35,0.0051784515380859375,-0.6771707534790039,0.1464533805847168,0.08820389956235886,2.2833518981933594,-0.049444861710071564,2.3150177001953125,2.137173069096118,-0.17784463109919457,8.073261260986328,7.552184707385401,-0.5210765536009268
36,0.004795074462890625,-0.6771707534790039,0.1464533805847168,0.08820389956235886,2.2833518981933594,-0.049444861710071564,2.4908447265625,2.137173069096118,-0.35367165746638207,7.956043243408203,7.552184707385401,-0.40385853602280175
37,0.0051784515380859375,-0.6771707534790039,0.1464533805847168,0.08820389956235886,2.2833445072174072,-0.04944724589586258,2.4322357177734375,2.13723449999428,-0.29500121777915744,7.6923065185546875,7.552218994886093,-0.14008752366859412
38,0.0051784515380859375,-0.6771707534790039,0.1464533805847168,0.08743690699338913,2.2833445072174072,-0.04944724589586258,2.7252731323242188,2.1373327999637493,-0.5879403323604695,8.161170959472656,7.551850825258718,-0.609320134213938
39,0.004795074462890625,-0.6771707534790039,0.14606904983520508,0.08820389956235886,2.2833445072174072,-0.04944724589586258,2.25640869140625,2.1395380926823417,-0.11687059872390826,8.014652252197266,7.552626637713701,-0.46202561448356505
40,0.0051784515380859375,-0.6771707534790039,0.1464533805847168,0.08743690699338913,2.2833445072174072,-0.04944724589586258,2.0805892944335938,2.1373327999637493,0.0567435055301555,7.926738739013672,7.551850825258718,-0.37488791375495367
41,0.0051784515380859375,-0.6771707534790039,0.1464533805847168,0.08820389956235886,2.2833445072174072,-0.04944724589586258,2.4908447265625,2.13723449999428,-0.35361022656821994,7.663002014160156,7.552218994886093,-0.11078301927406287
42,0.0051784515380859375,-0.6771707534790039,0.1464533805847168,0.08743690699338913,2.2833445072174072,-0.04944724589586258,2.4322357177734375,2.1373327999637493,-0.29490291780968825,7.487178802490234,7.551850825258718,0.06467202276848383
43,0.0051784515380859375,-0.6771707534790039,0.1464533805847168,0.08743690699338913,2.2833445072174072,-0.04944724589586258,2.4322357177734375,2.1373327999637493,-0.29490291780968825,7.633701324462891,7.551850825258718,-0.08185049920417242
44,0.0051784515380859375,-0.6771707534790039,0.14606904983520508,0.08743690699338913,2.2833445072174072,-0.04944724589586258,2.373626708984375,2.1396375053088796,-0.23398920367549536,7.985347747802734,7.552258938701272,-0.43308880910146197
45,0.0051784515380859375,-0.6771707534790039,0.14606904983520508,0.08743690699338913,2.2833445072174072,-0.04944724589586258,2.5494537353515625,2.1396375053088796,-0.40981623004268286,7.369964599609375,7.552258938701272,0.1822943390918974
46,0.0051784515380859375,-0.6771707534790039,0.1464533805847168,0.08820389956235886,2.2833445072174072,-0.04944724589586258,2.0805892944335938,2.13723449999428,0.05664520556068631,7.838829040527344,7.552218994886093,-0.28661004564125037
47,0.0051784515380859375,-0.6771707534790039,0.1464533805847168,0.08743690699338913,2.2833445072174072,-0.04944724589586258,2.4322357177734375,2.1373327999637493,-0.29490291780968825,7.721611022949219,7.551850825258718,-0.16976019769050055
48,0.0051784515380859375,-0.6771707534790039,0.1464533805847168,0.08820389956235886,2.2833445072174072,-0.04944724589586258,2.373626708984375,2.13723449999428,-0.23639220899009494,8.014652252197266,7.552218994886093,-0.46243325731117224
49,0.0051784515380859375,-0.6771707534790039,0.1464533805847168,0.08820389956235886,2.2833445072174072,-0.04944724589586258,2.4908447265625,2.13723449999428,-0.35361022656821994,7.487178802490234,7.552218994886093,0.06504019239585901
50,0.0051784515380859375,-0.6771707534790039,0.1464533805847168,0.08820389956235886,2.2833445072174072,-0.04944724589586258,2.373626708984375,2.13723449999428,-0.23639220899009494,7.75091552734375,7.552218994886093,-0.19869653245765662
51,0.0051784515380859375,-0.6771707534790039,0.1464533805847168,0.08743690699338913,2.2833445072174072,-0.04944724589586258,2.3150177001953125,2.1373327999637493,-0.17768490023156325,7.926738739013672,7.551850825258718,-0.37488791375495367
52,0.0051784515380859375,-0.6771707534790039,0.1464533805847168,0.08820389956235886,2.2833375930786133,-0.049449604004621506,2.373626708984375,2.1372919675983812,-0.23633474138599375,7.633701324462891,7.552251070160873,-0.08145025430201791
53,0.0051784515380859375,-0.6771707534790039,0.1464533805847168,0.08743690699338913,2.2833375930786133,-0.049449604004621506,2.3150177001953125,2.137390266445202,-0.1776274337501107,8.10256576538086,7.551882886680816,-0.5506828787000435
54,0.0051784515380859375,-0.6771707534790039,0.1464533805847168,0.08820389956235886,2.2833445072174072,-0.04944724589586258,2.4322357177734375,2.13723449999428,-0.29500121777915744,8.190475463867188,7.552218994886093,-0.6382564689810941
55,0.0051784515380859375,-0.6771707534790039,0.1464533805847168,0.08743690699338913,2.2833445072174072,-0.04944724589586258,2.3150177001953125,2.1373327999637493,-0.17768490023156325,7.223442077636719,7.551850825258718,0.32840874762199945
56,0.0051784515380859375,-0.6771707534790039,0.1464533805847168,0.08820389956235886,2.2833445072174072,-0.04944724589586258,2.4322357177734375,2.13723449999428,-0.29500121777915744,7.6923065185546875,7.552218994886093,-0.14008752366859412
57,0.0051784515380859375,-0.6771707534790039,0.1464533805847168,0.08820389956235886,2.2833445072174072,-0.04944724589586258,2.373626708984375,2.13723449999428,-0.23639220899009494,7.457874298095703,7.552218994886093,0.09434469679039026
58,0.004795074462890625,-0.6771707534790039,0.1464533805847168,0.08820389956235886,2.2833445072174072,-0.04944724589586258,2.5494537353515625,2.13723449999428,-0.41221923535728244,7.75091552734375,7.552218994886093,-0.19869653245765662
59,0.0051784515380859375,-0.6771707534790039,0.14606904983520508,0.08743690699338913,2.2833445072174072,-0.04944724589586258,2.25640869140625,2.1396375053088796,-0.11677118609737036,7.282051086425781,7.552258938701272,0.27020785227549116
60,0.0051784515380859375,-0.6771707534790039,0.14606904983520508,0.08820389956235886,2.2833445072174072,-0.04944724589586258,2.3150177001953125,2.1395380926823417,-0.17547960751297076,7.780220031738281,7.552626637713701,-0.22759339402458068
61,0.0051784515380859375,-0.6771707534790039,0.1464533805847168,0.08820389956235886,2.2833445072174072,-0.04944724589586258,2.5494537353515625,2.13723449999428,-0.41221923535728244,7.663002014160156,7.552218994886093,-0.11078301927406287
62,0.0051784515380859375,-0.6771707534790039,0.1464533805847168,0.08820389956235886,2.2833445072174072,-0.04944724589586258,2.1977996826171875,2.13723449999428,-0.06056518262290744,7.3113555908203125,7.552218994886093,0.24086340406578088
63,0.004795074462890625,-0.6771707534790039,0.1464533805847168,0.08743690699338913,2.2833445072174072,-0.04944724589586258,2.6080551147460938,2.1373327999637493,-0.4707223147823445,7.8095245361328125,7.551850825258718,-0.2576737108740943
64,0.0051784515380859375,-0.6771707534790039,0.1464533805847168,0.08820389956235886,2.2833445072174072,-0.04944724589586258,2.4322357177734375,2.13723449999428,-0.29500121777915744,7.575092315673828,7.552218994886093,-0.02287332078773474
65,0.0051784515380859375,-0.6771707534790039,0.1464533805847168,0.08743690699338913,2.2833445072174072,-0.04944724589586258,2.3150177001953125,2.1373327999637493,-0.17768490023156325,7.633701324462891,7.551850825258718,-0.08185049920417242
66,0.0051784515380859375,-0.6771707534790039,0.1464533805847168,0.08820389956235886,2.2833445072174072,-0.04944724589586258,2.1977996826171875,2.13723449999428,-0.06056518262290744,8.073261260986328,7.552218994886093,-0.5210422661002347
67,0.004795074462890625,-0.6771707534790039,0.1464533805847168,0.08743690699338913,2.2833445072174072,-0.04944724589586258,2.373626708984375,2.1373327999637493,-0.23629390902062575,7.457874298095703,7.551850825258718,0.09397652716301508
68,0.004795074462890625,-0.6771707534790039,0.1464533805847168,0.08743690699338913,2.2833445072174072,-0.04944724589586258,2.139190673828125,2.1373327999637493,-0.0018578738643757475,7.75091552734375,7.551850825258718,-0.1990647020850318
69,0.0051784515380859375,-0.6771707534790039,0.14606904983520508,0.08820389956235886,2.2833445072174072,-0.04944724589586258,2.1977996826171875,2.1395380926823417,-0.05826158993484576,7.8095245361328125,7.552626637713701,-0.2568978984191119
70,0.004795074462890625,-0.6771707534790039,0.1464533805847168,0.08743690699338913,2.2833445072174072,-0.04944724589586258,2.4322357177734375,2.1373327999637493,-0.29490291780968825,7.897434234619141,7.551850825258718,-0.3455834093604224
71,0.004795074462890625,-0.6771707534790039,0.1464533805847168,0.08820389956235886,2.2833445072174072,-0.04944724589586258,2.4908447265625,2.13723449999428,-0.35361022656821994,7.721611022949219,7.552218994886093,-0.16939202806312537
72,0.0051784515380859375,-0.6771707534790039,0.1464533805847168,0.08820389956235886,2.2833445072174072,-0.04944724589586258,2.25640869140625,2.13723449999428,-0.11917419141196994,7.604396820068359,7.552218994886093,-0.05217782518226599
73,0.0051784515380859375,-0.6771707534790039,0.1464533805847168,0.08743690699338913,2.2833445072174072,-0.04944724589586258,2.139190673828125,2.1373327999637493,-0.0018578738643757475,7.721611022949219,7.551850825258718,-0.16976019769050055
74,0.004795074462890625,-0.6771707534790039,0.1464533805847168,0.08820389956235886,2.2833445072174072,-0.04944724589586258,2.4908447265625,2.13723449999428,-0.35361022656821994,8.014652252197266,7.552218994886093,-0.46243325731117224
75,0.0051784515380859375,-0.6773624420166016,0.1464533805847168,0.08743690699338913,2.2833445072174072,-0.04944724589586258,2.373626708984375,2.14001711012682,-0.23360959885755506,7.985347747802734,7.551470438872364,-0.43387730893037
76,0.0051784515380859375,-0.6771707534790039,0.14606904983520508,0.08820389956235886,2.2833445072174072,-0.04944724589586258,2.4908447265625,2.1395380926823417,-0.35130663388015826,7.369964599609375,7.552626637713701,0.18266203810432557
77,0.0051784515380859375,-0.6773624420166016,0.1464533805847168,0.08743690699338913,2.2833445072174072,-0.04944724589586258,2.5494537353515625,2.14001711012682,-0.40943662522474256,8.131866455078125,7.551470438872364,-0.5803960162057606
78,0.004795074462890625,-0.6771707534790039,0.1464533805847168,0.08743690699338913,2.2833445072174072,-0.04944724589586258,2.4322357177734375,2.1373327999637493,-0.29490291780968825,7.8095245361328125,7.551850825258718,-0.2576737108740943
79,0.0051784515380859375,-0.6773624420166016,0.14606904983520508,0.08743690699338913,2.2833445072174072,-0.04944724589586258,2.4322357177734375,2.1423211725768017,-0.28991454519663584,7.604396820068359,7.5518774765076415,-0.05251934356071786
80,0.004795074462890625,-0.6771707534790039,0.1464533805847168,0.08743690699338913,2.2833445072174072,-0.04944724589586258,2.3150177001953125,2.1373327999637493,-0.17768490023156325,7.457874298095703,7.551850825258718,0.09397652716301508
81,0.004795074462890625,-0.6773624420166016,0.1464533805847168,0.08820389956235886,2.2833445072174072,-0.04944724589586258,2.373626708984375,2.1399182552074585,-0.2337084537769165,7.897434234619141,7.551838373782948,-0.34559586083619287
82,0.004795074462890625,-0.6771707534790039,0.1464533805847168,0.08743690699338913,2.2833445072174072,-0.04944724589586258,2.1977996826171875,2.1373327999637493,-0.06046688265343825,7.135532379150391,7.551850825258718,0.4163184461083276
83,0.0051784515380859375,-0.6773624420166016,0.14606904983520508,0.08743690699338913,2.2833445072174072,-0.04944724589586258,2.4322357177734375,2.1423211725768017,-0.28991454519663584,7.487178802490234,7.5518774765076415,0.06469867401740714
84,0.004795074462890625,-0.6771707534790039,0.1464533805847168,0.08820389956235886,2.2833445072174072,-0.04944724589586258,2.4908447265625,2.13723449999428,-0.35361022656821994,7.721611022949219,7.552218994886093,-0.16939202806312537
85,0.0051784515380859375,-0.6771707534790039,0.1464533805847168,0.08743690699338913,2.2833445072174072,-0.04944724589586258,2.4908447265625,2.1373327999637493,-0.35351192659875075,7.868133544921875,7.551850825258718,-0.3162827196631568
86,0.004795074462890625,-0.6771707534790039,0.1464533805847168,0.08743690699338913,2.2833445072174072,-0.04944724589586258,2.3150177001953125,2.1373327999637493,-0.17768490023156325,8.10256576538086,7.551850825258718,-0.5507149401221412
87,0.0051784515380859375,-0.6773624420166016,0.14606904983520508,0.08743690699338913,2.2833445072174072,-0.04944724589586258,2.3150177001953125,2.1423211725768017,-0.17269652761851084,7.369964599609375,7.5518774765076415,0.18191287689826652
88,0.0051784515380859375,-0.6771707534790039,0.14606904983520508,0.08743690699338913,2.2833445072174072,-0.04944724589586258,2.373626708984375,2.1396375053088796,-0.23398920367549536,7.6923065185546875,7.552258938701272,-0.1400475798534151
89,0.004795074462890625,-0.6771707534790039,0.1464533805847168,0.08820389956235886,2.2833445072174072,-0.04944724589586258,2.4322357177734375,2.13723449999428,-0.29500121777915744,8.161170959472656,7.552218994886093,-0.6089519645865629
90,0.0051784515380859375,-0.6771707534790039,0.1464533805847168,0.08743690699338913,2.2833445072174072,-0.04944724589586258,2.1977996826171875,2.1373327999637493,-0.06046688265343825,7.956043243408203,7.551850825258718,-0.4041924181494849
91,0.004795074462890625,-0.6771707534790039,0.14606904983520508,0.08743690699338913,2.2833375930786133,-0.049449604004621506,2.373626708984375,2.139694971215077,-0.2339317377692982,7.838829040527344,7.552290993174865,-0.28653804735247856
92,0.0051784515380859375,-0.6771707534790039,0.14606904983520508,0.08820389956235886,2.2833375930786133,-0.049449604004621506,2.373626708984375,2.139595559728125,-0.2340311492562499,7.604396820068359,7.552658706049427,-0.05173811401893236
93,0.0051784515380859375,-0.6771707534790039,0.14606904983520508,0.08743690699338913,2.2833375930786133,-0.049449604004621506,2.4908447265625,2.139694971215077,-0.3511497553474232,7.663002014160156,7.552290993174865,-0.11071102098529106
94,0.0051784515380859375,-0.6773624420166016,0.1464533805847168,0.08820389956235886,2.2833375930786133,-0.049449604004621506,2.4322357177734375,2.139975722534153,-0.29225999523928436,7.75091552734375,7.551870445597402,-0.19904508174634827
95,0.0051784515380859375,-0.6771707534790039,0.1464533805847168,0.08743690699338913,2.2833375930786133,-0.049449604004621506,2.373626708984375,2.137390266445202,-0.2362364425391732,7.457874298095703,7.551882886680816,0.09400858858511274
96,0.0051784515380859375,-0.6771707534790039,0.14606904983520508,0.08820389956235886,2.2833375930786133,-0.049449604004621506,2.3150177001953125,2.139595559728125,-0.1754221404671874,7.838829040527344,7.552658706049427,-0.28617033447791673
97,0.0051784515380859375,-0.6773624420166016,0.1464533805847168,0.08743690699338913,2.2833375930786133,-0.049449604004621506,2.25640869140625,2.1400745763224194,-0.11633411508383062,7.985347747802734,7.551502496829422,-0.43384525097331217
98,0.004795074462890625,-0.6771707534790039,0.1464533805847168,0.08820389956235886,2.2833375930786133,-0.049449604004621506,2.6666641235351562,2.1372919675983812,-0.529372155936775,7.663002014160156,7.552251070160873,-0.11075094399928354
99,0.0051784515380859375,-0.6771707534790039,0.1464533805847168,0.08743690699338913,2.2833375930786133,-0.049449604004621506,2.4322357177734375,2.137390266445202,-0.2948454513282357,7.369964599609375,7.551882886680816,0.18191828707144087
100,0.004795074462890625,-0.6771707534790039,0.1464533805847168,0.08820389956235886,2.2833375930786133,-0.049449604004621506,2.3150177001953125,2.1372919675983812,-0.17772573259693125,7.663002014160156,7.552251070160873,-0.11075094399928354
101,0.0051784515380859375,-0.6771707534790039,0.14606904983520508,0.08820389956235886,2.2833375930786133,-0.049449604004621506,2.25640869140625,2.139595559728125,-0.1168131316781249,8.131866455078125,7.552658706049427,-0.579207749028698
102,0.0051784515380859375,-0.6773624420166016,0.1464533805847168,0.08743690699338913,2.2833375930786133,-0.049449604004621506,2.373626708984375,2.1400745763224194,-0.23355213266195562,7.75091552734375,7.551502496829422,-0.1994130305143278
103,0.0051784515380859375,-0.6773624420166016,0.1464533805847168,0.08743690699338913,2.2833375930786133,-0.049449604004621506,2.3150177001953125,2.1400745763224194,-0.17494312387289312,8.014652252197266,7.551502496829422,-0.4631497553678434
104,0.0051784515380859375,-0.6773624420166016,0.14606904983520508,0.08820389956235886,2.2833445072174072,-0.04944724589586258,2.25640869140625,2.1422212050076723,-0.11418748639857768,8.073261260986328,7.5522449407761805,-0.5210163202101477
105,0.004795074462890625,-0.6771707534790039,0.1464533805847168,0.08743690699338913,2.2833445072174072,-0.04944724589586258,2.3150177001953125,2.1373327999637493,-0.17768490023156325,7.6923065185546875,7.551850825258718,-0.1404556932959693
106,0.004795074462890625,-0.6771707534790039,0.1464533805847168,0.08743690699338913,2.2833445072174072,-0.04944724589586258,2.25640869140625,2.1373327999637493,-0.11907589144250075,8.014652252197266,7.551850825258718,-0.4628014269385474
107,0.0051784515380859375,-0.6771707534790039,0.14606904983520508,0.08743690699338913,2.2833445072174072,-0.04944724589586258,2.3150177001953125,2.1396375053088796,-0.17538019488643286,7.780220031738281,7.552258938701272,-0.22796109303700884
108,0.0051784515380859375,-0.6771707534790039,0.1464533805847168,0.08743690699338913,2.2833445072174072,-0.04944724589586258,2.139190673828125,2.1373327999637493,-0.0018578738643757475,8.219779968261719,7.551850825258718,-0.6679291430030005
109,0.0051784515380859375,-0.6771707534790039,0.14606904983520508,0.08743690699338913,2.2833445072174072,-0.04944724589586258,2.1977996826171875,2.1396375053088796,-0.05816217730830786,7.369964599609375,7.552258938701272,0.1822943390918974
110,0.0051784515380859375,-0.6771707534790039,0.1464533805847168,0.08743690699338913,2.2833445072174072,-0.04944724589586258,2.3150177001953125,2.1373327999637493,-0.17768490023156325,7.780220031738281,7.551850825258718,-0.22836920647956305
111,0.0051784515380859375,-0.6771707534790039,0.1464533805847168,0.08743690699338913,2.2833445072174072,-0.04944724589586258,2.4908447265625,2.1373327999637493,-0.35351192659875075,7.926738739013672,7.551850825258718,-0.37488791375495367
112,0.0051784515380859375,-0.6771707534790039,0.1464533805847168,0.08743690699338913,2.2833445072174072,-0.04944724589586258,2.5494537353515625,2.1373327999637493,-0.41212093538781325,7.663002014160156,7.551850825258718,-0.11115118890143805
113,0.0051784515380859375,-0.6771707534790039,0.1464533805847168,0.08820389956235886,2.2833445072174072,-0.04944724589586258,2.4322357177734375,2.13723449999428,-0.29500121777915744,7.721611022949219,7.552218994886093,-0.16939202806312537
114,0.0051784515380859375,-0.6771707534790039,0.1464533805847168,0.08820389956235886,2.2833445072174072,-0.04944724589586258,2.3150177001953125,2.13723449999428,-0.17778320020103244,7.985347747802734,7.552218994886093,-0.433128752916641
115,0.0051784515380859375,-0.6771707534790039,0.1464533805847168,0.08743690699338913,2.2833445072174072,-0.04944724589586258,2.4322357177734375,2.1373327999637493,-0.29490291780968825,7.926738739013672,7.551850825258718,-0.37488791375495367
116,0.004795074462890625,-0.6771707534790039,0.14606904983520508,0.08820389956235886,2.2833445072174072,-0.04944724589586258,2.4908447265625,2.1395380926823417,-0.35130663388015826,8.073261260986328,7.552626637713701,-0.5206346232726276
117,0.0051784515380859375,-0.6771707534790039,0.1464533805847168,0.08743690699338913,2.283330202102661,-0.04944247752428055,2.373626708984375,2.1374516961209142,-0.23617501286346076,8.161170959472656,7.551917159097286,-0.6092538003753702
118,0.0051784515380859375,-0.6773624420166016,0.1464533805847168,0.08820389956235886,2.283323287963867,-0.04944014549255371,2.4908447265625,2.140094620419559,-0.3507501061429412,8.24908447265625,7.5519368006792575,-0.6971476719769925
119,0.0051784515380859375,-0.6771707534790039,0.1464533805847168,0.08743690699338913,2.283323287963867,-0.04944014549255371,2.4908447265625,2.137509162581111,-0.3533355639813891,7.575092315673828,7.551949220260841,-0.02314309541298698
120,0.004795074462890625,-0.6771707534790039,0.14606904983520508,0.08820389956235886,2.283323287963867,-0.04944014549255371,2.373626708984375,2.1397144570320883,-0.2339122519522867,7.8095245361328125,7.552725053933778,-0.2567994821990345
121,0.0051784515380859375,-0.6771707534790039,0.1464533805847168,0.08743690699338913,2.283323287963867,-0.04944014549255371,2.4322357177734375,2.137509162581111,-0.2947265551923266,7.926738739013672,7.551949220260841,-0.37478951875283073
122,0.0051784515380859375,-0.6771707534790039,0.1464533805847168,0.08743690699338913,2.283323287963867,-0.04944014549255371,2.3150177001953125,2.137509162581111,-0.1775085376142016,7.6923065185546875,7.551949220260841,-0.14035729829384636
123,0.0051784515380859375,-0.6771707534790039,0.1464533805847168,0.08820389956235886,2.283323287963867,-0.04944014549255371,2.373626708984375,2.1374108660579694,-0.23621584292640563,7.8095245361328125,7.552317432402157,-0.25720710373065536
124,0.0051784515380859375,-0.6771707534790039,0.1464533805847168,0.08743690699338913,2.283323287963867,-0.04944014549255371,2.4322357177734375,2.137509162581111,-0.2947265551923266,7.838829040527344,7.551949220260841,-0.2868798202665026
125,0.004795074462890625,-0.6771707534790039,0.1464533805847168,0.08743690699338913,2.283323287963867,-0.04944014549255371,2.4908447265625,2.137509162581111,-0.3533355639813891,8.307693481445312,7.551949220260841,-0.7557442611844714
126,0.004795074462890625,-0.6771707534790039,0.1464533805847168,0.08743690699338913,2.283323287963867,-0.04944014549255371,2.139190673828125,2.137509162581111,-0.0016815112470141003,7.604396820068359,7.551949220260841,-0.05244759980751823
127,0.0051784515380859375,-0.6771707534790039,0.1464533805847168,0.08743690699338913,2.283323287963867,-0.04944014549255371,2.5494537353515625,2.137509162581111,-0.4119445727704516,7.780220031738281,7.551949220260841,-0.2282708114774401
128,0.0051784515380859375,-0.6771707534790039,0.14606904983520508,0.08743690699338913,2.283323287963867,-0.04944014549255371,2.4908447265625,2.1398138661603117,-0.35103086040218834,7.985347747802734,7.552357312378399,-0.432990435424335
129,0.004795074462890625,-0.6771707534790039,0.14606904983520508,0.08743690699338913,2.283323287963867,-0.04944014549255371,2.3150177001953125,2.1398138661603117,-0.17520383403500084,7.516483306884766,7.552357312378399,0.03587400549363373
130,0.004795074462890625,-0.6771707534790039,0.1464533805847168,0.08743690699338913,2.283323287963867,-0.04944014549255371,2.3150177001953125,2.137509162581111,-0.1775085376142016,8.014652252197266,7.551949220260841,-0.4627030319364245
131,0.0051784515380859375,-0.6771707534790039,0.1464533805847168,0.08743690699338913,2.283323287963867,-0.04944014549255371,2.6666641235351562,2.137509162581111,-0.5291549609540454,7.838829040527344,7.551949220260841,-0.2868798202665026
132,0.0051784515380859375,-0.6771707534790039,0.1464533805847168,0.08743690699338913,2.283323287963867,-0.04944014549255371,2.3150177001953125,2.137509162581111,-0.1775085376142016,7.575092315673828,7.551949220260841,-0.02314309541298698
133,0.004795074462890625,-0.6771707534790039,0.1464533805847168,0.08820389956235886,2.283323287963867,-0.04944014549255371,2.4322357177734375,2.1374108660579694,-0.29482485171546813,7.545787811279297,7.552317432402157,0.006529621122860263
134,0.004795074462890625,-0.6771707534790039,0.1464533805847168,0.08743690699338913,2.283323287963867,-0.04944014549255371,2.25640869140625,2.137509162581111,-0.1188995288251391,7.838829040527344,7.551949220260841,-0.2868798202665026
135,0.0051784515380859375,-0.6771707534790039,0.1464533805847168,0.08743690699338913,2.283323287963867,-0.04944014549255371,2.0805892944335938,2.137509162581111,0.05691986814751715,8.073261260986328,7.551949220260841,-0.521312040725487
136,0.0051784515380859375,-0.6771707534790039,0.1464533805847168,0.08743690699338913,2.283323287963867,-0.04944014549255371,2.373626708984375,2.137509162581111,-0.2361175464032641,7.545787811279297,7.551949220260841,0.00616140898154427
137,0.0051784515380859375,-0.6771707534790039,0.1464533805847168,0.08743690699338913,2.283323287963867,-0.04944014549255371,2.6666641235351562,2.137509162581111,-0.5291549609540454,7.985347747802734,7.551949220260841,-0.43339852754189323
138,0.004795074462890625,-0.6771707534790039,0.1464533805847168,0.08743690699338913,2.283323287963867,-0.04944014549255371,2.1977996826171875,2.137509162581111,-0.0602905200360766,7.25274658203125,7.551949220260841,0.29920263822959114
139,0.004795074462890625,-0.6771707534790039,0.1464533805847168,0.08743690699338913,2.283323287963867,-0.04944014549255371,2.6666641235351562,2.137509162581111,-0.5291549609540454,7.604396820068359,7.551949220260841,-0.05244759980751823
140,0.0051784515380859375,-0.6773624420166016,0.1464533805847168,0.08820389956235886,2.283323287963867,-0.04944014549255371,2.4322357177734375,2.140094620419559,-0.2921410973538787,7.780220031738281,7.5519368006792575,-0.2282832310590237
141,0.004795074462890625,-0.6771707534790039,0.1464533805847168,0.08743690699338913,2.283323287963867,-0.04944014549255371,2.4322357177734375,2.137509162581111,-0.2947265551923266,7.780220031738281,7.551949220260841,-0.2282708114774401
142,0.004795074462890625,-0.6771707534790039,0.1464533805847168,0.08743690699338913,2.283323287963867,-0.04944014549255371,2.4908447265625,2.137509162581111,-0.3533355639813891,7.721611022949219,7.551949220260841,-0.1696618026883776
143,0.004795074462890625,-0.6773624420166016,0.14606904983520508,0.08743690699338913,2.283323287963867,-0.04944014549255371,2.3150177001953125,2.142497532537721,-0.17252016765759137,7.575092315673828,7.551975839543298,-0.023116476130530472
144,0.0051784515380859375,-0.6771707534790039,0.1464533805847168,0.08743690699338913,2.283323287963867,-0.04944014549255371,2.3150177001953125,2.137509162581111,-0.1775085376142016,7.516483306884766,7.551949220260841,0.03546591337607552
145,0.004795074462890625,-0.6771707534790039,0.14606904983520508,0.08743690699338913,2.283323287963867,-0.04944014549255371,2.6080551147460938,2.1398138661603117,-0.4682412485857821,7.8095245361328125,7.552357312378399,-0.25716722375441314
146,0.004795074462890625,-0.6771707534790039,0.1464533805847168,0.08743690699338913,2.283323287963867,-0.04944014549255371,2.3150177001953125,2.137509162581111,-0.1775085376142016,7.663002014160156,7.551949220260841,-0.1110527938993151
147,0.0051784515380859375,-0.6771707534790039,0.1464533805847168,0.08820389956235886,2.283323287963867,-0.04944014549255371,2.1977996826171875,2.1374108660579694,-0.06038881655921813,7.956043243408203,7.552317432402157,-0.403725811006046
148,0.004795074462890625,-0.6771707534790039,0.1464533805847168,0.08743690699338913,2.283323287963867,-0.04944014549255371,2.139190673828125,2.137509162581111,-0.0016815112470141003,7.868133544921875,7.551949220260841,-0.31618432466103386
149,0.0051784515380859375,-0.6771707534790039,0.1464533805847168,0.08820389956235886,2.283323287963867,-0.04944014549255371,2.3150177001953125,2.1374108660579694,-0.17760683413734313,7.721611022949219,7.552317432402157,-0.1692935905470616
150,0.0051784515380859375,-0.6771707534790039,0.1464533805847168,0.08743690699338913,2.283323287963867,-0.04944014549255371,2.373626708984375,2.137509162581111,-0.2361175464032641,7.516483306884766,7.551949220260841,0.03546591337607552
151,0.0051784515380859375,-0.6771707534790039,0.1464533805847168,0.08743690699338913,2.283323287963867,-0.04944014549255371,2.373626708984375,2.137509162581111,-0.2361175464032641,7.956043243408203,7.551949220260841,-0.404094023147362
152,0.0051784515380859375,-0.6771707534790039,0.1464533805847168,0.08743690699338913,2.283323287963867,-0.04944014549255371,2.139190673828125,2.137509162581111,-0.0016815112470141003,7.516483306884766,7.551949220260841,0.03546591337607552
153,0.004795074462890625,-0.6771707534790039,0.14606904983520508,0.08743690699338913,2.283323287963867,-0.04944014549255371,2.25640869140625,2.1398138661603117,-0.11659482524593834,8.043956756591797,7.552357312378399,-0.4915994442133975
154,0.0051784515380859375,-0.6771707534790039,0.1464533805847168,0.08743690699338913,2.283323287963867,-0.04944014549255371,2.4322357177734375,2.137509162581111,-0.2947265551923266,8.014652252197266,7.551949220260841,-0.4627030319364245
155,0.0051784515380859375,-0.6771707534790039,0.1464533805847168,0.08743690699338913,2.283323287963867,-0.04944014549255371,2.373626708984375,2.137509162581111,-0.2361175464032641,7.721611022949219,7.551949220260841,-0.1696618026883776
156,0.004795074462890625,-0.6771707534790039,0.1464533805847168,0.08743690699338913,2.283323287963867,-0.04944014549255371,2.139190673828125,2.137509162581111,-0.0016815112470141003,7.780220031738281,7.551949220260841,-0.2282708114774401
157,0.004795074462890625,-0.6771707534790039,0.1464533805847168,0.08743690699338913,2.283323287963867,-0.04944014549255371,2.1977996826171875,2.137509162581111,-0.0602905200360766,8.10256576538086,7.551949220260841,-0.5506165451200182
158,0.004795074462890625,-0.6771707534790039,0.1464533805847168,0.08743690699338913,2.283323287963867,-0.04944014549255371,2.1977996826171875,2.137509162581111,-0.0602905200360766,7.575092315673828,7.551949220260841,-0.02314309541298698
159,0.0051784515380859375,-0.6771707534790039,0.1464533805847168,0.08743690699338913,2.283323287963867,-0.04944014549255371,2.373626708984375,2.137509162581111,-0.2361175464032641,8.014652252197266,7.551949220260841,-0.4627030319364245
160,0.0051784515380859375,-0.6771707534790039,0.1464533805847168,0.08820389956235886,2.283323287963867,-0.04944014549255371,2.373626708984375,2.1374108660579694,-0.23621584292640563,8.512821197509766,7.552317432402157,-0.9605037651076085
161,0.0051784515380859375,-0.6771707534790039,0.1464533805847168,0.08743690699338913,2.283323287963867,-0.04944014549255371,2.373626708984375,2.137509162581111,-0.2361175464032641,7.780220031738281,7.551949220260841,-0.2282708114774401
162,0.0051784515380859375,-0.6771707534790039,0.14606904983520508,0.08820389956235886,2.283323287963867,-0.04944014549255371,2.1977996826171875,2.1397144570320883,-0.05808522558509921,7.8095245361328125,7.552725053933778,-0.2567994821990345
163,0.0051784515380859375,-0.6771707534790039,0.1464533805847168,0.08743690699338913,2.283323287963867,-0.04944014549255371,2.3150177001953125,2.137509162581111,-0.1775085376142016,7.780220031738281,7.551949220260841,-0.2282708114774401
164,0.004795074462890625,-0.6771707534790039,0.1464533805847168,0.08820389956235886,2.283323287963867,-0.04944014549255371,2.3150177001953125,2.1374108660579694,-0.17760683413734313,7.282051086425781,7.552317432402157,0.2702663459763759
165,0.004795074462890625,-0.6771707534790039,0.1464533805847168,0.08743690699338913,2.283323287963867,-0.04944014549255371,2.3150177001953125,2.137509162581111,-0.1775085376142016,7.985347747802734,7.551949220260841,-0.43339852754189323
166,0.0051784515380859375,-0.6773624420166016,0.1464533805847168,0.08820389956235886,2.283323287963867,-0.04944014549255371,2.25640869140625,2.140094620419559,-0.11631407098669122,7.721611022949219,7.5519368006792575,-0.1696742222699612
167,0.0051784515380859375,-0.6771707534790039,0.1464533805847168,0.08743690699338913,2.283323287963867,-0.04944014549255371,2.4322357177734375,2.137509162581111,-0.2947265551923266,7.487178802490234,7.551949220260841,0.06477041777060677
168,0.0051784515380859375,-0.6771707534790039,0.1464533805847168,0.08820389956235886,2.283323287963867,-0.04944014549255371,2.4908447265625,2.1374108660579694,-0.35343386050453063,8.10256576538086,7.552317432402157,-0.5502483329787022
169,0.004795074462890625,-0.6773624420166016,0.14606904983520508,0.08743690699338913,2.283323287963867,-0.04944014549255371,2.5494537353515625,2.142497532537721,-0.4069562028138414,7.721611022949219,7.551975839543298,-0.1696351834059211
170,0.0051784515380859375,-0.6771707534790039,0.1464533805847168,0.08820389956235886,2.283323287963867,-0.04944014549255371,2.25640869140625,2.1374108660579694,-0.11899782534828063,8.014652252197266,7.552317432402157,-0.4623348197951085
171,0.004795074462890625,-0.6771707534790039,0.14606904983520508,0.08743690699338913,2.283323287963867,-0.04944014549255371,2.5494537353515625,2.1398138661603117,-0.40963986919125084,7.663002014160156,7.552357312378399,-0.1106447017817569
172,0.004795074462890625,-0.6771707534790039,0.1464533805847168,0.08743690699338913,2.283323287963867,-0.04944014549255371,2.4908447265625,2.137509162581111,-0.3533355639813891,7.721611022949219,7.551949220260841,-0.1696618026883776
173,0.004795074462890625,-0.6771707534790039,0.1464533805847168,0.08820389956235886,2.283323287963867,-0.04944014549255371,2.3150177001953125,2.1374108660579694,-0.17760683413734313,7.926738739013672,7.552317432402157,-0.37442130661151474
174,0.0051784515380859375,-0.6771707534790039,0.1464533805847168,0.08743690699338913,2.283323287963867,-0.04944014549255371,2.25640869140625,2.137509162581111,-0.1188995288251391,7.956043243408203,7.551949220260841,-0.404094023147362
175,0.004795074462890625,-0.6771707534790039,0.1464533805847168,0.08820389956235886,2.283323287963867,-0.04944014549255371,2.5494537353515625,2.1374108660579694,-0.41204286929359313,7.6923065185546875,7.552317432402157,-0.13998908615253036
176,0.004795074462890625,-0.6771707534790039,0.1464533805847168,0.08743690699338913,2.283323287963867,-0.04944014549255371,2.4908447265625,2.137509162581111,-0.3533355639813891,7.956043243408203,7.551949220260841,-0.404094023147362
177,0.004795074462890625,-0.6771707534790039,0.1464533805847168,0.08743690699338913,2.283323287963867,-0.04944014549255371,2.25640869140625,2.137509162581111,-0.1188995288251391,8.131866455078125,7.551949220260841,-0.5799172348172839
178,0.0051784515380859375,-0.6771707534790039,0.1464533805847168,0.08743690699338913,2.283323287963867,-0.04944014549255371,2.4322357177734375,2.137509162581111,-0.2947265551923266,7.575092315673828,7.551949220260841,-0.02314309541298698
179,0.0051784515380859375,-0.6771707534790039,0.1464533805847168,0.08743690699338913,2.283323287963867,-0.04944014549255371,1.9633712768554688,2.137509162581111,0.17413788572564215,7.956043243408203,7.551949220260841,-0.404094023147362
180,0.0051784515380859375,-0.6771707534790039,0.1464533805847168,0.08743690699338913,2.283323287963867,-0.04944014549255371,2.373626708984375,2.137509162581111,-0.2361175464032641,7.575092315673828,7.551949220260841,-0.02314309541298698
181,0.0051784515380859375,-0.6771707534790039,0.1464533805847168,0.08743690699338913,2.283323287963867,-0.04944014549255371,2.3150177001953125,2.137509162581111,-0.1775085376142016,7.3113555908203125,7.551949220260841,0.24059362944052864
182,0.0051784515380859375,-0.6771707534790039,0.1464533805847168,0.08743690699338913,2.283323287963867,-0.04944014549255371,2.25640869140625,2.137509162581111,-0.1188995288251391,7.399269104003906,7.551949220260841,0.1526801162569349
183,0.0051784515380859375,-0.6771707534790039,0.14606904983520508,0.08820389956235886,2.283323287963867,-0.04944014549255371,2.5494537353515625,2.1397144570320883,-0.4097392783194742,7.633701324462891,7.552725053933778,-0.0809762705291126
184,0.0051784515380859375,-0.6771707534790039,0.1464533805847168,0.08743690699338913,2.283323287963867,-0.04944014549255371,2.3150177001953125,2.137509162581111,-0.1775085376142016,8.131866455078125,7.551949220260841,-0.5799172348172839
185,0.004795074462890625,-0.6771707534790039,0.1464533805847168,0.08820389956235886,2.283323287963867,-0.04944014549255371,2.1977996826171875,2.1374108660579694,-0.06038881655921813,7.868133544921875,7.552317432402157,-0.31581611251971786
186,0.0051784515380859375,-0.6771707534790039,0.14606904983520508,0.08743690699338913,2.283323287963867,-0.04944014549255371,2.4322357177734375,2.1398138661603117,-0.29242185161312584,7.6923065185546875,7.552357312378399,-0.13994920617628814
187,0.0051784515380859375,-0.6771707534790039,0.1464533805847168,0.08743690699338913,2.283323287963867,-0.04944014549255371,2.3150177001953125,2.137509162581111,-0.1775085376142016,7.633701324462891,7.551949220260841,-0.08175210420204948
188,0.0051784515380859375,-0.6771707534790039,0.1464533805847168,0.08743690699338913,2.283323287963867,-0.04944014549255371,2.373626708984375,2.137509162581111,-0.2361175464032641,7.428569793701172,7.551949220260841,0.12337942655966927
189,0.0051784515380859375,-0.6771707534790039,0.14606904983520508,0.08743690699338913,2.283323287963867,-0.04944014549255371,2.6080551147460938,2.1398138661603117,-0.4682412485857821,7.487178802490234,7.552357312378399,0.06517850988816498
190,0.004795074462890625,-0.6771707534790039,0.1464533805847168,0.08743690699338913,2.283323287963867,-0.04944014549255371,2.5494537353515625,2.137509162581111,-0.4119445727704516,7.633701324462891,7.551949220260841,-0.08175210420204948
191,0.004795074462890625,-0.6771707534790039,0.1464533805847168,0.08743690699338913,2.283323287963867,-0.04944014549255371,2.3150177001953125,2.137509162581111,-0.1775085376142016,7.6923065185546875,7.551949220260841,-0.14035729829384636
192,0.004795074462890625,-0.6771707534790039,0.1464533805847168,0.08743690699338913,2.283323287963867,-0.04944014549255371,2.4322357177734375,2.137509162581111,-0.2947265551923266,7.868133544921875,7.551949220260841,-0.31618432466103386
193,0.004795074462890625,-0.6771707534790039,0.14606904983520508,0.08743690699338913,2.283323287963867,-0.04944014549255371,2.25640869140625,2.1398138661603117,-0.11659482524593834,7.721611022949219,7.552357312378399,-0.1692537105708194
194,0.0051784515380859375,-0.6773624420166016,0.14606904983520508,0.08820389956235886,2.283323287963867,-0.04944014549255371,2.3150177001953125,2.142397568492836,-0.1726201317024767,7.6923065185546875,7.552343346369252,-0.13996317218543552
195,0.004795074462890625,-0.6771707534790039,0.1464533805847168,0.08743690699338913,2.283323287963867,-0.04944014549255371,2.373626708984375,2.137509162581111,-0.2361175464032641,7.780220031738281,7.551949220260841,-0.2282708114774401
196,0.004795074462890625,-0.6771707534790039,0.1464533805847168,0.08820389956235886,2.283323287963867,-0.04944014549255371,2.373626708984375,2.1374108660579694,-0.23621584292640563,8.219779968261719,7.552317432402157,-0.6674625358595616
197,0.0051784515380859375,-0.6771707534790039,0.1464533805847168,0.08743690699338913,2.283323287963867,-0.04944014549255371,2.4322357177734375,2.137509162581111,-0.2947265551923266,7.897434234619141,7.551949220260841,-0.3454850143582995
198,0.004795074462890625,-0.6771707534790039,0.1464533805847168,0.08743690699338913,2.283323287963867,-0.04944014549255371,2.4908447265625,2.137509162581111,-0.3533355639813891,7.75091552734375,7.551949220260841,-0.19896630708290886
199,0.0051784515380859375,-0.6771707534790039,0.14606904983520508,0.08743690699338913,2.283323287963867,-0.04944014549255371,2.4322357177734375,2.1398138661603117,-0.29242185161312584,7.428569793701172,7.552357312378399,0.12378751867722748
200,0.0051784515380859375,-0.6771707534790039,0.14606904983520508,0.08743690699338913,2.283323287963867,-0.04944014549255371,2.4322357177734375,2.1398138661603117,-0.29242185161312584,7.838829040527344,7.552357312378399,-0.2864717281489444
201,0.0051784515380859375,-0.6771707534790039,0.1464533805847168,0.08820389956235886,2.283323287963867,-0.04944014549255371,2.1977996826171875,2.1374108660579694,-0.06038881655921813,7.75091552734375,7.552317432402157,-0.19859809494159286
202,0.0051784515380859375,-0.6771707534790039,0.1464533805847168,0.08743690699338913,2.283323287963867,-0.04944014549255371,2.7838821411132812,2.137509162581111,-0.6463729785321704,7.8095245361328125,7.551949220260841,-0.25757531587197136
203,0.004795074462890625,-0.6771707534790039,0.1464533805847168,0.08743690699338913,2.283323287963867,-0.04944014549255371,2.4322357177734375,2.137509162581111,-0.2947265551923266,8.043956756591797,7.551949220260841,-0.49200753633095573
204,0.004795074462890625,-0.6771707534790039,0.1464533805847168,0.08743690699338913,2.283323287963867,-0.04944014549255371,2.4322357177734375,2.137509162581111,-0.2947265551923266,7.721611022949219,7.551949220260841,-0.1696618026883776
205,0.004795074462890625,-0.6771707534790039,0.1464533805847168,0.08820389956235886,2.283323287963867,-0.04944014549255371,2.4908447265625,2.1374108660579694,-0.35343386050453063,7.780220031738281,7.552317432402157,-0.2279025993361241
206,0.0051784515380859375,-0.6771707534790039,0.14606904983520508,0.08743690699338913,2.283323287963867,-0.04944014549255371,2.4322357177734375,2.1398138661603117,-0.29242185161312584,7.663002014160156,7.552357312378399,-0.1106447017817569
207,0.0051784515380859375,-0.6771707534790039,0.1464533805847168,0.08743690699338913,2.283323287963867,-0.04944014549255371,2.373626708984375,2.137509162581111,-0.2361175464032641,7.457874298095703,7.551949220260841,0.09407492216513802
208,0.004795074462890625,-0.6771707534790039,0.1464533805847168,0.08743690699338913,2.283323287963867,-0.04944014549255371,2.3150177001953125,2.137509162581111,-0.1775085376142016,7.897434234619141,7.551949220260841,-0.3454850143582995
209,0.0051784515380859375,-0.6771707534790039,0.1464533805847168,0.08820389956235886,2.283302068710327,-0.04943301901221275,2.373626708984375,2.1375872320277107,-0.23603947695666427,8.307693481445312,7.552415868742829,-0.7552776127024838
210,0.0051784515380859375,-0.6771707534790039,0.14606904983520508,0.08743690699338913,2.283302068710327,-0.04943301901221275,2.6080551147460938,2.1399902269134827,-0.468064887832611,7.428569793701172,7.552455684877732,0.12388589117655968
211,0.0051784515380859375,-0.6771707534790039,0.14606904983520508,0.08743690699338913,2.283302068710327,-0.04943301901221275,2.4908447265625,2.1399902269134827,-0.35085449964901727,8.131866455078125,7.552455684877732,-0.5794107702003934
212,0.0051784515380859375,-0.6771707534790039,0.14606904983520508,0.08743690699338913,2.283302068710327,-0.04943301901221275,2.373626708984375,2.1399902269134827,-0.23363648207089227,8.073261260986328,7.552455684877732,-0.5208055761085966
213,0.0051784515380859375,-0.6771707534790039,0.1464533805847168,0.08743690699338913,2.283302068710327,-0.04943301901221275,2.373626708984375,2.1376855251016558,-0.23594118388271923,8.043956756591797,7.55204761408597,-0.4919091425058273
214,0.0051784515380859375,-0.6771707534790039,0.1464533805847168,0.08743690699338913,2.283302068710327,-0.04943301901221275,2.1977996826171875,2.1376855251016558,-0.06011415751553173,7.838829040527344,7.55204761408597,-0.28678142644137417
215,0.0051784515380859375,-0.6771707534790039,0.1464533805847168,0.08743690699338913,2.283302068710327,-0.04943301901221275,2.373626708984375,2.1376855251016558,-0.23594118388271923,7.663002014160156,7.55204761408597,-0.11095440007418667
216,0.0051784515380859375,-0.6771707534790039,0.14606904983520508,0.08820389956235886,2.283302068710327,-0.04943301901221275,2.6666641235351562,2.1398908212864445,-0.5267733022487118,7.457874298095703,7.5528234689776585,0.09494917088195542
217,0.004795074462890625,-0.6771707534790039,0.1464533805847168,0.08820389956235886,2.283302068710327,-0.04943301901221275,2.3150177001953125,2.1375872320277107,-0.17743046816760177,8.24908447265625,7.552415868742829,-0.6966686039134213
218,0.0051784515380859375,-0.6773624420166016,0.14606904983520508,0.08743690699338913,2.283302068710327,-0.04943301901221275,2.373626708984375,2.1426738923996655,-0.23095281658470945,7.838829040527344,7.5520742014007585,-0.2867548391265853
219,0.0051784515380859375,-0.6771707534790039,0.1464533805847168,0.08743690699338913,2.283302068710327,-0.04943301901221275,2.4908447265625,2.1376855251016558,-0.35315920146084423,7.721611022949219,7.55204761408597,-0.16956340886324917
220,0.0051784515380859375,-0.6771707534790039,0.14606904983520508,0.08820389956235886,2.283302068710327,-0.04943301901221275,2.0805892944335938,2.1398908212864445,0.05930152685285073,7.780220031738281,7.5528234689776585,-0.2273965627606227
221,0.0051784515380859375,-0.6773624420166016,0.14606904983520508,0.08743690699338913,2.283302068710327,-0.04943301901221275,2.373626708984375,2.1426738923996655,-0.23095281658470945,7.545787811279297,7.5520742014007585,0.006286390121461594
222,0.0051784515380859375,-0.6771707534790039,0.14606904983520508,0.08743690699338913,2.283302068710327,-0.04943301901221275,2.0805892944335938,2.1399902269134827,0.05940093247988898,7.428569793701172,7.552455684877732,0.12388589117655968
223,0.0051784515380859375,-0.6773624420166016,0.1464533805847168,0.08743690699338913,2.283302068710327,-0.04943301901221275,2.25640869140625,2.14036983350897,-0.11603885789727997,7.575092315673828,7.551667206430769,-0.023425109243059516
224,0.0051784515380859375,-0.6771707534790039,0.1464533805847168,0.08743690699338913,2.283302068710327,-0.04943301901221275,2.25640869140625,2.1376855251016558,-0.11872316630459423,7.985347747802734,7.55204761408597,-0.4333001337167648
225,0.0051784515380859375,-0.6773624420166016,0.1464533805847168,0.08743690699338913,2.283294916152954,-0.04943537712097168,2.4908447265625,2.140429281231574,-0.35041544533092583,7.545787811279297,7.551700369038639,0.005912557759342185
226,0.0051784515380859375,-0.6771707534790039,0.14606904983520508,0.08743690699338913,2.283294916152954,-0.04943537712097168,2.373626708984375,2.1400496743362165,-0.2335770346481585,7.897434234619141,7.552488843881745,-0.3449453907373954
227,0.004795074462890625,-0.6771707534790039,0.1464533805847168,0.08820389956235886,2.283294916152954,-0.04943537712097168,2.25640869140625,2.137646681209807,-0.11876201019644306,7.897434234619141,7.5524490492669365,-0.3449851853522041
228,0.0051784515380859375,-0.6773624420166016,0.1464533805847168,0.08743690699338913,2.283294916152954,-0.04943537712097168,2.4908447265625,2.140429281231574,-0.35041544533092583,7.721611022949219,7.551700369038639,-0.1699106539105797
229,0.0051784515380859375,-0.6771707534790039,0.1464533805847168,0.08743690699338913,2.283294916152954,-0.04943537712097168,2.4322357177734375,2.137744973120455,-0.29449074465298253,7.926738739013672,7.552080780278635,-0.37465795873503716
230,0.004795074462890625,-0.6771707534790039,0.1464533805847168,0.08820389956235886,2.283294916152954,-0.04943537712097168,2.373626708984375,2.137646681209807,-0.23598002777456806,7.721611022949219,7.5524490492669365,-0.16916197368228225
231,0.004795074462890625,-0.6771707534790039,0.14606904983520508,0.08743690699338913,2.283294916152954,-0.04943537712097168,2.4322357177734375,2.1400496743362165,-0.292186043437221,7.047618865966797,7.552488843881745,0.5048699779149484
232,0.0051784515380859375,-0.6771707534790039,0.14606904983520508,0.08743690699338913,2.283294916152954,-0.04943537712097168,2.5494537353515625,2.1400496743362165,-0.409404061015346,8.014652252197266,7.552488843881745,-0.4621634083155204
233,0.0051784515380859375,-0.6771707534790039,0.14606904983520508,0.08743690699338913,2.283294916152954,-0.04943537712097168,2.4908447265625,2.1400496743362165,-0.3507950522262835,7.369964599609375,7.552488843881745,0.18252424427237024
234,0.0051784515380859375,-0.6771707534790039,0.14606904983520508,0.08743690699338913,2.283294916152954,-0.04943537712097168,2.0219802856445312,2.1400496743362165,0.11806938869168526,7.8095245361328125,7.552488843881745,-0.25703569225106726
235,0.004795074462890625,-0.6771707534790039,0.14606904983520508,0.08743690699338913,2.283294916152954,-0.04943537712097168,2.373626708984375,2.1400496743362165,-0.2335770346481585,7.8095245361328125,7.552488843881745,-0.25703569225106726
236,0.0051784515380859375,-0.6771707534790039,0.1464533805847168,0.08820389956235886,2.283294916152954,-0.04943537712097168,2.3150177001953125,2.137646681209807,-0.17737101898550556,7.8095245361328125,7.5524490492669365,-0.257075486865876
237,0.0051784515380859375,-0.6771707534790039,0.1464533805847168,0.08743690699338913,2.283294916152954,-0.04943537712097168,2.139190673828125,2.137744973120455,-0.001445700707670028,7.164836883544922,7.552080780278635,0.38724389673371284
238,0.0051784515380859375,-0.6771707534790039,0.14606904983520508,0.08743690699338913,2.283294916152954,-0.04943537712097168,2.4908447265625,2.1400496743362165,-0.3507950522262835,7.75091552734375,7.552488843881745,-0.19842668346200476
239,0.0051784515380859375,-0.6771707534790039,0.1464533805847168,0.08743690699338913,2.283294916152954,-0.04943537712097168,2.373626708984375,2.137744973120455,-0.23588173586392003,7.868133544921875,7.552080780278635,-0.3160527646432403
240,0.004795074462890625,-0.6771707534790039,0.1464533805847168,0.08820389956235886,2.283294916152954,-0.04943537712097168,2.6666641235351562,2.137646681209807,-0.5290174423253493,7.868133544921875,7.5524490492669365,-0.3156844956549385
241,0.0051784515380859375,-0.6771707534790039,0.14606904983520508,0.08743690699338913,2.283294916152954,-0.04943537712097168,2.1977996826171875,2.1400496743362165,-0.05775000828097099,7.575092315673828,7.552488843881745,-0.022603471792082885
242,0.0051784515380859375,-0.6771707534790039,0.1464533805847168,0.08820389956235886,2.283294916152954,-0.04943537712097168,2.3150177001953125,2.137646681209807,-0.17737101898550556,7.487178802490234,7.5524490492669365,0.06527024677670212
243,0.004795074462890625,-0.6773624420166016,0.14606904983520508,0.08743690699338913,2.283294916152954,-0.04943537712097168,2.1977996826171875,2.142733339521822,-0.05506634309536551,7.545787811279297,7.552107356817533,0.006319545538236326
244,0.0051784515380859375,-0.6771707534790039,0.1464533805847168,0.08820389956235886,2.283294916152954,-0.04943537712097168,2.4322357177734375,2.137646681209807,-0.29458903656363056,8.043956756591797,7.5524490492669365,-0.4915077073248604
245,0.004795074462890625,-0.6771707534790039,0.14606904983520508,0.08743690699338913,2.283294916152954,-0.04943537712097168,2.4908447265625,2.1400496743362165,-0.3507950522262835,7.1941375732421875,7.552488843881745,0.35835127063955774
246,0.0051784515380859375,-0.6771707534790039,0.1464533805847168,0.08743690699338913,2.283294916152954,-0.04943537712097168,2.4908447265625,2.137744973120455,-0.35309975344204503,7.487178802490234,7.552080780278635,0.06490197778840034
247,0.0051784515380859375,-0.6771707534790039,0.1464533805847168,0.08743690699338913,2.283294916152954,-0.04943537712097168,2.4322357177734375,2.137744973120455,-0.29449074465298253,7.545787811279297,7.552080780278635,0.006292968999337845
248,0.0051784515380859375,-0.6771707534790039,0.14606904983520508,0.08743690699338913,2.283294916152954,-0.04943537712097168,2.3150177001953125,2.1400496743362165,-0.174968025859096,7.6923065185546875,7.552488843881745,-0.13981767467294226
249,0.0051784515380859375,-0.6771707534790039,0.14606904983520508,0.08743690699338913,2.283294916152954,-0.04943537712097168,2.4322357177734375,2.1400496743362165,-0.292186043437221,7.516483306884766,7.552488843881745,0.036005536996979615
250,0.0051784515380859375,-0.6771707534790039,0.1464533805847168,0.08743690699338913,2.283294916152954,-0.04943537712097168,2.4908447265625,2.137744973120455,-0.35309975344204503,7.868133544921875,7.552080780278635,-0.3160527646432403
251,0.0051784515380859375,-0.6771707534790039,0.1464533805847168,0.08743690699338913,2.283294916152954,-0.04943537712097168,2.4322357177734375,2.137744973120455,-0.29449074465298253,7.604396820068359,7.552080780278635,-0.052316039789724655
252,0.004795074462890625,-0.6771707534790039,0.1464533805847168,0.08743690699338913,2.283294916152954,-0.04943537712097168,2.3150177001953125,2.137744973120455,-0.17727272707485753,7.604396820068359,7.552080780278635,-0.052316039789724655
253,0.0051784515380859375,-0.6771707534790039,0.1464533805847168,0.08743690699338913,2.283294916152954,-0.04943537712097168,2.3150177001953125,2.137744973120455,-0.17727272707485753,7.75091552734375,7.552080780278635,-0.19883474706511528
254,0.004795074462890625,-0.6771707534790039,0.1464533805847168,0.08743690699338913,2.283294916152954,-0.04943537712097168,2.6666641235351562,2.137744973120455,-0.5289191504147013,7.633701324462891,7.552080780278635,-0.0816205441842559
255,0.0051784515380859375,-0.6771707534790039,0.1464533805847168,0.08743690699338913,2.283294916152954,-0.04943537712097168,2.25640869140625,2.137744973120455,-0.11866371828579503,7.6923065185546875,7.552080780278635,-0.14022573827605278
256,0.004795074462890625,-0.6771707534790039,0.1464533805847168,0.08743690699338913,2.283294916152954,-0.04943537712097168,2.4908447265625,2.137744973120455,-0.35309975344204503,8.219779968261719,7.552080780278635,-0.667699187983084
257,0.0051784515380859375,-0.6771707534790039,0.14606904983520508,0.08820389956235886,2.283294916152954,-0.04943537712097168,2.3150177001953125,2.139950269890001,-0.1750674303053117,8.014652252197266,7.552856642322893,-0.46179560987437274
258,0.0051784515380859375,-0.6773624420166016,0.1464533805847168,0.08743690699338913,2.283294916152954,-0.04943537712097168,2.373626708984375,2.140429281231574,-0.23319742775280083,7.897434234619141,7.551700369038639,-0.34573386558050156
259,0.0051784515380859375,-0.6771707534790039,0.1464533805847168,0.08820389956235886,2.283294916152954,-0.04943537712097168,2.25640869140625,2.137646681209807,-0.11876201019644306,7.516483306884766,7.5524490492669365,0.03596574238217087
260,0.0051784515380859375,-0.6771707534790039,0.1464533805847168,0.08743690699338913,2.283294916152954,-0.04943537712097168,2.4322357177734375,2.137744973120455,-0.29449074465298253,7.457874298095703,7.552080780278635,0.0942064821829316
261,0.0051784515380859375,-0.6771707534790039,0.1464533805847168,0.08743690699338913,2.283294916152954,-0.04943537712097168,2.0219802856445312,2.137744973120455,0.11576468747592372,7.428569793701172,7.552080780278635,0.12351098657746284
262,0.004795074462890625,-0.6771707534790039,0.1464533805847168,0.08820389956235886,2.283294916152954,-0.04943537712097168,2.373626708984375,2.137646681209807,-0.23598002777456806,7.897434234619141,7.5524490492669365,-0.3449851853522041
263,0.0051784515380859375,-0.6771707534790039,0.14606904983520508,0.08743690699338913,2.283294916152954,-0.04943537712097168,2.4322357177734375,2.1400496743362165,-0.292186043437221,7.223442077636719,7.552488843881745,0.3290467662450265
264,0.0051784515380859375,-0.6771707534790039,0.14606904983520508,0.08820389956235886,2.283294916152954,-0.04943537712097168,2.3150177001953125,2.139950269890001,-0.1750674303053117,8.014652252197266,7.552856642322893,-0.46179560987437274
265,0.0051784515380859375,-0.6771707534790039,0.14606904983520508,0.08743690699338913,2.283294916152954,-0.04943537712097168,2.6666641235351562,2.1400496743362165,-0.5266144491989397,7.8095245361328125,7.552488843881745,-0.25703569225106726
266,0.0051784515380859375,-0.6771707534790039,0.1464533805847168,0.08820389956235886,2.283294916152954,-0.04943537712097168,2.4908447265625,2.137646681209807,-0.35319804535269306,7.926738739013672,7.5524490492669365,-0.3742896897467354
267,0.004795074462890625,-0.6771707534790039,0.1464533805847168,0.08820389956235886,2.283294916152954,-0.04943537712097168,2.373626708984375,2.137646681209807,-0.23598002777456806,7.282051086425781,7.5524490492669365,0.27039796284115525
268,0.0051784515380859375,-0.6771707534790039,0.1464533805847168,0.08820389956235886,2.283294916152954,-0.04943537712097168,2.4322357177734375,2.137646681209807,-0.29458903656363056,7.663002014160156,7.5524490492669365,-0.11055296489321975
269,0.0051784515380859375,-0.6773624420166016,0.1464533805847168,0.08743690699338913,2.283294916152954,-0.04943537712097168,2.4908447265625,2.140429281231574,-0.35041544533092583,7.780220031738281,7.551700369038639,-0.2285196626996422
270,0.0051784515380859375,-0.6773624420166016,0.14606904983520508,0.08743690699338913,2.283294916152954,-0.04943537712097168,2.373626708984375,2.142733339521822,-0.230893369462553,7.1941375732421875,7.552107356817533,0.3579697835753457
271,0.0051784515380859375,-0.6771707534790039,0.14606904983520508,0.08820389956235886,2.283294916152954,-0.04943537712097168,2.25640869140625,2.139950269890001,-0.11645842151624919,7.868133544921875,7.552856642322893,-0.3152769025989821
272,0.004795074462890625,-0.6771707534790039,0.1464533805847168,0.08743690699338913,2.283294916152954,-0.04943537712097168,2.4908447265625,2.137744973120455,-0.35309975344204503,7.545787811279297,7.552080780278635,0.006292968999337845
273,0.004795074462890625,-0.6771707534790039,0.1464533805847168,0.08820389956235886,2.283294916152954,-0.04943537712097168,2.5494537353515625,2.137646681209807,-0.41180705414175556,7.663002014160156,7.5524490492669365,-0.11055296489321975
274,0.004795074462890625,-0.6771707534790039,0.14606904983520508,0.08743690699338913,2.283294916152954,-0.04943537712097168,2.25640869140625,2.1400496743362165,-0.11635901707003349,7.575092315673828,7.552488843881745,-0.022603471792082885
275,0.0051784515380859375,-0.6771707534790039,0.14606904983520508,0.08820389956235886,2.283294916152954,-0.04943537712097168,2.139190673828125,2.139950269890001,0.0007595960618758113,7.956043243408203,7.552856642322893,-0.40318660108531024
276,0.0051784515380859375,-0.6773624420166016,0.1464533805847168,0.08743690699338913,2.283294916152954,-0.04943537712097168,2.4322357177734375,2.140429281231574,-0.29180643654186333,7.457874298095703,7.551700369038639,0.09382607094293594
277,0.004795074462890625,-0.6771707534790039,0.1464533805847168,0.08820389956235886,2.283294916152954,-0.04943537712097168,2.25640869140625,2.137646681209807,-0.11876201019644306,7.926738739013672,7.5524490492669365,-0.3742896897467354
278,0.004795074462890625,-0.6773624420166016,0.1464533805847168,0.08820389956235886,2.283294916152954,-0.04943537712097168,2.0805892944335938,2.1403304344316343,0.05974113999804054,8.014652252197266,7.552068403343965,-0.46258384885330095
279,0.0051784515380859375,-0.6773624420166016,0.1464533805847168,0.08820389956235886,2.283294916152954,-0.04943537712097168,2.139190673828125,2.1403304344316343,0.0011397606035092878,7.838829040527344,7.552068403343965,-0.2867606371833791
280,0.0051784515380859375,-0.6773624420166016,0.1464533805847168,0.08743690699338913,2.283302068710327,-0.04943301901221275,2.0805892944335938,2.14036983350897,0.05978053907537628,8.014652252197266,7.551667206430769,-0.462985045766497
281,0.004795074462890625,-0.6773624420166016,0.14606904983520508,0.08743690699338913,2.283294916152954,-0.04943537712097168,1.9047622680664062,2.142733339521822,0.23797107145541574,8.10256576538086,7.552107356817533,-0.5504584085633262
282,0.0051784515380859375,-0.6773624420166016,0.1464533805847168,0.08743690699338913,2.283294916152954,-0.04943537712097168,2.0219802856445312,2.140429281231574,0.11844899558704292,8.24908447265625,7.551700369038639,-0.6973841036176109
283,0.0051784515380859375,-0.6773624420166016,0.1464533805847168,0.08743690699338913,2.283294916152954,-0.04943537712097168,1.8461532592773438,2.140429281231574,0.2942760219542304,8.014652252197266,7.551700369038639,-0.46295188315862656
284,0.0051784515380859375,-0.6773624420166016,0.1464533805847168,0.08743690699338913,2.283294916152954,-0.04943537712097168,1.611724853515625,2.140429281231574,0.5287044277159492,7.868133544921875,7.551700369038639,-0.31643317588323594
285,0.0051784515380859375,-0.6773624420166016,0.1464533805847168,0.08743690699338913,2.283294916152954,-0.04943537712097168,1.7289352416992188,2.140429281231574,0.4114940395323554,7.956043243408203,7.551700369038639,-0.40434287436956406
286,0.0051784515380859375,-0.6773624420166016,0.1464533805847168,0.08743690699338913,2.283302068710327,-0.04943301901221275,1.9047622680664062,2.14036983350897,0.23560756544256378,7.604396820068359,7.551667206430769,-0.052729613637590766
287,0.004795074462890625,-0.6775546073913574,0.1464533805847168,0.08820389956235886,2.283302068710327,-0.04943301901221275,1.8461532592773438,2.142961066276074,0.29680780699873033,8.39560317993164,7.551653253031532,-0.843949926900109
288,0.0051784515380859375,-0.6775546073913574,0.1464533805847168,0.08743690699338913,2.283302068710327,-0.04943301901221275,1.8461532592773438,2.1430604705227836,0.29690721124543984,7.604396820068359,7.5512854683477535,-0.05311135172060588
289,0.0051784515380859375,-0.6775546073913574,0.1464533805847168,0.08820389956235886,2.283302068710327,-0.04943301901221275,1.7289352416992188,2.142961066276074,0.41402582457685533,8.278388977050781,7.551653253031532,-0.7267357240192496
290,0.0051784515380859375,-0.6777462959289551,0.1468367576599121,0.08743690699338913,2.283302068710327,-0.04943301901221275,1.611724853515625,2.143446982941093,0.5317221294254679,8.307693481445312,7.550498978400245,-0.7571945030450671
291,0.004795074462890625,-0.6779379844665527,0.1468367576599121,0.08743690699338913,2.283302068710327,-0.04943301901221275,1.5531158447265625,2.146130889361018,0.5930150446344555,7.8095245361328125,7.55011849486919,-0.2594060412636221
292,0.0051784515380859375,-0.6781296730041504,0.14722013473510742,0.08743690699338913,2.283302068710327,-0.04943301901221275,1.377288818359375,2.1465185874291866,0.7692297690698116,7.897434234619141,7.549332981045737,-0.3481012535734038
293,0.0051784515380859375,-0.6781296730041504,0.14722013473510742,0.08743690699338913,2.283302068710327,-0.04943301901221275,1.1428604125976562,2.1465185874291866,1.0036581748315303,7.956043243408203,7.549332981045737,-0.4067102623624663
294,0.004795074462890625,-0.6785135269165039,0.14760351181030273,0.08820389956235886,2.283302068710327,-0.04943301901221275,1.1428604125976562,2.149499149289422,1.006638736691766,8.073261260986328,7.548535342105218,-0.52472591888111
295,0.0051784515380859375,-0.6942415237426758,0.16409921646118164,0.08743690699338913,2.2833943367004395,-0.04940223693847656,1.4945068359375,2.271364696708723,0.7768578607712229,7.956043243408203,7.500307656968454,-0.455735586439749
296,0.0051784515380859375,-0.6944332122802734,0.16409921646118164,0.08743690699338913,2.2834014892578125,-0.04939985275268555,1.8461532592773438,2.273988303069647,0.4278350437923031,7.663002014160156,7.499909514920777,-0.1630924992393794
297,0.0051784515380859375,-0.6946249008178711,0.16409921646118164,0.08743690699338913,2.2834084033966064,-0.04939749464392662,1.7289352416992188,2.2766135486105394,0.5476783069113207,7.6923065185546875,7.499512104831914,-0.1927944137227735
298,0.004795074462890625,-0.6953921318054199,0.16409921646118164,0.08743690699338913,2.2834227085113525,-0.04939746856689453,1.9633712768554688,2.2872287422986606,0.3238574654431918,7.399269104003906,7.497979706488399,0.09871060248449304
299,0.0051784515380859375,-0.6955838203430176,0.16409921646118164,0.08743690699338913,2.2834441661834717,-0.04939036816358566,1.7875442504882812,2.2897313971378317,0.5021871466495504,7.75091552734375,7.497513005259795,-0.2534025220839551
300,0.0051784515380859375,-0.6957755088806152,0.16448259353637695,0.08743690699338913,2.2834441661834717,-0.04939036816358566,1.4358978271484375,2.290172415128639,0.8542745879802016,7.956043243408203,7.496772844485391,-0.4592703989228122
301,0.0051784515380859375,-0.6959676742553711,0.16448259353637695,0.08820389956235886,2.2834510803222656,-0.049388010054826736,1.4945068359375,2.292702029632512,0.7981951936950118,7.75091552734375,7.496739981905415,-0.2541755454383354
302,0.0051784515380859375,-0.6961593627929688,0.16448259353637695,0.08743690699338913,2.2834653854370117,-0.049383267760276794,1.3186798095703125,2.2953642840162907,0.9766844744459782,7.897434234619141,7.495939369947129,-0.4014948646720118
303,0.0051784515380859375,-0.6963510513305664,0.16448259353637695,0.08743690699338913,2.283493995666504,-0.04937858134508133,1.2014617919921875,2.297806762672824,1.0963449706806365,7.780220031738281,7.49543911052628,-0.2847809212120014
304,0.0051784515380859375,-0.6965427398681641,0.16448259353637695,0.08820389956235886,2.283515214920044,-0.04937148094177246,1.377288818359375,2.3002081113304254,0.9229192929710504,7.956043243408203,7.49533892945611,-0.46070431395209344
305,0.004795074462890625,-0.6969265937805176,0.16486597061157227,0.08743690699338913,2.283515214920044,-0.04937148094177246,1.4945068359375,2.3034399404010024,0.8089331044635024,7.868133544921875,7.493866983843999,-0.37426656107787615
306,0.004795074462890625,-0.6971182823181152,0.16486597061157227,0.08743690699338913,2.283536672592163,-0.04936438053846359,1.4945068359375,2.3059411363959867,0.8114343004584867,7.721611022949219,7.493399466249283,-0.22821155669993587
307,0.004795074462890625,-0.6973099708557129,0.16486597061157227,0.08743690699338913,2.283536672592163,-0.04936438053846359,1.3186798095703125,2.308620327414525,0.9899405178442127,8.161170959472656,7.493031004024514,-0.668139955448142
308,0.0051784515380859375,-0.6980772018432617,0.1656336784362793,0.08743690699338913,2.2836644649505615,-0.04932178556919098,1.2014617919921875,2.3138083915773695,1.112346599585182,7.75091552734375,7.490232518706517,-0.26068300863723337
309,0.0051784515380859375,-1.0279836654663086,0.4226527214050293,0.08053399622440338,2.357558250427246,-0.03946211561560631,3.8388290405273438,5.026309854817653,1.1874808142903088,7.633701324462891,6.633020385521863,-1.000680938941028
310,0.0051784515380859375,-1.0293264389038086,0.42418718338012695,0.07976700365543365,2.357536792755127,-0.039469242095947266,4.131866455078125,5.039465579426976,0.9075991243488506,7.75091552734375,6.632977364293625,-1.117938163050125
311,0.0051784515380859375,-1.0899372100830078,0.47866010665893555,0.07976700365543365,2.3675715923309326,-0.040655214339494705,5.128204345703125,5.587340402435732,0.45913605673260705,7.780220031738281,6.5853098215075425,-1.1949102102307387
312,0.004795074462890625,-1.092430591583252,0.48211240768432617,0.07976700365543365,2.3672873973846436,-0.040560510009527206,5.1868133544921875,5.611985812424917,0.42517245793272984,6.989009857177734,6.588876681961981,-0.4001331752157533
313,0.004795074462890625,-1.0926222801208496,0.48211240768432617,0.07976700365543365,2.3672521114349365,-0.040548697113990784,5.479850769042969,5.614880591198784,0.13502982215581483,7.223442077636719,6.588857240263099,-0.6345848373736196
314,0.004795074462890625,-1.093581199645996,0.4851813316345215,0.08053399622440338,2.3670389652252197,-0.04048718512058258,5.1868133544921875,5.619028646399688,0.4322152919075002,7.223442077636719,6.593155181747713,-0.6302868958890055
315,0.004795074462890625,-1.0937728881835938,0.48748350143432617,0.07976700365543365,2.366840124130249,-0.04042559117078781,5.362640380859375,5.615942559970806,0.25330217911143116,6.725273132324219,6.596876297908199,-0.12839683441601935
316,0.004795074462890625,-1.0939650535583496,0.48748350143432617,0.07976700365543365,2.3667547702789307,-0.040397193282842636,5.3040313720703125,5.619267871123629,0.3152364990533165,6.549449920654297,6.597101018612599,0.047651097958302024
317,0.004795074462890625,-1.094348430633545,0.48901796340942383,0.08053399622440338,2.363189697265625,-0.039232492446899414,5.538459777832031,5.648586019949292,0.11012624211726063,6.901100158691406,6.6154007918935935,-0.2856993667978127
318,0.004795074462890625,-1.094348430633545,0.48901796340942383,0.07976700365543365,2.363189697265625,-0.039232492446899414,5.3040313720703125,5.648956430657462,0.3449250585871493,7.1941375732421875,6.6153063148925755,-0.578831258349612
319,0.004795074462890625,-1.094348430633545,0.48901796340942383,0.08053399622440338,2.363168478012085,-0.03923016041517258,5.010986328125,5.648762374700013,0.6377760465750129,7.1941375732421875,6.615499094083081,-0.5786384791591068
320,0.0051784515380859375,-1.094348430633545,0.48901796340942383,0.07976700365543365,2.363133192062378,-0.03922306001186371,5.421241760253906,5.64942603919803,0.22818427894412352,7.516483306884766,6.615567969573298,-0.900915337311468
321,0.0051784515380859375,-1.0945401191711426,0.48901796340942383,0.08053399622440338,2.363126039505005,-0.039225418120622635,5.24542236328125,5.651725649118873,0.4063032858376232,7.545787811279297,6.61552606512415,-0.9302617461551472
322,0.0051784515380859375,-1.0945401191711426,0.48940134048461914,0.07976700365543365,2.3630974292755127,-0.03921593725681305,5.3040313720703125,5.651043975879944,0.34701260380963106,7.399269104003906,6.616070520795341,-0.7831985832085655
323,0.004795074462890625,-1.094923973083496,0.48940134048461914,0.08053399622440338,2.3618688583374023,-0.03885851800441742,5.128204345703125,5.6661129029001245,0.5379085571969995,7.487178802490234,6.621515571123013,-0.865663231367221
324,0.004795074462890625,-1.094923973083496,0.48978471755981445,0.07976700365543365,2.361826181411743,-0.038872718811035156,5.24542236328125,5.665548468759717,0.4201261054784666,8.24908447265625,6.622124394911076,-1.6269600777451743
325,0.004795074462890625,-1.094923973083496,0.48978471755981445,0.07976700365543365,2.361798048019409,-0.03888217732310295,5.0695953369140625,5.6657822744697555,0.596186937555693,7.106227874755859,6.622254584610454,-0.48397329014540524
326,0.004795074462890625,-1.0951156616210938,0.48978471755981445,0.07976700365543365,2.361790895462036,-0.03888453543186188,5.24542236328125,5.668453431532416,0.42303106825116643,7.25274658203125,6.622118754496979,-0.6306278275342709
327,0.004795074462890625,-1.0951156616210938,0.48978471755981445,0.07976700365543365,2.36177659034729,-0.03888927400112152,5.128204345703125,5.668572315017704,0.5403679693145786,7.399269104003906,6.622184944366063,-0.7770841596378428
328,0.004795074462890625,-1.0951156616210938,0.48978471755981445,0.08053399622440338,2.36173415184021,-0.03890347480773926,5.24542236328125,5.668554855751502,0.423132492470252,7.75091552734375,6.622478713337191,-1.1284368140065588
329,0.004795074462890625,-1.0951156616210938,0.48978471755981445,0.07976700365543365,2.3617055416107178,-0.03891295939683914,5.010986328125,5.669162768912287,0.6581764407872868,7.223442077636719,6.6225136794022905,-0.6009283982344282
330,0.004795074462890625,-1.0951156616210938,0.48978471755981445,0.08053399622440338,2.3616416454315186,-0.03891531750559807,5.0695953369140625,5.669323650772588,0.5997283138585257,7.6923065185546875,6.622906904454789,-1.0693996140998987
331,0.004795074462890625,-1.0953073501586914,0.49016904830932617,0.07976700365543365,2.3604557514190674,-0.039282217621803284,4.9523773193359375,5.680867830132955,0.7284905107970179,7.6923065185546875,6.628635709864531,-1.0636708086901567
332,0.0051784515380859375,-1.0953073501586914,0.49016904830932617,0.08053399622440338,2.3604485988616943,-0.03927985951304436,5.479850769042969,5.680558017813237,0.2007072487702679,7.428569793701172,6.628769080930548,-0.7998007127706241
333,0.004795074462890625,-1.0954995155334473,0.49016904830932617,0.07976700365543365,2.3604485988616943,-0.03927985951304436,5.0695953369140625,5.683545559984731,0.6139502230706686,7.487178802490234,6.628499129291647,-0.8586796731985871
334,0.004795074462890625,-1.0953073501586914,0.49016904830932617,0.08053399622440338,2.3604342937469482,-0.039275091141462326,4.893775939941406,5.680676899938804,0.7869009599973982,7.076923370361328,6.628835256388486,-0.4480881139728421
335,0.0051784515380859375,-1.0954995155334473,0.49016904830932617,0.07976700365543365,2.360413074493408,-0.03927278518676758,5.1868133544921875,5.6838407751789966,0.49702742068680905,7.604396820068359,6.628663374208866,-0.9757334458594933
336,0.004795074462890625,-1.095691204071045,0.4905524253845215,0.07976700365543365,2.360320806503296,-0.039256174117326736,4.9523773193359375,5.68593017952573,0.7335528601897927,7.3113555908203125,6.629431314448316,-0.6819242763719968
337,0.004795074462890625,-1.095691204071045,0.4909358024597168,0.07976700365543365,2.3602569103240967,-0.03925381600856781,4.776557922363281,5.685171356867489,0.9086134345042076,7.516483306884766,6.630236335221065,-0.8862469716637005
338,0.004795074462890625,-1.095691204071045,0.4909358024597168,0.07976700365543365,2.3601856231689453,-0.03925378993153572,5.0695953369140625,5.68576377524975,0.6161684383356878,7.868133544921875,6.6305659960821455,-1.2375675488397295
339,0.004795074462890625,-1.095691204071045,0.4913191795349121,0.07976700365543365,2.360136032104492,-0.03924671933054924,4.835166931152344,5.684885134435975,0.849718203283631,7.399269104003906,6.631303561554955,-0.7679655424489509
340,0.0051784515380859375,-1.095691204071045,0.4913191795349121,0.07976700365543365,2.360057830810547,-0.03923487663269043,4.893775939941406,5.6855350166012535,0.7917590766598472,7.721611022949219,6.631665249604843,-1.0899457733443754
341,0.004795074462890625,-1.0958828926086426,0.4913191795349121,0.07976700365543365,2.3599443435668945,-0.03922067582607269,5.010986328125,5.68909145235571,0.6781051242307097,7.545787811279297,6.632023093026941,-0.9137647182523558
342,0.004795074462890625,-1.0964584350585938,0.49247026443481445,0.07976700365543365,2.357025384902954,-0.039388760924339294,4.9523773193359375,5.717320211153062,0.7649428918171246,7.780220031738281,6.64654093753143,-1.133679094206851
343,0.004795074462890625,-1.0966501235961914,0.49285364151000977,0.07976700365543365,2.357004165649414,-0.039381664246320724,5.010986328125,5.718819941019193,0.7078336128941931,7.75091552734375,6.646982999568365,-1.1039325277753846
344,0.004795074462890625,-1.096841812133789,0.49285364151000977,0.07976700365543365,2.356989860534668,-0.03937689587473869,5.010986328125,5.721553390711335,0.7105670625863354,7.604396820068359,6.646883060442626,-0.9575137596257335
345,0.004795074462890625,-1.097033977508545,0.4932370185852051,0.07976700365543365,2.356975793838501,-0.03937217965722084,4.893775939941406,5.7230007811637424,0.8292248412223362,7.6923065185546875,6.647292695077419,-1.0450138234772686
346,0.004795074462890625,-1.0972256660461426,0.4932370185852051,0.07976700365543365,2.356940269470215,-0.03936036303639412,4.835166931152344,5.725910695323856,0.8907437641715124,7.164836883544922,6.6472910972987895,-0.5175457862461323
347,0.004795074462890625,-1.0974173545837402,0.4932370185852051,0.07976700365543365,2.3569259643554688,-0.03935559466481209,5.010986328125,5.728644001304108,0.717657673179108,7.721611022949219,6.647191146958109,-1.0744198759911097
348,0.004795074462890625,-1.097609043121338,0.4936213493347168,0.07976700365543365,2.3569047451019287,-0.03935326635837555,4.717948913574219,5.730142130258201,1.0121932166839827,6.871795654296875,6.647637233484198,-0.22415842081267723
349,0.0051784515380859375,-1.097609043121338,0.4936213493347168,0.07976700365543365,2.3568551540374756,-0.03934613987803459,4.717948913574219,5.730554213482993,1.012605299908774,7.457874298095703,6.647866225551016,-0.8100080725446874
350,0.004795074462890625,-1.0978007316589355,0.4936213493347168,0.07976700365543365,2.3568265438079834,-0.039350882172584534,5.3040313720703125,5.7334065281293665,0.42937515605905396,7.6923065185546875,6.647832649423423,-1.0444738691312647
351,0.004795074462890625,-1.0979928970336914,0.4936213493347168,0.07976700365543365,2.356727361679077,-0.039350852370262146,5.010986328125,5.736851477666255,0.7258651495412547,7.516483306884766,6.648124068427306,-0.8683592384574599
352,0.004795074462890625,-1.098184585571289,0.4936213493347168,0.07976700365543365,2.3565709590911865,-0.03935556858778,5.128204345703125,5.740765096031117,0.612560750327992,7.633701324462891,6.6486795251366315,-0.9850217993262591
353,0.004795074462890625,-1.0991435050964355,0.4940047264099121,0.08053399622440338,2.3554060459136963,-0.03897680342197418,5.3040313720703125,5.761864062772906,0.4578326907025936,7.838829040527344,6.65384534540509,-1.1849836951222539
354,0.004795074462890625,-1.1125702857971191,0.500525951385498,0.07976700365543365,2.355541229248047,-0.03898869454860687,5.3040313720703125,5.922300092842866,0.6182687207725532,7.75091552734375,6.650420077856135,-1.1004954494876147
355,0.004795074462890625,-1.1127619743347168,0.5009093284606934,0.07976700365543365,2.355548143386841,-0.0389910526573658,5.362640380859375,5.923596418470174,0.5609560376107989,7.340660095214844,6.6507840906842475,-0.6898760045305963
356,0.004795074462890625,-1.1129536628723145,0.5009093284606934,0.07976700365543365,2.355605125427246,-0.03899576887488365,5.362640380859375,5.925728779505425,0.56308839864605,7.1941375732421875,6.6503491950558065,-0.543788378186381
357,0.004795074462890625,-1.1160225868225098,0.507047176361084,0.07976700365543365,2.356144905090332,-0.0389389730989933,5.3040313720703125,5.942944062375002,0.6389126903046893,7.3113555908203125,6.654251659444425,-0.6571039313758877
358,0.004795074462890625,-1.1164064407348633,0.5089659690856934,0.07976700365543365,2.356180191040039,-0.03893187269568443,4.835166931152344,5.941589756922641,1.1064228257702968,7.369964599609375,6.656572464570482,-0.7133921350388928
359,0.004795074462890625,-1.1164064407348633,0.5089659690856934,0.07976700365543365,2.3562231063842773,-0.03894135728478432,4.776557922363281,5.941233198483202,1.1646752761199206,7.3113555908203125,6.656374769541816,-0.6549808212784969
360,0.004795074462890625,-1.1167898178100586,0.5097336769104004,0.07976700365543365,2.3562726974487305,-0.03894371539354324,5.421241760253906,5.943529902335108,0.5222881420812016,7.457874298095703,6.656948584405299,-0.800925713690404
361,0.004795074462890625,-1.1173653602600098,0.510500431060791,0.07976700365543365,2.356393337249756,-0.03897921368479729,5.128204345703125,5.947863532263792,0.819659186560667,7.135532379150391,6.6570399315975415,-0.47849244755284914
362,0.004795074462890625,-1.117940902709961,0.5108838081359863,0.07976700365543365,2.356464385986328,-0.0390029214322567,5.597068786621094,5.953870761045833,0.35680197442473904,6.989009857177734,6.656806106913153,-0.33220375026458093
363,0.004795074462890625,-1.117940902709961,0.511268138885498,0.07976700365543365,2.3564999103546143,-0.03901473805308342,5.538459777832031,5.9523128361295825,0.41385305829755126,6.959705352783203,6.657201002790358,-0.30250434999284526
364,0.004795074462890625,-1.119091510772705,0.5116515159606934,0.07976700365543365,2.356656074523926,-0.039057306945323944,5.597068786621094,5.965465769345794,0.36839698272470045,7.106227874755859,6.65611724794625,-0.4501106268096091
365,0.004795074462890625,-1.1192831993103027,0.5116515159606934,0.07976700365543365,2.356691598892212,-0.039069175720214844,5.714286804199219,5.967787076749314,0.2535002725500952,7.545787811279297,6.655799205017576,-0.8899886062617206
366,0.004795074462890625,-1.1208176612854004,0.5120348930358887,0.07976700365543365,2.356961488723755,-0.03913543000817299,5.479850769042969,5.985228421215972,0.5053776521730029,7.956043243408203,6.6538784928263865,-1.3021647505818166
367,0.004795074462890625,-1.1217765808105469,0.5120348930358887,0.07976700365543365,2.3575937747955322,-0.0393366813659668,5.479850769042969,5.993052474220557,0.5132017051775879,7.282051086425781,6.65018300188949,-0.6318680845362916
368,0.004795074462890625,-1.1217765808105469,0.512418270111084,0.07976700365543365,2.3576149940490723,-0.03932958096265793,5.890106201171875,5.991627573611918,0.10152137244004322,7.897434234619141,6.650657985590044,-1.2467762490290966
369,0.004795074462890625,-1.122352123260498,0.512418270111084,0.07976700365543365,2.3576149940490723,-0.03932958096265793,5.597068786621094,5.99947533760678,0.40240655098568645,7.487178802490234,6.650187006127589,-0.8369917963626454
370,0.004795074462890625,-1.1231193542480469,0.512418270111084,0.07976700365543365,2.3576362133026123,-0.03932248055934906,5.831504821777344,6.009756652561061,0.17825183078371687,7.8095245361328125,6.6494567687808,-1.1600677673520128
371,0.004795074462890625,-1.1238865852355957,0.5128026008605957,0.07976700365543365,2.3576648235321045,-0.039313025772571564,5.831504821777344,6.018727214466081,0.18722239268873686,7.516483306884766,6.649271364368325,-0.8672119425164402
372,0.004795074462890625,-1.1240782737731934,0.5128026008605957,0.07976700365543365,2.3576648235321045,-0.039313025772571564,5.597068786621094,6.021338889020926,0.42427010239983254,7.3113555908203125,6.6491121904815405,-0.662243400338772
373,0.004795074462890625,-1.1242704391479492,0.5128026008605957,0.07976700365543365,2.3576860427856445,-0.039305899292230606,5.362640380859375,6.023780498342051,0.6611401174826756,7.545787811279297,6.648854676258196,-0.8969331350211007
374,0.004795074462890625,-1.1242704391479492,0.513185977935791,0.07976700365543365,2.3576860427856445,-0.039305899292230606,5.479850769042969,6.022539104268118,0.542688335225149,7.8095245361328125,6.649438001914776,-1.1600865342180366
375,0.004795074462890625,-1.1244621276855469,0.513185977935791,0.07976700365543365,2.3576860427856445,-0.039305899292230606,5.655677795410156,6.025150933988993,0.36947313857883657,7.780220031738281,6.649279211620612,-1.1309408201176696
376,0.004795074462890625,-1.1246538162231445,0.513185977935791,0.07976700365543365,2.3577072620391846,-0.03929882496595383,5.479850769042969,6.02758620276135,0.5477354337183815,7.604396820068359,6.649022477020175,-0.9553743430481845
377,0.004795074462890625,-1.1246538162231445,0.5135693550109863,0.07976700365543365,2.3577287197113037,-0.03929169848561287,5.655677795410156,6.026166939971208,0.3704891445610521,8.307693481445312,6.649507680398372,-1.6581858010469404
378,0.004795074462890625,-1.1248455047607422,0.5135693550109863,0.07976700365543365,2.3577499389648438,-0.03930354118347168,5.1868133544921875,6.0286026443562175,0.84178928986403,7.956043243408203,6.649251666688212,-1.3067915767199914
379,0.004795074462890625,-1.125037670135498,0.5135693550109863,0.07976700365543365,2.3577568531036377,-0.03929641470313072,5.128204345703125,6.031163409444936,0.902959063741811,7.838829040527344,6.649060743686583,-1.1897682968407608
380,0.004795074462890625,-1.1252293586730957,0.5139527320861816,0.07976700365543365,2.357792615890503,-0.03928457200527191,5.128204345703125,6.032237841389632,0.904033495686507,7.780220031738281,6.649322712027896,-1.1308973197103853
381,0.004795074462890625,-1.1258049011230469,0.5147204399108887,0.07976700365543365,2.360682725906372,-0.03832586482167244,5.597068786621094,6.01358574075584,0.416516954134746,7.633701324462891,6.63671172245692,-0.9969896020059705
382,0.004795074462890625,-1.1259965896606445,0.5147204399108887,0.07976700365543365,2.360675811767578,-0.038328222930431366,5.1868133544921875,6.016255819656529,0.8294424651643411,7.487178802490234,6.636587824384298,-0.8505909781059362
383,0.004795074462890625,-1.1261882781982422,0.5147204399108887,0.07976700365543365,2.360682725906372,-0.03833058103919029,5.479850769042969,6.018810726156893,0.5389599571139243,7.457874298095703,6.636399862738333,-0.82147443535737
384,0.004795074462890625,-1.1263799667358398,0.515871524810791,0.07976700365543365,2.3607113361358643,-0.038340065628290176,5.597068786621094,6.017461715439506,0.42039292881841206,7.575092315673828,6.637861836136601,-0.9372304795372273
385,0.004795074462890625,-1.1265716552734375,0.515871524810791,0.07976700365543365,2.3607113361358643,-0.038340065628290176,5.1868133544921875,6.020075652002776,0.8332622975105881,7.399269104003906,6.637708228119118,-0.761560875884788
386,0.004795074462890625,-1.126955509185791,0.5166382789611816,0.07976700365543365,2.3607113361358643,-0.038340065628290176,5.479850769042969,6.022828111050719,0.5429773420077506,7.223442077636719,6.6385643891759125,-0.5848776884608062
387,0.004795074462890625,-1.126955509185791,0.5166382789611816,0.07976700365543365,2.3607113361358643,-0.038340065628290176,5.479850769042969,6.022828111050719,0.5429773420077506,7.6923065185546875,6.6385643891759125,-1.053742129378775
388,0.004795074462890625,-1.1271471977233887,0.517021656036377,0.07976700365543365,2.3607113361358643,-0.038340065628290176,5.597068786621094,6.024201258775362,0.427132472154268,6.959705352783203,6.638993090113744,-0.32071226266945896
389,0.004795074462890625,-1.1273388862609863,0.517021656036377,0.07976700365543365,2.3607254028320312,-0.03834475576877594,5.597068786621094,6.026699338440784,0.4296305518196899,7.487178802490234,6.638776417226881,-0.8484023852633538
390,0.004795074462890625,-1.1275310516357422,0.517789363861084,0.07976700365543365,2.3607397079467773,-0.03834952414035797,5.421241760253906,6.0267155615994685,0.6054738013455623,7.223442077636719,6.6397215517969865,-0.5837205258397322
391,0.004795074462890625,-1.1277227401733398,0.517789363861084,0.07976700365543365,2.3607397079467773,-0.03834952414035797,5.538459777832031,6.0293313895972656,0.4908716117652343,7.457874298095703,6.639571180378729,-0.8183031177169742
392,0.004795074462890625,-1.1277227401733398,0.517789363861084,0.07976700365543365,2.3607397079467773,-0.03834952414035797,5.421241760253906,6.0293313895972656,0.6080896293433593,7.457874298095703,6.639571180378729,-0.8183031177169742
393,0.0051784515380859375,-1.1281061172485352,0.5185561180114746,0.07976700365543365,2.3607397079467773,-0.03834952414035797,5.362640380859375,6.032079324615939,0.669438943756564,7.457874298095703,6.640431979684038,-0.8174423184116648
394,0.004795074462890625,-1.128298282623291,0.5185561180114746,0.07976700365543365,2.3607397079467773,-0.03834952414035797,5.538459777832031,6.034702250210215,0.4962424723781833,7.545787811279297,6.64028232217205,-0.9055054891072469
395,0.004795074462890625,-1.1292572021484375,0.519707202911377,0.07976700365543365,2.3607540130615234,-0.03835897892713547,5.714286804199219,6.04394543038814,0.3296586261889214,7.721611022949219,6.641217576213037,-1.0803934467361813
396,0.004795074462890625,-1.1294488906860352,0.519707202911377,0.07976700365543365,2.3607540130615234,-0.03835897892713547,5.772895812988281,6.046562318747654,0.27366650575937257,7.838829040527344,6.641069420245499,-1.197759620281845
397,0.004795074462890625,-1.1296405792236328,0.5200905799865723,0.07976700365543365,2.3607540130615234,-0.03835897892713547,5.597068786621094,6.047938504654724,0.45086971803362985,7.663002014160156,6.641503947797846,-1.0214980663623106
398,0.0051784515380859375,-1.1298327445983887,0.5200905799865723,0.07976700365543365,2.3607540130615234,-0.03835897892713547,5.831504821777344,6.050562059652185,0.219057237874841,7.457874298095703,6.641355797692405,-0.8165185004032978
399,0.0051784515380859375,-1.1300244331359863,0.5200905799865723,0.07976700365543365,2.3607540130615234,-0.03835897892713547,6.00732421875,6.05317882761978,0.04585460886977977,7.633701324462891,6.641207676751646,-0.9924936477112443
400,0.004795074462890625,-1.130216121673584,0.5200905799865723,0.07976700365543365,2.3607540130615234,-0.03835897892713547,5.772895812988281,6.0557953188673554,0.2828995058790742,7.487178802490234,6.641059217783326,-0.8461195847069085
401,0.004795074462890625,-1.1304078102111816,0.5200905799865723,0.07976700365543365,2.3607540130615234,-0.03835897892713547,5.831504821777344,6.0584115332987665,0.22690671152142272,7.340660095214844,6.640910420792899,-0.6997496744219447
402,0.004795074462890625,-1.1304078102111816,0.5204739570617676,0.07976700365543365,2.3607609272003174,-0.038361337035894394,5.772895812988281,6.057115462513405,0.2842196495251237,7.897434234619141,6.641464279488613,-1.255969955130528
403,0.004795074462890625,-1.1304078102111816,0.5200905799865723,0.07976700365543365,2.3607752323150635,-0.038366105407476425,5.9487152099609375,6.05823522409233,0.10952001413139278,7.780220031738281,6.640812576287775,-1.139407455450506
404,0.004795074462890625,-1.1305999755859375,0.5204739570617676,0.07976700365543365,2.3607752323150635,-0.038366105407476425,6.124542236328125,6.059619759181993,-0.06492247714613164,7.516483306884766,6.641249859218231,-0.8752334476665347
405,0.004795074462890625,-1.1305999755859375,0.5204739570617676,0.07976700365543365,2.3607752323150635,-0.038366105407476425,6.124542236328125,6.059619759181993,-0.06492247714613164,7.1941375732421875,6.641249859218231,-0.5528877140239565
406,0.004795074462890625,-1.1305999755859375,0.5204739570617676,0.07976700365543365,2.3607752323150635,-0.038366105407476425,5.538459777832031,6.059619759181993,0.5211599813499621,7.897434234619141,6.641249859218231,-1.2561843754009097
407,0.0051784515380859375,-1.1305999755859375,0.5204739570617676,0.07976700365543365,2.3607752323150635,-0.038366105407476425,5.714286804199219,6.059619759181993,0.3453329549827746,7.428569793701172,6.641249859218231,-0.7873199344829409
408,0.0051784515380859375,-1.1307916641235352,0.5204739570617676,0.07976700365543365,2.3607752323150635,-0.038366105407476425,5.597068786621094,6.062236131476208,0.46516734485511435,7.223442077636719,6.641101446165939,-0.58234063147078
409,0.004795074462890625,-1.1307916641235352,0.5208582878112793,0.07976700365543365,2.3607752323150635,-0.038366105407476425,5.421241760253906,6.060994809343693,0.6397530490897871,7.340660095214844,6.641689254709158,-0.6989708405056856
410,0.004795074462890625,-1.1307916641235352,0.5208582878112793,0.07976700365543365,2.3607752323150635,-0.038366105407476425,5.24542236328125,6.060994809343693,0.8155724460624434,7.721611022949219,6.641689254709158,-1.0799217682400606
411,0.004795074462890625,-1.1332850456237793,0.5254616737365723,0.07976700365543365,2.3607966899871826,-0.038377948105335236,5.128204345703125,6.079994238678166,0.9517898929750412,7.3113555908203125,6.646731786176098,-0.6646238046442141
412,0.004795074462890625,-1.133476734161377,0.5254616737365723,0.07976700365543365,2.3607966899871826,-0.038377948105335236,5.479850769042969,6.082615979190864,0.6027652101478953,7.868133544921875,6.64659231021297,-1.221541234708905
413,0.004795074462890625,-1.1336684226989746,0.5258450508117676,0.07976700365543365,2.3607966899871826,-0.038377948105335236,5.479850769042969,6.083996262451507,0.604145493408538,7.487178802490234,6.647035364049252,-0.8401434384409825
414,0.004795074462890625,-1.1338605880737305,0.5258450508117676,0.07976700365543365,2.3607966899871826,-0.038377948105335236,5.24542236328125,6.086624683475016,0.8412023201937657,7.575092315673828,6.646895915801711,-0.9281963998721174
415,0.004795074462890625,-1.1342439651489258,0.5266118049621582,0.07976700365543365,2.3607823848724365,-0.03838269039988518,5.1868133544921875,6.089505269532138,0.9026919150399504,7.487178802490234,6.647850368777458,-0.839328433712776
416,0.004795074462890625,-1.1344356536865234,0.5266118049621582,0.07976700365543365,2.3607823848724365,-0.03838269039988518,5.714286804199219,6.09212775946194,0.3778409552627213,7.428569793701172,6.647712345139614,-0.7808574485615578
417,0.004795074462890625,-1.1346278190612793,0.5269961357116699,0.07976700365543365,2.3607823848724365,-0.03838269039988518,5.1868133544921875,6.0935126256323535,0.906699271140166,7.780220031738281,6.64815879233373,-1.1320612394045515
418,0.004795074462890625,-1.134819507598877,0.5269961357116699,0.07976700365543365,2.3607823848724365,-0.03838269039988518,5.772895812988281,6.096135275782723,0.32323946279444193,7.6923065185546875,6.648021144689693,-1.0442853738649944
419,0.004795074462890625,-1.1350111961364746,0.5273795127868652,0.07976700365543365,2.3607823848724365,-0.03838269039988518,5.714286804199219,6.097517230038424,0.38323042583920497,7.457874298095703,6.648467480361116,-0.8094068177345868
420,0.004795074462890625,-1.1352028846740723,0.5273795127868652,0.07976700365543365,2.3607752323150635,-0.038385048508644104,5.772895812988281,6.10019947470774,0.32730366171945846,7.633701324462891,6.648363235862507,-0.9853380886003835
