yagami-light7/gravity_identification/results/trig_fit/mc02_capture_cleaned/20260426_000013/data/fit_predictions.csv
sample_id,theta1,theta2,theta3,theta4,theta5,theta6,tau_meas1,tau_pred1,err1,tau_meas2,tau_pred2,err2,tau_meas3,tau_pred3,err3,tau_meas4,tau_pred4,err4,tau_meas5,tau_pred5,err5,tau_meas6,tau_pred6,err6
0,-0.030114173889160156,-0.07221460342407227,0.06282472610473633,0.049854375422000885,1.6726852655410767,0.026567697525024414,0.24908447265625,0.2335197411096015,-0.015564731546648503,-0.4981689453125,-1.6242130776485837,-1.1260441323360837,7.575092315673828,8.18792587176867,0.6128335560948415,-0.008714159950613976,-0.037809653945535926,-0.02909549399492195,0.5861700177192688,0.9098160531072652,0.3236460353879964,-1.272510051727295,-0.06592917831973644,1.2065808734075585
1,-0.030114173889160156,-0.07221460342407227,0.06320810317993164,0.049854375422000885,1.6726852655410767,0.026567697525024414,0.24908447265625,0.2335197411096015,-0.015564731546648503,-0.615386962890625,-1.623369880648136,-1.007982917757511,7.897434234619141,8.189679816774206,0.2922455821550649,-0.007380359806120396,-0.0373538335081216,-0.029973473702001208,0.5861700177192688,0.9099352634436663,0.32376524572439747,-1.272510051727295,-0.06592917831973644,1.2065808734075585
2,-0.030114173889160156,-0.07221460342407227,0.06282472610473633,0.049854375422000885,1.6726783514022827,0.026565339416265488,0.131866455078125,0.2335197411096015,0.1016532860314765,-0.4395599365234375,-1.624226980317991,-1.1846670437945535,7.868133544921875,8.187898979174877,0.31976543425300186,-0.007380359806120396,-0.037817913788773305,-0.03043755398265291,0.5861700177192688,0.9098127593672285,0.3236427416479597,-1.272510051727295,-0.06593550113133873,1.2065745505959562
3,-0.030114173889160156,-0.07221460342407227,0.06282472610473633,0.049854375422000885,1.67264986038208,0.026555856689810753,0.27838897705078125,0.2335197411096015,-0.04486923594117975,-0.4981689453125,-1.624284268339495,-1.126115323026995,7.545787811279297,8.187788161825978,0.6420003505466809,-0.007202519569545984,-0.03785195051874779,-0.030649430949201806,0.5694299936294556,0.9097991869301965,0.3403691933007409,-1.3227300643920898,-0.06596092750584592,1.256769136886244
4,-0.030114173889160156,-0.07221460342407227,0.06282472610473633,0.049854375422000885,1.6726285219192505,0.026548756286501884,0.3076934814453125,0.2335197411096015,-0.074173740335711,-0.380950927734375,-1.624327173835864,-1.243376246101489,7.838829040527344,8.187705163345038,0.3488761228176944,-0.007380359806120396,-0.037877442968263564,-0.030497083162143168,0.5840100646018982,0.9097890218453508,0.3257789572434526,-1.3745701313018799,-0.06597996636696468,1.3085901649349152
5,-0.030114173889160156,-0.07221460342407227,0.06282472610473633,0.049854375422000885,1.6726285219192505,0.026548756286501884,0.21977996826171875,0.2335197411096015,0.013739772847882747,-0.380950927734375,-1.624327173835864,-1.243376246101489,7.516483306884766,8.187705163345038,0.6712218564602725,-0.008714159950613976,-0.037877442968263564,-0.02916328301764959,0.5675400495529175,0.9097890218453508,0.34224897229243334,-1.4239802360534668,-0.06597996636696468,1.3580002696865021
6,-0.030114173889160156,-0.07221460342407227,0.06282472610473633,0.049854375422000885,1.6726073026657104,0.026541657745838165,0.27838897705078125,0.2335197411096015,-0.04486923594117975,-0.5567779541015625,-1.6243698391313268,-1.0675918850297643,7.721611022949219,8.187622627364833,0.4660116044156144,-0.008803078904747963,-0.03790279343100411,-0.02909971452625615,0.5877900123596191,0.9097789135876073,0.3219889012279882,-1.376189947128296,-0.06599900048622853,1.3101909466420674
7,-0.030114173889160156,-0.07221460342407227,0.06282472610473633,0.049854375422000885,1.6726213693618774,0.026541629806160927,0.24908447265625,0.2335197411096015,-0.015564731546648503,-0.4981689453125,-1.6243415554524425,-1.1261726101399425,7.8095245361328125,8.187677342359352,0.3781528062265398,-0.008714159950613976,-0.037885988020250894,-0.029171828069636918,0.5834700465202332,0.9097856145631233,0.3263155680428902,-1.376190185546875,-0.06599907540454186,1.3101911101423331
8,-0.030114173889160156,-0.07221460342407227,0.06282472610473633,0.04908738657832146,1.672607421875,0.026536915451288223,0.1904754638671875,0.2335197411096015,0.043044277242414,-0.4981689453125,-1.6252659634867364,-1.1270970181742364,7.838829040527344,8.188297606916525,0.3494685663891808,-0.007202519569545984,-0.03806990626452733,-0.030867386694981347,0.5697000026702881,0.9095403190204773,0.3398403163501892,-1.4320799112319946,-0.06601171667724515,1.3660681945547495
9,-0.030114173889160156,-0.07221460342407227,0.06282472610473633,0.049854375422000885,1.6725859642028809,0.026529788970947266,0.24908447265625,0.2335197411096015,-0.015564731546648503,-0.4395599365234375,-1.6244127436112064,-1.1848528070877689,7.457874298095703,8.187539626514843,0.7296653284191397,-0.008714159950613976,-0.0379282867436177,-0.029214126793003725,0.5856300592422485,0.9097687485810407,0.3241386893387922,-1.4798702001571655,-0.06603082613778,1.4138393740193855
10,-0.030114173889160156,-0.07202291488647461,0.06282472610473633,0.049854375422000885,1.6725648641586304,0.026522716507315636,0.21977996826171875,0.2335197411096015,0.013739772847882747,-0.4395599365234375,-1.6255550540012083,-1.1859951174777708,8.161170959472656,8.188334753691057,0.027163794218401094,-0.010047960095107555,-0.03772554709929521,-0.027677587004187654,0.585360050201416,0.9098183154119611,0.3244582652105451,-1.4806801080703735,-0.06604979100566855,1.414630317064705
11,-0.030114173889160156,-0.07202291488647461,0.06282472610473633,0.049854375422000885,1.6725434064865112,0.026515590026974678,0.24908447265625,0.2335197411096015,-0.015564731546648503,-0.4395599365234375,-1.6255982017538901,-1.1860382652304526,7.223442077636719,8.188251297501177,0.964809219864458,-0.008714159950613976,-0.03775117978986442,-0.029037019839250444,0.5694299936294556,0.9098080949915376,0.340378101362082,-1.4328899383544922,-0.0660689009733888,1.3668210373811034
12,-0.030114173889160156,-0.07183122634887695,0.06282472610473633,0.049854375422000885,1.668552041053772,0.025175757706165314,0.1904754638671875,0.2335197411096015,0.043044277242414,-0.615386962890625,-1.634715996671706,-1.019329033781081,7.428569793701172,8.173585529777347,0.7450157360761747,-0.005957639776170254,-0.04229809958964137,-0.036340459813471115,0.756540060043335,0.907967526847066,0.1514274668037311,-0.9833399057388306,-0.06966624148282019,0.9136736642560104
13,-0.030114173889160156,-0.07183122634887695,0.06282472610473633,0.049854375422000885,1.6685805320739746,0.025180498138070107,0.24908447265625,0.2335197411096015,-0.015564731546648503,-0.5567779541015625,-1.6346588274928902,-1.0778808733913277,7.545787811279297,8.173696622459971,0.6279088111806743,-0.007380359806120396,-0.04226396250686815,-0.03488360270074775,0.787860095500946,0.9079810856824613,0.12012099018151523,-0.9833400845527649,-0.06965349795628217,0.9136865865964827
14,-0.030114173889160156,-0.07183122634887695,0.06282472610473633,0.049854375422000885,1.6685947179794312,0.02518521435558796,0.21977996826171875,0.2335197411096015,0.013739772847882747,-0.5567779541015625,-1.6346303621632212,-1.0778524080616587,7.633701324462891,8.173751935604443,0.5400506111415524,-0.008714159950613976,-0.04224696566834685,-0.03353280571773287,0.8218801021575928,0.907987836761034,0.08610773460344123,-0.8812800645828247,-0.06964081963606983,0.8116392449467549
15,-0.030114173889160156,-0.0716395378112793,0.06282472610473633,0.049854375422000885,1.6686090230941772,0.0251899566501379,0.3076934814453125,0.2335197411096015,-0.074173740335711,-0.5567779541015625,-1.635702529079504,-1.0789245749779415,7.545787811279297,8.174686212100866,0.6288984008215692,-0.007380359806120396,-0.04200122389345329,-0.03462086408733289,0.8243099451065063,0.9080544780812138,0.08374453297470741,-0.8901899456977844,-0.06962807132689441,0.82056187437089
16,-0.030114173889160156,-0.0716395378112793,0.06282472610473633,0.049854375422000885,1.6686302423477173,0.02519705519080162,0.27838897705078125,0.2335197411096015,-0.04486923594117975,-0.615386962890625,-1.6356599453403953,-1.0202729824497703,7.487178802490234,8.174768937091862,0.6875901346016278,-0.007380359806120396,-0.04197580454224381,-0.034595444736123415,0.8405100703239441,0.9080645751165859,0.0675545047926418,-0.9371700882911682,-0.06960898913115798,0.8675610991600102
17,-0.030114173889160156,-0.0716395378112793,0.06282472610473633,0.049854375422000885,1.668665885925293,0.02520892396569252,0.27838897705078125,0.2335197411096015,-0.04486923594117975,-0.615386962890625,-1.6355884130868001,-1.0202014501961751,7.516483306884766,8.174907893856597,0.6584245869718313,-0.008714159950613976,-0.041933106703454515,-0.03321894675284054,0.8723700642585754,0.9080815359561092,0.03571147169753375,-0.8237700462341309,-0.06957708422360831,0.7541929620105225
18,-0.030114173889160156,-0.0676112174987793,0.06282472610473633,0.049854375422000885,1.668815016746521,0.02523970603942871,0.3076934814453125,0.2335197411096015,-0.074173740335711,-0.9670333862304688,-1.6584383559795528,-0.691404969749084,8.043956756591797,8.193870519923786,0.14991376333198936,-0.007380359806120396,-0.0369587567002565,-0.029578396894136105,1.031670093536377,0.9094069649841967,-0.12226312855218024,-0.7719300985336304,-0.06949434104229901,0.7024357574913314
19,-0.030114173889160156,-0.0676112174987793,0.06282472610473633,0.049854375422000885,1.668815016746521,0.02523970603942871,0.27838897705078125,0.2335197411096015,-0.04486923594117975,-1.1428604125976562,-1.6584383559795528,-0.5155779433818966,7.663002014160156,8.193870519923786,0.53086850576363,-0.007380359806120396,-0.0369587567002565,-0.029578396894136105,1.084320068359375,0.9094069649841967,-0.1749131033751783,-0.7257600426673889,-0.06949434104229901,0.6562657016250899
20,-0.030114173889160156,-0.06722784042358398,0.062441349029541016,0.049854375422000885,1.6688289642333984,0.025244422256946564,0.21977996826171875,0.2335197411096015,0.013739772847882747,-1.1428604125976562,-1.6614402389495013,-0.5185798263518451,7.75091552734375,8.193924741704071,0.4430092143603215,-0.004623840097337961,-0.03694210446487278,-0.03231826436753482,1.0529999732971191,0.9094135843763477,-0.14358638892077147,-0.7079401016235352,-0.06948166412071899,0.6384584375028162
21,-0.030114173889160156,-0.06722784042358398,0.062441349029541016,0.049854375422000885,1.6688289642333984,0.025244422256946564,0.27838897705078125,0.2335197411096015,-0.04486923594117975,-1.0842514038085938,-1.6614402389495013,-0.5771888351409076,7.633701324462891,8.193924741704071,0.5602234172411809,-0.005868720356374979,-0.03694210446487278,-0.031073384108497804,1.068660020828247,0.9094135843763477,-0.1592464364518994,-0.7727401256561279,-0.06948166412071899,0.7032584615354089
22,-0.030114173889160156,-0.06722784042358398,0.062441349029541016,0.049854375422000885,1.6688789129257202,0.02524201013147831,0.24908447265625,0.2335197411096015,-0.015564731546648503,-1.0256423950195312,-1.6613397608245957,-0.6356973658050644,7.282051086425781,8.19411891639017,0.9120678299643892,-0.007202519569545984,-0.0368824710546809,-0.029679951485134914,1.0940399169921875,0.9094372898590238,-0.18460262713316367,-0.7387199401855469,-0.06948814776139933,0.6692317924241475
23,-0.030114173889160156,-0.06722784042358398,0.062441349029541016,0.049854375422000885,1.6688789129257202,0.02524201013147831,0.3076934814453125,0.2335197411096015,-0.074173740335711,-1.0256423950195312,-1.6613397608245957,-0.6356973658050644,7.6923065185546875,8.19411891639017,0.5018123978354829,-0.007202519569545984,-0.0368824710546809,-0.029679951485134914,1.0751399993896484,0.9094372898590238,-0.1657027095306246,-0.6609600186347961,-0.06948814776139933,0.5914718708733968
24,-0.030114173889160156,-0.06722784042358398,0.062441349029541016,0.049854375422000885,1.6688789129257202,0.02524201013147831,0.21977996826171875,0.2335197411096015,0.013739772847882747,-0.9084243774414062,-1.6613397608245957,-0.7529153833831894,7.897434234619141,8.19411891639017,0.2966846817710298,-0.004534920211881399,-0.0368824710546809,-0.0323475508427995,1.059749960899353,0.9094372898590238,-0.1503126710403292,-0.7281899452209473,-0.06948814776139933,0.6587017974595479
25,-0.030114173889160156,-0.06722784042358398,0.062441349029541016,0.049854375422000885,1.6688789129257202,0.02524201013147831,0.24908447265625,0.2335197411096015,-0.015564731546648503,-0.9670333862304688,-1.6613397608245957,-0.6943063745941269,7.457874298095703,8.19411891639017,0.7362446182944673,-0.005957639776170254,-0.0368824710546809,-0.030924831278510645,1.0902600288391113,0.9094372898590238,-0.1808227389800875,-0.7273799180984497,-0.06948814776139933,0.6578917703370504
26,-0.030114173889160156,-0.06722784042358398,0.06282472610473633,0.05062136799097061,1.6689071655273438,0.025251468643546104,0.1904754638671875,0.2335197411096015,0.043044277242414,-1.2014617919921875,-1.6595793270593333,-0.4581175350671458,7.897434234619141,8.195291567989951,0.29785733337081055,-0.006135479547083378,-0.03622633240528583,-0.030090852858202455,1.1277899742126465,0.9098079654230316,-0.21798200878961493,-0.6147899627685547,-0.06946272404617204,0.5453272387223826
27,-0.030114173889160156,-0.06722784042358398,0.06282472610473633,0.05062136799097061,1.668928623199463,0.025258593261241913,0.1904754638671875,0.2335197411096015,0.043044277242414,-1.0256423950195312,-1.659536133142082,-0.6338937381225507,7.838829040527344,8.19537491620111,0.35654587567376694,-0.007380359806120396,-0.03620073904372978,-0.028820379237609384,1.1315699815750122,0.9098181414970792,-0.22175184007793303,-0.7152299284934998,-0.0694435739460939,0.6457863545474058
28,-0.030114173889160156,-0.06722784042358398,0.062441349029541016,0.05062136799097061,1.668928623199463,0.025258593261241913,0.21977996826171875,0.2335197411096015,0.013739772847882747,-1.1428604125976562,-1.6603604739803748,-0.5175000613827185,7.926738739013672,8.193634225205763,0.2668954861920909,-0.00569087965413928,-0.036656092108809935,-0.030965212454670654,1.1423699855804443,0.9096991261816483,-0.23267085939879606,-0.7735500335693359,-0.0694435739460939,0.704106459623242
29,-0.030114173889160156,-0.06722784042358398,0.06282472610473633,0.05062136799097061,1.6689571142196655,0.025249136611819267,0.21977996826171875,0.2335197411096015,0.013739772847882747,-1.0256423950195312,-1.6594787804251196,-0.6338363854055884,7.663002014160156,8.195485582241744,0.532483568081588,-0.007202519569545984,-0.03616675742502373,-0.028964237855477748,1.1356201171875,0.9098316531233741,-0.2257884640641259,-0.727380096912384,-0.06946899231716586,0.6579111045952182
30,-0.030114173889160156,-0.06722784042358398,0.062441349029541016,0.05062136799097061,1.6689571142196655,0.025249136611819267,0.3076934814453125,0.2335197411096015,-0.074173740335711,-1.1428604125976562,-1.6603031334482572,-0.517442720850601,7.516483306884766,8.193744919821423,0.6772616129366575,-0.007202519569545984,-0.036622100084173326,-0.02941958051462734,1.1504700183868408,0.9097126412538858,-0.24075737713295497,-0.7719299793243408,-0.06946899231716586,0.702460987007175
31,-0.030114173889160156,-0.06722784042358398,0.06282472610473633,0.05062136799097061,1.668971061706543,0.02525385282933712,0.27838897705078125,0.2335197411096015,-0.04486923594117975,-1.26007080078125,-1.6594507036604251,-0.39937990287917513,7.604396820068359,8.195539756893018,0.5911429368246583,-0.004534920211881399,-0.03615012235395487,-0.03161520214207347,1.169640064239502,0.9098382676270163,-0.2598017966124857,-0.8294399976730347,-0.06945631561836318,0.7599836820546715
32,-0.030114173889160156,-0.06722784042358398,0.062441349029541016,0.049854375422000885,1.668971061706543,0.02525385282933712,0.24908447265625,0.2335197411096015,-0.015564731546648503,-1.2014617919921875,-1.661154384556598,-0.4596925925644104,7.487178802490234,8.194477126095684,0.7072983236054498,-0.007113599684089422,-0.03677246147001556,-0.02965886178592614,1.1801700592041016,0.9094810239294422,-0.2706890352746594,-0.7735499143600464,-0.06945631561836318,0.7040935987416832
33,-0.030114173889160156,-0.06722784042358398,0.06282472610473633,0.05062136799097061,1.668971061706543,0.02525385282933712,0.27838897705078125,0.2335197411096015,-0.04486923594117975,-1.2014617919921875,-1.6594507036604251,-0.45798891166823763,7.1941375732421875,8.195539756893018,1.0014021836508302,-0.005868720356374979,-0.03615012235395487,-0.030281401997579893,1.150740146636963,0.9098382676270163,-0.24090187900994664,-0.8861400485038757,-0.06945631561836318,0.8166837328855125
34,-0.030114173889160156,-0.06722784042358398,0.062441349029541016,0.05062136799097061,1.668971061706543,0.02525385282933712,0.16117095947265625,0.2335197411096015,0.07234878163694525,-1.26007080078125,-1.6602750626483007,-0.4002042618670507,7.369964599609375,8.193799108461748,0.8238345088523733,-0.007202519569545984,-0.03660545991885278,-0.029402940349306794,1.1736900806427002,0.9097192574444889,-0.2639708231982113,-0.8415900468826294,-0.06945631561836318,0.7721337312642662
35,-0.030114173889160156,-0.06722784042358398,0.062441349029541016,0.05062136799097061,1.6689924001693726,0.02524675242602825,0.21977996826171875,0.2335197411096015,0.013739772847882747,-1.0256423950195312,-1.6602321163034857,-0.6345897212839544,7.487178802490234,8.193882011465284,0.7067032089750498,-0.005957639776170254,-0.03658000224673463,-0.03062236247056438,1.1547900438308716,0.9097293796831012,-0.2450606641477704,-0.7848901152610779,-0.06947540080129677,0.7154147144597811
36,-0.030114173889160156,-0.06722784042358398,0.062441349029541016,0.05062136799097061,1.6689924001693726,0.02524675242602825,0.33699798583984375,0.2335197411096015,-0.10347824473024225,-1.3186798095703125,-1.6602321163034857,-0.34155230673317316,7.3113555908203125,8.193882011465284,0.8825264206449717,-0.005957639776170254,-0.03658000224673463,-0.03062236247056438,1.1736900806427002,0.9097293796831012,-0.263960700959599,-0.8415900468826294,-0.06947540080129677,0.7721146460813326
37,-0.030114173889160156,-0.06722784042358398,0.062441349029541016,0.05062136799097061,1.6689924001693726,0.02524675242602825,0.21977996826171875,0.2335197411096015,0.013739772847882747,-1.4358978271484375,-1.6602321163034857,-0.22433428915504816,7.516483306884766,8.193882011465284,0.6773987045805185,-0.007113599684089422,-0.03658000224673463,-0.02946640256264521,1.1925899982452393,0.9097293796831012,-0.28286061856213807,-0.7848899960517883,-0.06947540080129677,0.7154145952504916
38,-0.030114173889160156,-0.06722784042358398,0.06282472610473633,0.05062136799097061,1.6689924001693726,0.02524675242602825,0.1904754638671875,0.2335197411096015,0.043044277242414,-1.2014617919921875,-1.6594077481903624,-0.4579459561981749,8.10256576538086,8.19562263849394,0.0930568731130812,-0.005957639776170254,-0.03612467247577933,-0.030167032699609075,1.1547900438308716,0.9098483872846777,-0.24494165654619393,-0.8982900381088257,-0.06947540080129677,0.8288146373075289
39,-0.030114173889160156,-0.06722784042358398,0.06282472610473633,0.05062136799097061,1.6689924001693726,0.02524675242602825,0.27838897705078125,0.2335197411096015,-0.04486923594117975,-1.3186798095703125,-1.6594077481903624,-0.3407279386200499,7.487178802490234,8.19562263849394,0.7084438360037062,-0.005868720356374979,-0.03612467247577933,-0.03025595211940435,1.1736900806427002,0.9098483872846777,-0.26384169335802254,-0.8415900468826294,-0.06947540080129677,0.7721146460813326
40,-0.030114173889160156,-0.06722784042358398,0.062441349029541016,0.05062136799097061,1.6689924001693726,0.02524675242602825,0.24908447265625,0.2335197411096015,-0.015564731546648503,-1.0256423950195312,-1.6602321163034857,-0.6345897212839544,7.018314361572266,8.193882011465284,1.1755676498930185,-0.007113599684089422,-0.03658000224673463,-0.02946640256264521,1.1736900806427002,0.9097293796831012,-0.263960700959599,-0.954990029335022,-0.06947540080129677,0.8855146285337252
41,-0.030114173889160156,-0.06722784042358398,0.062441349029541016,0.05062136799097061,1.6689924001693726,0.02524675242602825,0.24908447265625,0.2335197411096015,-0.015564731546648503,-1.377288818359375,-1.6602321163034857,-0.28294329794411066,7.369964599609375,8.193882011465284,0.8239174118559092,-0.004623840097337961,-0.03658000224673463,-0.03195616214939667,1.1882699728012085,0.9097293796831012,-0.2785405931181073,-0.8853298425674438,-0.06947540080129677,0.8158544417661471
42,-0.03049755096435547,-0.06741952896118164,0.062441349029541016,0.05062136799097061,1.6689924001693726,0.02524675242602825,0.21977996826171875,0.2327291981063766,0.01294922984465785,-1.377288818359375,-1.6591299743530579,-0.28184115599368287,7.633701324462891,8.19301119038667,0.5593098659237796,-0.007380359806120396,-0.03680771638459679,-0.029427356578476394,1.207170009613037,0.9096698584953401,-0.297500151117697,-0.8286298513412476,-0.06947540080129677,0.7591544505399508
43,-0.030114173889160156,-0.06722784042358398,0.06282472610473633,0.05062136799097061,1.6689924001693726,0.02524675242602825,0.1904754638671875,0.2335197411096015,0.043044277242414,-1.4358978271484375,-1.6594077481903624,-0.2235099210419249,7.721611022949219,8.19562263849394,0.4740116155447218,-0.005957639776170254,-0.03612467247577933,-0.030167032699609075,1.1842200756072998,0.9098483872846777,-0.27437168832262215,-0.9865800142288208,-0.06947540080129677,0.917104613427524
44,-0.030114173889160156,-0.06722784042358398,0.062441349029541016,0.05062136799097061,1.6689996719360352,0.025249136611819267,0.1904754638671875,0.2335197411096015,0.043044277242414,-1.26007080078125,-1.6602174808408554,-0.4001466800596054,7.164836883544922,8.193910263054748,1.0290733795098266,-0.005868720356374979,-0.036571326826268846,-0.030702606469893867,1.1882699728012085,0.9097328291700368,-0.27853714363117166,-0.8853298425674438,-0.06946899231716586,0.815860850250278
45,-0.030114173889160156,-0.06722784042358398,0.062441349029541016,0.05062136799097061,1.6690136194229126,0.025249136611819267,0.27838897705078125,0.2335197411096015,-0.04486923594117975,-1.26007080078125,-1.6601894093785643,-0.4001186085973143,7.6923065185546875,8.193964450142579,0.5016579315878911,-0.004534920211881399,-0.036554687226327376,-0.03201976701444598,1.2117600440979004,0.90973944541184,-0.30202059868606035,-0.8423998951911926,-0.06946899231716586,0.7729309028740268
46,-0.030114173889160156,-0.06741952896118164,0.06282472610473633,0.05062136799097061,1.6690349578857422,0.025242038071155548,0.21977996826171875,0.2335197411096015,0.013739772847882747,-1.377288818359375,-1.6582192659643455,-0.28093044760497055,7.545787811279297,8.194917812143146,0.649130000863849,-0.007202519569545984,-0.03630155688503223,-0.029099037315486243,1.1974499225616455,0.9098090747523713,-0.28764084780927424,-1.000349998474121,-0.06948807266114798,0.9308619258129731
47,-0.030114173889160156,-0.06741952896118164,0.062441349029541016,0.05062136799097061,1.6690349578857422,0.025242038071155548,0.1904754638671875,0.2335197411096015,0.043044277242414,-1.4945068359375,-1.6590443291739954,-0.16453749323649536,7.8095245361328125,8.193176551026982,0.3836520148941691,-0.007380359806120396,-0.03675693678738856,-0.029376576981268165,1.1736899614334106,0.9096900491141096,-0.2639999123193011,-0.929069995880127,-0.06948807266114798,0.859581923218979
48,-0.030114173889160156,-0.06741952896118164,0.062441349029541016,0.05062136799097061,1.6690349578857422,0.025242038071155548,0.27838897705078125,0.2335197411096015,-0.04486923594117975,-1.5531158447265625,-1.6590443291739954,-0.10592848444743286,7.575092315673828,8.193176551026982,0.6180842353531535,-0.005868720356374979,-0.03675693678738856,-0.030888216431013582,1.207170009613037,0.9096900491141096,-0.29747996049892755,-0.9420298933982849,-0.06948807266114798,0.8725418207371369
49,-0.030114173889160156,-0.06722784042358398,0.06282472610473633,0.05062136799097061,1.6690349578857422,0.025242038071155548,0.16117095947265625,0.2335197411096015,0.07234878163694525,-1.4358978271484375,-1.6593220757088751,-0.22342424856043763,7.604396820068359,8.195787935111838,0.5913911150434785,-0.005957639776170254,-0.03607391619321976,-0.030116276417049503,1.1974499225616455,0.9098685701827076,-0.2875813523789379,-1.000349998474121,-0.06948807266114798,0.9308619258129731
50,-0.030114173889160156,-0.06722784042358398,0.062441349029541016,0.05062136799097061,1.6690349578857422,0.025242038071155548,0.24908447265625,0.2335197411096015,-0.015564731546648503,-1.4945068359375,-1.6601464620204673,-0.16563962608296734,7.106227874755859,8.194047350770866,1.0878194760150066,-0.004534920211881399,-0.036529230419210634,-0.031994310207329235,1.2120299339294434,0.9097495677287764,-0.302280366200667,-0.956609845161438,-0.06948807266114798,0.88712177250029
51,-0.030114173889160156,-0.06722784042358398,0.062441349029541016,0.05062136799097061,1.6690562963485718,0.02523493766784668,0.21977996826171875,0.2335197411096015,0.013739772847882747,-1.3186798095703125,-1.6601035141543399,-0.3414237045840274,7.25274658203125,8.194130250208143,0.9413836681768935,-0.005957639776170254,-0.03650377404582339,-0.030546134269653136,1.2503701448440552,0.9097596900849777,-0.3406104547590775,-0.9566100835800171,-0.06950715826427079,0.8871029253157463
52,-0.030114173889160156,-0.06741952896118164,0.06282472610473633,0.05062136799097061,1.6690562963485718,0.02523493766784668,0.3076934814453125,0.2335197411096015,-0.074173740335711,-1.4945068359375,-1.6581763135353316,-0.16366947759783157,7.8095245361328125,8.195000700879627,0.3854761647468141,-0.007202519569545984,-0.036276104408460075,-0.02907358483891409,1.2123000621795654,0.9098191958181377,-0.3024808663614277,-1.0708202123641968,-0.06950715826427079,1.001313054099926
53,-0.03049755096435547,-0.06722784042358398,0.062441349029541016,0.05062136799097061,1.6690562963485718,0.02523493766784668,0.27838897705078125,0.2327291981063766,-0.04565977894440465,-1.5531158447265625,-1.6601035141543399,-0.10698766942777738,7.897434234619141,8.194130250208143,0.2966960155890028,-0.005868720356374979,-0.03650377404582339,-0.03063505368944841,1.2166200876235962,0.9097596900849777,-0.3068603975386185,-1.057860255241394,-0.06950715826427079,0.9883530969771233
54,-0.030114173889160156,-0.06722784042358398,0.062441349029541016,0.05062136799097061,1.669077754020691,0.025227811187505722,0.21977996826171875,0.2335197411096015,0.013739772847882747,-1.6703262329101562,-1.6600603258437228,0.010265907066433488,7.633701324462891,8.194213611569728,0.5605122871068371,-0.005868720356374979,-0.036478175895442,-0.03060945553906702,1.2174299955368042,0.9097698690302449,-0.3076601265065593,-1.0862098932266235,-0.06952631421533972,1.0166835790112838
55,-0.030114173889160156,-0.06741952896118164,0.06282472610473633,0.05062136799097061,1.669077754020691,0.025227811187505722,0.24908447265625,0.2335197411096015,-0.015564731546648503,-1.5531158447265625,-1.6581331206365126,-0.10501727590995014,8.073261260986328,8.195084051480288,0.12182279049395994,-0.007380359806120396,-0.03625051017676917,-0.028870150370648773,1.2355201244354248,0.9098293734657334,-0.32569075096969136,-1.1145603656768799,-0.06952631421533972,1.0450340514615402
56,-0.030114173889160156,-0.06741952896118164,0.062441349029541016,0.05062136799097061,1.669077754020691,0.025227811187505722,0.1904754638671875,0.2335197411096015,0.043044277242414,-1.377288818359375,-1.6589582021515037,-0.2816693837921287,7.985347747802734,8.193342833281458,0.20799508547872314,-0.004801679868251085,-0.03670587444999063,-0.03190419458173954,1.2355201244354248,0.9097103530031961,-0.32580977143222867,-1.1145603656768799,-0.06952631421533972,1.0450340514615402
57,-0.030114173889160156,-0.06741952896118164,0.06282472610473633,0.05062136799097061,1.6690988540649414,0.025220738723874092,0.3076934814453125,0.2335197411096015,-0.074173740335711,-1.5531158447265625,-1.6580906471186019,-0.10497480239203938,7.3113555908203125,8.195166011729452,0.8838104209091391,-0.005868720356374979,-0.03622534294341673,-0.03035662258704175,1.2309300899505615,0.9098393815245512,-0.3210907084260103,-1.1267101764678955,-0.0695453252212026,1.057164851246693
58,-0.030114173889160156,-0.06741952896118164,0.06282472610473633,0.05062136799097061,1.6690988540649414,0.025220738723874092,0.21977996826171875,0.2335197411096015,0.013739772847882747,-1.5531158447265625,-1.6580906471186019,-0.10497480239203938,7.633701324462891,8.195166011729452,0.561464687266561,-0.0031121999491006136,-0.03622534294341673,-0.033113142994316114,1.2600901126861572,0.9098393815245512,-0.350250731161606,-1.0732502937316895,-0.0695453252212026,1.0037049685104869
59,-0.030114173889160156,-0.06741952896118164,0.062441349029541016,0.05062136799097061,1.6690988540649414,0.025220738723874092,0.24908447265625,0.2335197411096015,-0.015564731546648503,-1.611724853515625,-1.6589157376582682,-0.047190884142643164,7.75091552734375,8.193424814691426,0.4425092873476757,-0.004357079975306988,-0.03668069951060082,-0.032323619535293835,1.2498301267623901,0.9097203636139137,-0.3401097631484764,-1.0700101852416992,-0.0695453252212026,1.0004648600204966
60,-0.030114173889160156,-0.06741952896118164,0.062441349029541016,0.05062136799097061,1.6690988540649414,0.025220738723874092,0.16117095947265625,0.2335197411096015,0.07234878163694525,-1.4945068359375,-1.6589157376582682,-0.16440890172076816,7.663002014160156,8.193424814691426,0.5304228005312694,-0.004534920211881399,-0.03668069951060082,-0.032145779298719424,1.2752100229263306,0.9097203636139137,-0.36548965931241684,-1.14614999294281,-0.0695453252212026,1.0766046677216075
61,-0.030114173889160156,-0.06741952896118164,0.062441349029541016,0.05062136799097061,1.6690988540649414,0.025220738723874092,0.21977996826171875,0.2335197411096015,0.013739772847882747,-1.4358978271484375,-1.6589157376582682,-0.22301791050983066,7.340660095214844,8.193424814691426,0.852764719476582,-0.005868720356374979,-0.03668069951060082,-0.030811979154225844,1.2943800687789917,0.9097203636139137,-0.38465970516507797,-1.0886399745941162,-0.0695453252212026,1.0190946493729136
62,-0.030114173889160156,-0.06741952896118164,0.062441349029541016,0.05062136799097061,1.6690988540649414,0.025220738723874092,0.1904754638671875,0.2335197411096015,0.043044277242414,-1.611724853515625,-1.6589157376582682,-0.047190884142643164,7.575092315673828,8.193424814691426,0.6183324990175976,-0.004357079975306988,-0.03668069951060082,-0.032323619535293835,1.2662999629974365,0.9097203636139137,-0.3565795993835228,-1.2069001197814941,-0.0695453252212026,1.1373547945602915
63,-0.030114173889160156,-0.06741952896118164,0.062441349029541016,0.05062136799097061,1.6690988540649414,0.025220738723874092,0.21977996826171875,0.2335197411096015,0.013739772847882747,-1.6703262329101562,-1.6589157376582682,0.011410495251888086,7.223442077636719,8.193424814691426,0.969982737054707,-0.00569087965413928,-0.03668069951060082,-0.030989819856461542,1.2752100229263306,0.9097203636139137,-0.36548965931241684,-1.14614999294281,-0.0695453252212026,1.0766046677216075
64,-0.030114173889160156,-0.06741952896118164,0.062441349029541016,0.05062136799097061,1.6690988540649414,0.025220738723874092,0.21977996826171875,0.2335197411096015,0.013739772847882747,-1.611724853515625,-1.6589157376582682,-0.047190884142643164,7.428569793701172,8.193424814691426,0.7648550209902538,-0.004534920211881399,-0.03668069951060082,-0.032145779298719424,1.2417300939559937,0.9097203636139137,-0.3320097303420799,-1.2465900182724,-0.0695453252212026,1.1770446930511973
65,-0.030114173889160156,-0.06741952896118164,0.062441349029541016,0.05062136799097061,1.6690988540649414,0.025220738723874092,0.21977996826171875,0.2335197411096015,0.013739772847882747,-1.4945068359375,-1.6589157376582682,-0.16440890172076816,7.6923065185546875,8.193424814691426,0.5011182961367382,-0.00569087965413928,-0.03668069951060082,-0.030989819856461542,1.2695400714874268,0.9097203636139137,-0.35981970787351303,-1.129140019416809,-0.0695453252212026,1.0595946941956065
66,-0.030114173889160156,-0.06741952896118164,0.06282472610473633,0.05062136799097061,1.6690988540649414,0.025220738723874092,0.27838897705078125,0.2335197411096015,-0.04486923594117975,-1.4945068359375,-1.6580906471186019,-0.16358381118110188,8.014652252197266,8.195166011729452,0.18051375953218596,-0.004534920211881399,-0.03622534294341673,-0.03169042273153533,1.256309986114502,0.9098393815245512,-0.3464706045899507,-1.202850103378296,-0.0695453252212026,1.1333047781570933
67,-0.030114173889160156,-0.06741952896118164,0.062441349029541016,0.05062136799097061,1.6690988540649414,0.025220738723874092,0.3076934814453125,0.2335197411096015,-0.074173740335711,-1.611724853515625,-1.6589157376582682,-0.047190884142643164,7.457874298095703,8.193424814691426,0.7355505165957226,-0.004623840097337961,-0.03668069951060082,-0.03205685941326286,1.288710117340088,0.9097203636139137,-0.37898975372617416,-1.186650037765503,-0.0695453252212026,1.1171047125443003
68,-0.030114173889160156,-0.06741952896118164,0.06282472610473633,0.05062136799097061,1.6690988540649414,0.025220738723874092,0.27838897705078125,0.2335197411096015,-0.04486923594117975,-1.5531158447265625,-1.6580906471186019,-0.10497480239203938,7.838829040527344,8.195166011729452,0.35633697120210783,-0.004534920211881399,-0.03622534294341673,-0.03169042273153533,1.2798000574111938,0.9098393815245512,-0.3699606758866426,-1.247400164604187,-0.0695453252212026,1.1778548393829844
69,-0.030114173889160156,-0.06741952896118164,0.062441349029541016,0.05062136799097061,1.6691274642944336,0.025211254134774208,0.27838897705078125,0.2335197411096015,-0.04486923594117975,-1.6703262329101562,-1.6588581578907946,0.011468075019361645,7.25274658203125,8.19353597406557,0.9407893920343202,-0.005868720356374979,-0.036646564676833915,-0.030777844320458936,1.3197600841522217,0.9097339373847031,-0.4100261467675186,-1.1647801399230957,-0.06957082048987218,1.0952093194332235
70,-0.030114173889160156,-0.06741952896118164,0.062441349029541016,0.05062136799097061,1.6691274642944336,0.025211254134774208,0.27838897705078125,0.2335197411096015,-0.04486923594117975,-1.611724853515625,-1.6588581578907946,-0.047133304375169605,7.604396820068359,8.19353597406557,0.5891391539972108,-0.005868720356374979,-0.036646564676833915,-0.030777844320458936,1.2962701320648193,0.9097339373847031,-0.38653619468011624,-1.2352502346038818,-0.06957082048987218,1.1656794141140097
71,-0.030114173889160156,-0.06741952896118164,0.06282472610473633,0.05062136799097061,1.669134497642517,0.025213638320565224,0.24908447265625,0.2335197411096015,-0.015564731546648503,-1.7289352416992188,-1.6580188969407819,0.07091634475843689,7.663002014160156,8.195304461707533,0.5323024475473765,-0.0031121999491006136,-0.03618282976707299,-0.033070629817972375,1.3194900751113892,0.9098562878805143,-0.40963378723087485,-1.1655901670455933,-0.06956441158182525,1.096025755463768
72,-0.03049755096435547,-0.06722784042358398,0.062441349029541016,0.05062136799097061,1.6691628694534302,0.025204181671142578,0.27838897705078125,0.2327291981063766,-0.04565977894440465,-1.611724853515625,-1.659889007151734,-0.04816415363610904,7.25274658203125,8.19454426643934,0.9417976844080904,-0.004623840097337961,-0.03637664088628867,-0.03175280078895071,1.3068000078201294,0.9098102459041146,-0.39698976191601476,-1.2425400018692017,-0.069589832082257,1.1729501697869447
73,-0.03049755096435547,-0.06741952896118164,0.062441349029541016,0.05062136799097061,1.6691628694534302,0.025204181671142578,0.21977996826171875,0.2327291981063766,0.01294922984465785,-1.6703262329101562,-1.6587869016639236,0.011539331246232631,7.428569793701172,8.19367353082729,0.7651037371261182,-0.005868720356374979,-0.03660432389939361,-0.03073560354301863,1.3119299411773682,0.9097507350237948,-0.4021792061535734,-1.3437899351119995,-0.069589832082257,1.2742001030297425
74,-0.030114173889160156,-0.06741952896118164,0.062441349029541016,0.05062136799097061,1.6691628694534302,0.025204181671142578,0.1904754638671875,0.2335197411096015,0.043044277242414,-1.4945068359375,-1.6587869016639236,-0.16428006572642362,7.868133544921875,8.19367353082729,0.3255399859054151,-0.005868720356374979,-0.03660432389939361,-0.03073560354301863,1.3049099445343018,0.9097507350237948,-0.395159209510507,-1.2077099084854126,-0.069589832082257,1.1381200764031556
75,-0.03049755096435547,-0.06741952896118164,0.062441349029541016,0.05062136799097061,1.6691628694534302,0.025204181671142578,0.21977996826171875,0.2327291981063766,0.01294922984465785,-1.7875442504882812,-1.6587869016639236,0.12875734882435763,7.721611022949219,8.19367353082729,0.47206250787807136,-0.007380359806120396,-0.03660432389939361,-0.029223964093273214,1.3116600513458252,0.9097507350237948,-0.4019093163220304,-1.2279601097106934,-0.069589832082257,1.1583702776284364
76,-0.030114173889160156,-0.06741952896118164,0.062441349029541016,0.05062136799097061,1.6691628694534302,0.025204181671142578,0.21977996826171875,0.2335197411096015,0.013739772847882747,-1.8461532592773438,-1.6587869016639236,0.18736635761342013,6.959705352783203,8.19367353082729,1.233968178044087,-0.0031121999491006136,-0.03660432389939361,-0.033492123950292996,1.292490005493164,0.9097507350237948,-0.3827392704693693,-1.2854701280593872,-0.069589832082257,1.2158802959771302
77,-0.030114173889160156,-0.06741952896118164,0.062441349029541016,0.05062136799097061,1.6691842079162598,0.02519708126783371,0.1904754638671875,0.2335197411096015,0.043044277242414,-1.6703262329101562,-1.65874395531627,0.011582277593886303,7.545787811279297,8.193756433824174,0.6479686225448766,-0.005868720356374979,-0.03657886622969864,-0.030710145873323658,1.3327200412750244,0.9097608589056232,-0.4229591823694012,-1.205280065536499,-0.06960891903171795,1.135671146504781
78,-0.030114173889160156,-0.06741952896118164,0.062441349029541016,0.05062136799097061,1.6691842079162598,0.02519708126783371,0.3076934814453125,0.2335197411096015,-0.074173740335711,-1.4358978271484375,-1.65874395531627,-0.22284612816783245,7.487178802490234,8.193756433824174,0.7065776313339391,-0.004534920211881399,-0.03657886622969864,-0.03204394601781724,1.3119299411773682,0.9097608589056232,-0.40216908227174497,-1.3437899351119995,-0.06960891903171795,1.2741810160802816
79,-0.03049755096435547,-0.06741952896118164,0.062441349029541016,0.05062136799097061,1.6691913604736328,0.025194697082042694,0.21977996826171875,0.2327291981063766,0.01294922984465785,-1.7875442504882812,-1.6587295597787817,0.12881469070949958,7.223442077636719,8.193784222271713,0.9703421446349942,-0.007202519569545984,-0.03657033302964652,-0.029367813460100534,1.3378499746322632,0.9097642523943514,-0.42808572223791175,-1.3065299987792969,-0.06961532813748494,1.236914670641812
80,-0.030114173889160156,-0.06741952896118164,0.062441349029541016,0.05062136799097061,1.6692198514938354,0.02518521435558796,0.27838897705078125,0.2335197411096015,-0.04486923594117975,-1.8461532592773438,-1.658672216987891,0.18748104228945284,7.164836883544922,8.19389491159298,1.0290580280480572,-0.004534920211881399,-0.03653634293309538,-0.03200142272121398,1.3597201108932495,0.9097777698348954,-0.44994234105835407,-1.2862801551818848,-0.06964081963606983,1.216639335545815
81,-0.030114173889160156,-0.06741952896118164,0.062441349029541016,0.05062136799097061,1.6692198514938354,0.02518521435558796,0.24908447265625,0.2335197411096015,-0.015564731546648503,-1.7289352416992188,-1.658672216987891,0.07026302471132784,7.663002014160156,8.19389491159298,0.5308928974328229,-0.005868720356374979,-0.03653634293309538,-0.0306676225767204,1.3383899927139282,0.9097777698348954,-0.4286122228790328,-1.4231702089309692,-0.06964081963606983,1.3535293892948994
82,-0.030114173889160156,-0.06741952896118164,0.062441349029541016,0.05138835683465004,1.669255256652832,0.025173399597406387,0.21977996826171875,0.2335197411096015,0.013739772847882747,-1.8461532592773438,-1.6577228882379789,0.18843037103936489,7.106227874755859,8.193352724590794,1.0871248498349342,-0.005868720356374979,-0.03632693861746472,-0.030458218261089742,1.3791600465774536,0.9100325921647695,-0.4691274544126841,-1.344599962234497,-0.0696725807406926,1.2749273814938045
83,-0.03049755096435547,-0.06741952896118164,0.062441349029541016,0.05062136799097061,1.669262409210205,0.02517101541161537,0.1904754638671875,0.2327291981063766,0.0422537342391891,-1.7289352416992188,-1.6585865610067225,0.07034868069249622,7.956043243408203,8.194060246917529,0.23801700350932542,-0.00569087965413928,-0.03648557255534546,-0.030794692901206178,1.3535101413726807,0.9097979612885442,-0.4437121800841365,-1.4685304164886475,-0.06967899012925827,1.3988514263593892
84,-0.03049755096435547,-0.06741952896118164,0.06282472610473633,0.05138835683465004,1.669262409210205,0.02517101541161537,0.1904754638671875,0.2327291981063766,0.0422537342391891,-2.0219802856445312,-1.6568843200260122,0.3650959656185191,7.516483306884766,8.195120763458798,0.6786374565740321,-0.004534920211881399,-0.035863377268356755,-0.031328457056475356,1.3726800680160522,0.9101548892813562,-0.462525178734696,-1.411020278930664,-0.06967899012925827,1.3413412888014058
85,-0.030114173889160156,-0.06741952896118164,0.062441349029541016,0.05138835683465004,1.6692835092544556,0.025163941085338593,0.24908447265625,0.2335197411096015,-0.015564731546648503,-1.7289352416992188,-1.6576659991337932,0.07126924256542555,7.516483306884766,8.193462426211727,0.6769791193269619,-0.004357079975306988,-0.03629325532573824,-0.03193617535043125,1.375920057296753,0.9100459898054714,-0.4658740674912816,-1.4499000310897827,-0.0696980081544627,1.38020202293532
86,-0.03049755096435547,-0.06741952896118164,0.062441349029541016,0.05062136799097061,1.669354796409607,0.02514025941491127,0.24908447265625,0.2327291981063766,-0.0163552745498734,-1.9633712768554688,-1.6584006061940184,0.30497067066145034,7.838829040527344,8.194419151833802,0.35559011130645857,-0.004534920211881399,-0.03637536268756936,-0.03184044247568796,1.392930030822754,0.9098417948133526,-0.4830882360094013,-1.5009300708770752,-0.0697616737942921,1.431168397082783
87,-0.03049755096435547,-0.06741952896118164,0.06282472610473633,0.05138835683465004,1.669376015663147,0.0251331590116024,0.27838897705078125,0.2327291981063766,-0.04565977894440465,-1.9047622680664062,-1.6566555086076766,0.24810675945872962,7.135532379150391,8.195561755394403,1.060029376244012,-0.00577980000525713,-0.03572798042411285,-0.02994818041885572,1.368630051612854,0.9102087492278672,-0.4584213023849868,-1.628909945487976,-0.06978076301704217,1.559129182470934
88,-0.030114173889160156,-0.0676112174987793,0.06282472610473633,0.05138835683465004,1.669411540031433,0.02512131817638874,0.21977996826171875,0.2335197411096015,0.013739772847882747,-2.0805892944335938,-1.655480796714023,0.4251084977195707,7.25274658203125,8.194829756235361,0.9420831742041109,-0.005868720356374979,-0.035913118020406865,-0.030044397664031885,1.3232700824737549,0.91016615345675,-0.4131039290170049,-1.8200700283050537,-0.06981259731139033,1.7502574309936634
89,-0.030114173889160156,-0.0676112174987793,0.062441349029541016,0.05062136799097061,1.6694399118423462,0.025111861526966095,0.1904754638671875,0.2335197411096015,0.043044277242414,-1.9633712768554688,-1.6571272993353734,0.30624397752009536,7.633701324462891,8.19387885263171,0.5601775281688202,-0.004534920211881399,-0.0365014998589539,-0.0319665796470725,1.402649998664856,0.9098226731475537,-0.49282732551730224,-1.6418700218200684,-0.06983802218454649,1.5720319996355219
90,-0.03049755096435547,-0.0676112174987793,0.06282472610473633,0.05138835683465004,1.6694469451904297,0.02510947734117508,0.24908447265625,0.2327291981063766,-0.0163552745498734,-1.7875442504882812,-1.6554094914424557,0.1321347590458255,7.487178802490234,8.194967197814268,0.7077883953240338,-0.005957639776170254,-0.035870919183841776,-0.029913279407671522,1.388069987297058,0.9101829412483093,-0.47788704604874876,-1.6856099367141724,-0.06984443230795989,1.6157655044062125
91,-0.030114173889160156,-0.0676112174987793,0.062441349029541016,0.05138835683465004,1.6694469451904297,0.02510947734117508,0.1904754638671875,0.2335197411096015,0.043044277242414,-1.8461532592773438,-1.6562344132073248,0.18991884607001897,7.1941375732421875,8.193226440278593,0.9990888670364058,-0.005868720356374979,-0.03632595132568062,-0.030457230969305638,1.4077801704406738,0.9100640350671612,-0.49771613537351267,-1.7447401285171509,-0.06984443230795989,1.674895696209191
92,-0.03049755096435547,-0.0676112174987793,0.062441349029541016,0.05138835683465004,1.6694612503051758,0.025099992752075195,0.27838897705078125,0.2327291981063766,-0.04565977894440465,-2.0219802856445312,-1.6562056087087536,0.3657746769357777,7.428569793701172,8.193281985664372,0.7647121919632003,-0.005868720356374979,-0.036308896399303014,-0.030440176042928035,1.4366700649261475,0.9100708197754569,-0.5265992451506906,-1.7180101871490479,-0.06986993286206555,1.6481402542869823
93,-0.030114173889160156,-0.0676112174987793,0.062441349029541016,0.05138835683465004,1.6694612503051758,0.025099992752075195,0.16117095947265625,0.2335197411096015,0.07234878163694525,-2.0219802856445312,-1.6562056087087536,0.3657746769357777,7.428569793701172,8.193281985664372,0.7647121919632003,0.002667600056156516,-0.036308896399303014,-0.03897649645545953,1.4072401523590088,0.9100708197754569,-0.4971693325835519,-1.7431203126907349,-0.06986993286206555,1.6732503798286693
94,-0.030114173889160156,-0.0676112174987793,0.062441349029541016,0.05138835683465004,1.6694895029067993,0.02509053610265255,0.3076934814453125,0.2335197411096015,-0.074173740335711,-2.0805892944335938,-1.6561487191542978,0.4244405752792959,7.780220031738281,8.193391686226871,0.4131716544885897,-0.005868720356374979,-0.03627521349295426,-0.030406493136579282,1.4080500602722168,0.9100842196259888,-0.49796584064622795,-1.7455501556396484,-0.06989535874526531,1.6756547968943831
95,-0.030114173889160156,-0.0676112174987793,0.062441349029541016,0.05138835683465004,1.6695178747177124,0.025081077590584755,0.24908447265625,0.2335197411096015,-0.015564731546648503,-2.0805892944335938,-1.656091588664642,0.42449770576895185,7.516483306884766,8.193501847557213,0.6770185406724476,-0.004534920211881399,-0.03624138923060305,-0.03170646901872165,1.3910400867462158,0.9100976760849745,-0.4809424106612413,-1.8095401525497437,-0.0699207900845451,1.7396193624651985
96,-0.030114173889160156,-0.0676112174987793,0.062441349029541016,0.05138835683465004,1.6696457862854004,0.025038454681634903,0.16117095947265625,0.2335197411096015,0.07234878163694525,-2.25640869140625,-1.6558340102390496,0.6005746811672004,7.135532379150391,8.193998473089763,1.0584660939393729,-0.005957639776170254,-0.03608890534430609,-0.030131265568135834,1.4161500930786133,0.9101583440881883,-0.505991748990425,-1.7698501348495483,-0.07003539693075744,1.699814737918791
97,-0.030114173889160156,-0.06780338287353516,0.062441349029541016,0.05138835683465004,1.6697098016738892,0.025017129257321358,0.24908447265625,0.2335197411096015,-0.015564731546648503,-2.139190673828125,-1.6545999986547528,0.4845906751733722,7.369964599609375,8.193374080368839,0.8234094807594641,-0.005957639776170254,-0.036240681541644504,-0.03028304176547425,1.4175000190734863,0.9101291043915103,-0.507370914681976,-1.773900032043457,-0.07009274133172205,1.703807290711735
98,-0.03049755096435547,-0.06780338287353516,0.06282472610473633,0.05062136799097061,1.6724510192871094,0.024103377014398575,0.33699798583984375,0.2327291981063766,-0.10426878773346715,-2.0219802856445312,-1.649129878973672,0.37285040667085934,7.1941375732421875,8.206432233192375,1.0122946599501876,-0.004623840097337961,-0.03268711266560387,-0.028063272568265907,1.2546899318695068,0.9113110870896068,-0.3433788447799,-1.4004900455474854,-0.07255197471414743,1.327938070833338
99,-0.030114173889160156,-0.06780338287353516,0.06282472610473633,0.05062136799097061,1.6724510192871094,0.024103377014398575,0.27838897705078125,0.2335197411096015,-0.04486923594117975,-2.139190673828125,-1.649129878973672,0.4900607948544531,7.457874298095703,8.206432233192375,0.748557935096672,-0.005868720356374979,-0.03268711266560387,-0.02681839230922889,1.2441599369049072,0.9113110870896068,-0.3328488498153004,-1.2797999382019043,-0.07255197471414743,1.2072479634877569
100,-0.030114173889160156,-0.06780338287353516,0.062441349029541016,0.05062136799097061,1.6724439859390259,0.02410101890563965,0.24908447265625,0.2335197411096015,-0.015564731546648503,-2.0219802856445312,-1.6499719334230307,0.3720083522215005,7.868133544921875,8.204665777104992,0.33653223218311723,-0.004357079975306988,-0.033149746134401914,-0.028792666159094926,1.2160801887512207,0.9111890889587738,-0.3048910997924469,-1.2846602201461792,-0.07255832663420936,1.2121018935119698
101,-0.030114173889160156,-0.06780338287353516,0.062441349029541016,0.05062136799097061,1.6724439859390259,0.02410101890563965,0.21977996826171875,0.2335197411096015,0.013739772847882747,-1.9633712768554688,-1.6499719334230307,0.313399343432438,7.1941375732421875,8.204665777104992,1.0105282038628047,-0.007202519569545984,-0.033149746134401914,-0.02594722656485593,1.1493899822235107,0.9111890889587738,-0.23820089326473692,-1.2870899438858032,-0.07255832663420936,1.2145316172515939
102,-0.03049755096435547,-0.06799507141113281,0.062441349029541016,0.05062136799097061,1.6724367141723633,0.024103403091430664,0.16117095947265625,0.2327291981063766,0.07155823863372035,-2.139190673828125,-1.648885384223969,0.490305289604156,7.721611022949219,8.203767472933846,0.48215644998462714,-0.004357079975306988,-0.03338558460659247,-0.02902850463128548,1.1580300331115723,0.9111262885106488,-0.24690374460092346,-1.2255300283432007,-0.07255190447190163,1.152978123871299
103,-0.030114173889160156,-0.06780338287353516,0.06282472610473633,0.05062136799097061,1.6724367141723633,0.024103403091430664,0.24908447265625,0.2335197411096015,-0.015564731546648503,-2.25640869140625,-1.6491587218617663,0.6072499695444837,7.135532379150391,8.206376778402559,1.0708443992521683,-0.00569087965413928,-0.0327041346150283,-0.02701325496088902,1.1391301155090332,0.9113042961299254,-0.22782581937910784,-1.282230019569397,-0.07255190447190163,1.2096781150974953
104,-0.030114173889160156,-0.06799507141113281,0.062441349029541016,0.05062136799097061,1.6724296808242798,0.02410101890563965,0.21977996826171875,0.2335197411096015,0.013739772847882747,-2.0219802856445312,-1.6488995607383807,0.3730807249061505,7.3113555908203125,8.203740196839588,0.8923846060192755,-0.0031121999491006136,-0.03339395767032172,-0.030281757721221103,1.0999799966812134,0.9111229483489506,-0.1888570483322628,-1.1647799015045166,-0.07255832663420936,1.0922215748703072
105,-0.030114173889160156,-0.06799507141113281,0.062441349029541016,0.05138835683465004,1.6724084615707397,0.024103377014398575,0.24908447265625,0.2335197411096015,-0.015564731546648503,-2.25640869140625,-1.6480600771209142,0.6083486142853358,7.399269104003906,8.202972982432591,0.803703878428685,-0.007380359806120396,-0.03325396570540873,-0.025873605899288332,1.033830165863037,0.91135027098432,-0.12247989487871713,-1.1672101020812988,-0.07255197471414743,1.0946581273671514
106,-0.030114173889160156,-0.06799507141113281,0.062441349029541016,0.05138835683465004,1.6724084615707397,0.024103377014398575,0.21977996826171875,0.2335197411096015,0.013739772847882747,-2.1977996826171875,-1.6480600771209142,0.5497396054962733,6.871795654296875,8.202972982432591,1.3311773281357162,-0.004534920211881399,-0.03325396570540873,-0.02871904549352733,1.0276200771331787,0.91135027098432,-0.11626980614885873,-1.1485799551010132,-0.07255197471414743,1.0760279803868658
107,-0.030114173889160156,-0.06799507141113281,0.062441349029541016,0.05138835683465004,1.6724084615707397,0.024103377014398575,0.24908447265625,0.2335197411096015,-0.015564731546648503,-1.9633712768554688,-1.6480600771209142,0.31531119973455457,7.721611022949219,8.202972982432591,0.48136195948337246,-0.005868720356374979,-0.03325396570540873,-0.02738524534903375,1.033830165863037,0.91135027098432,-0.12247989487871713,-1.1672101020812988,-0.07255197471414743,1.0946581273671514
108,-0.030114173889160156,-0.06799507141113281,0.062441349029541016,0.05138835683465004,1.6724084615707397,0.024103377014398575,0.1904754638671875,0.2335197411096015,0.043044277242414,-2.0219802856445312,-1.6480600771209142,0.37392020852361707,7.399269104003906,8.202972982432591,0.803703878428685,-0.005868720356374979,-0.03325396570540873,-0.02738524534903375,1.0089900493621826,0.91135027098432,-0.09763977837786264,-1.204469919204712,-0.07255197471414743,1.1319179444905645
109,-0.03049755096435547,-0.06799507141113281,0.062441349029541016,0.05138835683465004,1.6724014282226562,0.0241057351231575,0.21977996826171875,0.2327291981063766,0.01294922984465785,-2.1977996826171875,-1.6480742594010853,0.5497254232161022,8.10256576538086,8.202945719989472,0.10037995460861282,-0.004534920211881399,-0.03326233380125809,-0.028727413589376694,0.999269962310791,0.9113469325461774,-0.08792302976461364,-1.1526299715042114,-0.0725456228219219,1.0800843486822895
110,-0.03049755096435547,-0.06799507141113281,0.062441349029541016,0.05138835683465004,1.6723800897598267,0.024098634719848633,0.21977996826171875,0.2327291981063766,0.01294922984465785,-2.4322357177734375,-1.6481172866611669,0.7841184311122706,7.516483306884766,8.202863007713768,0.6863797008290025,-0.0031121999491006136,-0.03328772204263064,-0.030175522093530027,0.9976500272750854,0.9113368040899753,-0.08631322318511014,-1.0797300338745117,-0.07256474882497166,1.00716528504954
111,-0.03049755096435547,-0.06799507141113281,0.062441349029541016,0.05062136799097061,1.6723871231079102,0.02410099282860756,0.27838897705078125,0.2327291981063766,-0.04565977894440465,-2.0805892944335938,-1.6489853394927492,0.4316039549408446,7.985347747802734,8.203575150583088,0.21822740278035369,-0.004357079975306988,-0.033444622810169466,-0.02908754283486248,0.9757800102233887,0.9111027376295859,-0.06467727259380274,-1.1064599752426147,-0.07255839687676602,1.0339015783658487
112,-0.03049755096435547,-0.06818675994873047,0.062441349029541016,0.05138835683465004,1.6723800897598267,0.024098634719848633,0.21977996826171875,0.2327291981063766,0.01294922984465785,-2.373626708984375,-1.647015635237823,0.7266110737465521,7.25274658203125,8.201992918559021,0.9492463365277715,-0.004534920211881399,-0.033514816443181106,-0.028979896231299707,0.937440037727356,0.9112774880484624,-0.026162549678893532,-1.103219985961914,-0.07256474882497166,1.0306552371369424
113,-0.030114173889160156,-0.06818675994873047,0.062441349029541016,0.05138835683465004,1.6723586320877075,0.02410576120018959,0.16117095947265625,0.2335197411096015,0.07234878163694525,-1.9633712768554688,-1.64705889780203,0.3163123790534388,7.516483306884766,8.201909732186026,0.6854264253012605,-0.00577980000525713,-0.03354035089143692,-0.02776055088617979,0.9477000832557678,0.9112673017459354,-0.036432781509832424,-1.1113200187683105,-0.07254555257998252,1.038774466188328
114,-0.030114173889160156,-0.06837844848632812,0.06282472610473633,0.05138835683465004,1.6723514795303345,0.024108119308948517,0.24908447265625,0.2335197411096015,-0.015564731546648503,-2.3150177001953125,-1.6451428578548883,0.6698748423404242,7.516483306884766,8.202752106694913,0.6862687998101471,-0.007202519569545984,-0.0333217628262652,-0.026119243256719216,0.9115199446678162,0.9113232240974497,-0.00019672057036645985,-1.025459885597229,-0.0725392007159007,0.9529206848813283
115,-0.030114173889160156,-0.06837844848632812,0.062441349029541016,0.05138835683465004,1.6723445653915405,0.0241057351231575,0.1904754638671875,0.2335197411096015,0.043044277242414,-2.139190673828125,-1.6459856661626233,0.4932050076655017,7.868133544921875,8.20098475252992,0.3328512076080443,-0.004534920211881399,-0.03378422426365346,-0.029249304051772063,0.896399974822998,0.9112012942568781,0.014801319433880078,-1.0708198547363281,-0.0725456228219219,0.9982742319144062
116,-0.030114173889160156,-0.06837844848632812,0.062441349029541016,0.05138835683465004,1.6723445653915405,0.0241057351231575,0.24908447265625,0.2335197411096015,-0.015564731546648503,-1.9047622680664062,-1.6459856661626233,0.25877660190378293,7.8095245361328125,8.20098475252992,0.3914602163971068,-0.0032900399528443813,-0.03378422426365346,-0.03049418431080908,0.8893800973892212,0.9112012942568781,0.021821196867656933,-1.049760103225708,-0.0725456228219219,0.9772144804037861
117,-0.030114173889160156,-0.06857061386108398,0.06282472610473633,0.05138835683465004,1.6723374128341675,0.024103377014398575,0.24908447265625,0.2335197411096015,-0.015564731546648503,-2.0805892944335938,-1.64406627522535,0.43652301920824366,7.428569793701172,8.201825304039565,0.7732555103383927,-0.004534920211881399,-0.03356616702861692,-0.029031246816735523,0.8893800973892212,0.9112570810896261,0.021876983700404917,-1.049760103225708,-0.07255197471414743,0.9772081285115606
118,-0.03049755096435547,-0.06876230239868164,0.062441349029541016,0.05138835683465004,1.6723374128341675,0.024103377014398575,0.1904754638671875,0.2327291981063766,0.0422537342391891,-2.4908447265625,-1.6437943575675389,0.8470503689949611,7.604396820068359,8.199212937729401,0.5948161176610416,-0.004534920211881399,-0.03424767173630561,-0.029712751524424208,0.8729100823402405,0.911079055361714,0.038168973021473485,-1.023030161857605,-0.07255197471414743,0.9504781871434576
119,-0.030114173889160156,-0.06876230239868164,0.062441349029541016,0.05138835683465004,1.6723374128341675,0.024103377014398575,0.1904754638671875,0.2335197411096015,0.043044277242414,-2.139190673828125,-1.6437943575675389,0.4953963162605861,7.487178802490234,8.199212937729401,0.7120341352391666,-0.0029343601781874895,-0.03424767173630561,-0.03131331155811812,0.8604900240898132,0.911079055361714,0.05058903127190073,-0.9857701659202576,-0.07255197471414743,0.9132181912061101
120,-0.030114173889160156,-0.06876230239868164,0.062441349029541016,0.05138835683465004,1.672323226928711,0.024098660796880722,0.21977996826171875,0.2335197411096015,0.013739772847882747,-2.0805892944335938,-1.6438229492517067,0.43676634518188706,7.8095245361328125,8.199157919393185,0.38963338326037267,-0.004534920211881399,-0.03426456117804544,-0.02972964096616404,0.8453700542449951,0.9110723185482011,0.06570226430320603,-1.031130075454712,-0.07256467858210591,0.958565396872606
121,-0.03049755096435547,-0.0689539909362793,0.062441349029541016,0.05138835683465004,1.6723018884658813,0.02410101890563965,0.3076934814453125,0.2327291981063766,-0.0749642833389359,-2.373626708984375,-1.642764555235713,0.7308621537486619,7.75091552734375,8.198203675912804,0.4472881485690543,-0.007291440386325121,-0.03451720731043406,-0.02722576692410894,0.8380799889564514,0.9110028177488476,0.0729228287923962,-1.0092599391937256,-0.07255832663420936,0.9367016125595162
122,-0.030114173889160156,-0.06914567947387695,0.062441349029541016,0.05138835683465004,1.6722947359085083,0.024098660796880722,0.24908447265625,0.2335197411096015,-0.015564731546648503,-2.0805892944335938,-1.6416776334145595,0.4389116610190342,7.428569793701172,8.197304105441239,0.7687343117400669,-0.00577980000525713,-0.03475299941249488,-0.02897319940723775,0.8224200010299683,0.9109400412659311,0.08852004023596283,-0.9817200303077698,-0.07256467858210591,0.9091553517256639
123,-0.03049755096435547,-0.06914567947387695,0.062441349029541016,0.05138835683465004,1.6722947359085083,0.024098660796880722,0.21977996826171875,0.2327291981063766,0.01294922984465785,-2.0805892944335938,-1.6416776334145595,0.4389116610190342,7.487178802490234,8.197304105441239,0.7101253029510044,-0.004534920211881399,-0.03475299941249488,-0.03021807920061348,0.787320077419281,0.9109400412659311,0.12361996384665008,-0.968760073184967,-0.07256467858210591,0.8961953946028611
124,-0.030114173889160156,-0.06933784484863281,0.06282472610473633,0.05138835683465004,1.6722947359085083,0.024098660796880722,0.21977996826171875,0.2335197411096015,0.013739772847882747,-2.373626708984375,-1.6397413897779387,0.7338853192064363,7.780220031738281,8.198173763073846,0.41795373133556524,-0.007202519569545984,-0.034526289843609836,-0.027323770274063852,0.7813800573348999,0.9109992729266406,0.12961921559174072,-1.0627199411392212,-0.07256467858210591,0.9901552625571153
125,-0.03049755096435547,-0.06933784484863281,0.062441349029541016,0.05138835683465004,1.6722947359085083,0.024098660796880722,0.21977996826171875,0.2327291981063766,0.01294922984465785,-2.25640869140625,-1.6405736248022937,0.6158350666039563,7.545787811279297,8.196429771030841,0.6506419597515443,-0.004534920211881399,-0.034980872710904,-0.0304459524990226,0.8100000619888306,0.9108805025414732,0.10088044055264267,-0.9444599747657776,-0.07256467858210591,0.8718952961836717
126,-0.030114173889160156,-0.06952953338623047,0.06282472610473633,0.05138835683465004,1.6722520589828491,0.024103403091430664,0.33699798583984375,0.2335197411096015,-0.10347824473024225,-2.139190673828125,-1.638725504871715,0.5004651689564099,8.043956756591797,8.19713636957793,0.1531796129861327,-0.0031121999491006136,-0.034804393037603854,-0.03169219308850324,0.775170087814331,0.9109196215162925,0.1357495337019614,-0.932310163974762,-0.07255190447190163,0.8597582595028603
127,-0.03049755096435547,-0.06952953338623047,0.062441349029541016,0.05138835683465004,1.6722520589828491,0.024103403091430664,0.1904754638671875,0.2327291981063766,0.0422537342391891,-2.1977996826171875,-1.6395583988135605,0.558241283803627,7.575092315673828,8.195391657667756,0.6202993419939276,-0.004357079975306988,-0.03525905737183277,-0.03090197739652578,0.7554600238800049,0.9108008227322915,0.15534079885228658,-0.8731799125671387,-0.07255190447190163,0.800628008095237
128,-0.030114173889160156,-0.06952953338623047,0.062441349029541016,0.05138835683465004,1.6722520589828491,0.024103403091430664,0.27838897705078125,0.2335197411096015,-0.04486923594117975,-2.25640869140625,-1.6395583988135605,0.6168502925926895,7.340660095214844,8.195391657667756,0.8547315624529119,-0.004357079975306988,-0.03525905737183277,-0.03090197739652578,0.7554600238800049,0.9108008227322915,0.15534079885228658,-0.8731799125671387,-0.07255190447190163,0.800628008095237
129,-0.03049755096435547,-0.06952953338623047,0.062441349029541016,0.05138835683465004,1.6722520589828491,0.024103403091430664,0.24908447265625,0.2327291981063766,-0.0163552745498734,-2.373626708984375,-1.6395583988135605,0.7340683101708145,7.8095245361328125,8.195391657667756,0.3858671215349432,-0.003023279830813408,-0.03525905737183277,-0.03223577754101936,0.7211700081825256,0.9108008227322915,0.18963081454976582,-0.9760499596595764,-0.07255190447190163,0.9034980551876748
130,-0.030114173889160156,-0.06972122192382812,0.062441349029541016,0.05138835683465004,1.6722520589828491,0.024103403091430664,0.27838897705078125,0.2335197411096015,-0.04486923594117975,-2.139190673828125,-1.6384572543784977,0.5007334194496273,7.868133544921875,8.194518794065141,0.32638524914326617,-0.00577980000525713,-0.035486438905115714,-0.029706638899858584,0.7171200513839722,0.9107414059238271,0.19362135453985496,-0.8699399828910828,-0.07255190447190163,0.7973880784191811
131,-0.030114173889160156,-0.06972122192382812,0.062441349029541016,0.05138835683465004,1.6722450256347656,0.024101044982671738,0.21977996826171875,0.2335197411096015,0.013739772847882747,-2.3150177001953125,-1.638471421950276,0.6765462782450364,7.75091552734375,8.194491496863613,0.44357596951986267,-0.004623840097337961,-0.035494819651808784,-0.030870979554470823,0.7368299961090088,0.9107380637402142,0.17390806763120537,-0.9290699362754822,-0.07255825639165536,0.8565116798838268
132,-0.030114173889160156,-0.06972122192382812,0.062441349029541016,0.05138835683465004,1.6722450256347656,0.024101044982671738,0.24908447265625,0.2335197411096015,-0.015564731546648503,-2.3150177001953125,-1.638471421950276,0.6765462782450364,7.721611022949219,8.194491496863613,0.4728804739143939,-0.004357079975306988,-0.035494819651808784,-0.031137739676501797,0.709559977054596,0.9107380637402142,0.2011780866856182,-0.8472598791122437,-0.07255825639165536,0.7747016227205883
133,-0.03049755096435547,-0.06972122192382812,0.062441349029541016,0.05138835683465004,1.6722450256347656,0.024101044982671738,0.1904754638671875,0.2327291981063766,0.0422537342391891,-2.25640869140625,-1.638471421950276,0.6179372694559739,7.6923065185546875,8.194491496863613,0.5021849783089252,-0.003201120300218463,-0.035494819651808784,-0.03229369935159032,0.7171200513839722,0.9107380637402142,0.193618012356242,-0.8699399828910828,-0.07255825639165536,0.7973817264994274
134,-0.030114173889160156,-0.06972122192382812,0.062441349029541016,0.05138835683465004,1.672223687171936,0.024108119308948517,0.24908447265625,0.2335197411096015,-0.015564731546648503,-2.3150177001953125,-1.6385144045854423,0.6765032956098702,7.897434234619141,8.194408679136638,0.2969744445174971,-0.005868720356374979,-0.03552024627387529,-0.02965152591750031,0.7276500463485718,0.9107279239208202,0.18307787757224847,-0.8837100267410278,-0.0725392007159007,0.8111708260251271
135,-0.03049755096435547,-0.06972122192382812,0.062441349029541016,0.05138835683465004,1.672216773033142,0.024110503494739532,0.1904754638671875,0.2327291981063766,0.0422537342391891,-2.1977996826171875,-1.6385283318110546,0.5592713508061329,7.282051086425781,8.194381844086386,0.9123307576606052,-0.004268160089850426,-0.035528485160826184,-0.03126032507097576,0.7168500423431396,0.9107246384010753,0.19387459605793567,-0.8691299557685852,-0.07253277863833407,0.7965971771302511
136,-0.030114173889160156,-0.06972122192382812,0.062441349029541016,0.05138835683465004,1.672216773033142,0.024110503494739532,0.24908447265625,0.2335197411096015,-0.015564731546648503,-2.373626708984375,-1.6385283318110546,0.7350983771733204,7.575092315673828,8.194381844086386,0.6192895284125584,-0.004357079975306988,-0.035528485160826184,-0.031171405185519196,0.7236000299453735,0.9107246384010753,0.18712460845570178,-0.7775999307632446,-0.07253277863833407,0.7050671521249106
137,-0.030114173889160156,-0.06972122192382812,0.062441349029541016,0.05138835683465004,1.672216773033142,0.024110503494739532,0.27838897705078125,0.2335197411096015,-0.04486923594117975,-2.3150177001953125,-1.6385283318110546,0.6764893683842579,7.926738739013672,8.194381844086386,0.2676431050727146,-0.003023279830813408,-0.035528485160826184,-0.032505205330012776,0.7025400400161743,0.9107246384010753,0.208184598384901,-0.8407800793647766,-0.07253277863833407,0.7682473007264425
138,-0.030114173889160156,-0.06972122192382812,0.062441349029541016,0.05138835683465004,1.672216773033142,0.024110503494739532,0.1904754638671875,0.2335197411096015,0.043044277242414,-2.139190673828125,-1.6385283318110546,0.5006623420170704,7.8095245361328125,8.194381844086386,0.384857307953574,-0.004357079975306988,-0.035528485160826184,-0.031171405185519196,0.7236000299453735,0.9107246384010753,0.18712460845570178,-0.7775999307632446,-0.07253277863833407,0.7050671521249106
139,-0.030114173889160156,-0.06991291046142578,0.06282472610473633,0.05138835683465004,1.672216773033142,0.024110503494739532,0.1904754638671875,0.2335197411096015,0.043044277242414,-2.1977996826171875,-1.636593013761218,0.5612066688559696,7.428569793701172,8.195254725422586,0.7666849317214144,-0.005868720356374979,-0.035301097171855256,-0.029432376815480277,0.6868799924850464,0.9107840573465116,0.2239040648614652,-0.8877599239349365,-0.07253277863833407,0.8152271452966025
140,-0.030114173889160156,-0.06991291046142578,0.06282472610473633,0.052155349403619766,1.672202467918396,0.02410576120018959,0.27838897705078125,0.2335197411096015,-0.04486923594117975,-2.1977996826171875,-1.6357377560036035,0.562061926613584,7.868133544921875,8.194516242626241,0.326382697704366,-0.005868720356374979,-0.035151439516416305,-0.029282719160041326,0.6631200909614563,0.9110148975672998,0.2478948066058435,-0.9120600819587708,-0.07254555257998252,0.8395145293787882
141,-0.03049755096435547,-0.0702967643737793,0.062441349029541016,0.05138835683465004,1.6721811294555664,0.02411283366382122,0.21977996826171875,0.2327291981063766,0.01294922984465785,-2.0805892944335938,-1.6352943125432433,0.44529498189035044,8.043956756591797,8.19162060055928,0.147663843967484,-0.0031121999491006136,-0.03625390558691732,-0.03314170563781671,0.6696000695228577,0.9105292201834464,0.24092915066058873,-0.8197201490402222,-0.07252650208845779,0.7471936469517644
142,-0.030114173889160156,-0.0702967643737793,0.062441349029541016,0.05138835683465004,1.6721811294555664,0.02411283366382122,0.27838897705078125,0.2335197411096015,-0.04486923594117975,-2.25640869140625,-1.6352943125432433,0.6211143788630067,7.282051086425781,8.19162060055928,0.9095695141334996,-0.007113599684089422,-0.03625390558691732,-0.0291403059028279,0.6696000695228577,0.9105292201834464,0.24092915066058873,-0.8197201490402222,-0.07252650208845779,0.7471936469517644
143,-0.030114173889160156,-0.07048845291137695,0.062441349029541016,0.05138835683465004,1.6721811294555664,0.02411283366382122,0.27838897705078125,0.2335197411096015,-0.04486923594117975,-1.9633712768554688,-1.6341934210386344,0.32917785581683434,7.575092315673828,8.190746347146574,0.6156540314727454,-0.004357079975306988,-0.03648143171446483,-0.03212435173915784,0.6669000387191772,0.9104697526346768,0.24356971391549953,-0.8278200626373291,-0.07252650208845779,0.7552935605488713
144,-0.030114173889160156,-0.07125568389892578,0.062441349029541016,0.05138835683465004,1.6721811294555664,0.02411283366382122,0.27838897705078125,0.2335197411096015,-0.04486923594117975,-2.0219802856445312,-1.6297877883808845,0.3921924972636468,7.369964599609375,8.18724377276753,0.8172791731581555,-0.004534920211881399,-0.037392431125021774,-0.032857510913140375,0.6555600166320801,0.910231618417265,0.2546716017851849,-0.7937999963760376,-0.07252650208845779,0.7212734942875798
145,-0.03049755096435547,-0.07394075393676758,0.062441349029541016,0.05138835683465004,1.6721526384353638,0.024122344329953194,0.27838897705078125,0.2327291981063766,-0.04565977894440465,-1.8461532592773438,-1.614435194854098,0.23171806442324572,7.399269104003906,8.174832317809194,0.7755632138052881,-0.004534920211881399,-0.04061884923005432,-0.03608392901817292,0.7292701005935669,0.9093831853070228,0.18011308471345588,-0.8108101487159729,-0.07250088441374825,0.7383092643022247
146,-0.030114173889160156,-0.07413291931152344,0.062441349029541016,0.052155349403619766,1.6721526384353638,0.024122344329953194,0.24908447265625,0.2335197411096015,-0.015564731546648503,-1.8461532592773438,-1.6124368645511407,0.2337163947262031,7.047618865966797,8.173275825809217,1.12565695984242,-0.005868720356374979,-0.040677680116480985,-0.034808959760106006,0.7662600874900818,0.909562109893258,0.14330202240317624,-0.6998401880264282,-0.07250088441374825,0.62733930361268
147,-0.030114173889160156,-0.07413291931152344,0.062441349029541016,0.05138835683465004,1.6721526384353638,0.024122344329953194,0.24908447265625,0.2335197411096015,-0.015564731546648503,-1.6703262329101562,-1.6133328439424623,0.0569933889676939,7.428569793701172,8.1739494343669,0.7453796406657283,-0.004357079975306988,-0.04084757142343909,-0.0364904914481321,0.7503300905227661,0.9093233474323112,0.15899325690954513,-0.7476301789283752,-0.07250088441374825,0.675129294514627
148,-0.030114173889160156,-0.07413291931152344,0.062441349029541016,0.052155349403619766,1.6721526384353638,0.024122344329953194,0.24908447265625,0.2335197411096015,-0.015564731546648503,-1.8461532592773438,-1.6124368645511407,0.2337163947262031,7.721611022949219,8.173275825809217,0.4516648028599981,-0.005868720356374979,-0.040677680116480985,-0.034808959760106006,0.7819200754165649,0.909562109893258,0.1276420344766931,-0.6528600454330444,-0.07250088441374825,0.5803591610192962
149,-0.030114173889160156,-0.07451677322387695,0.062441349029541016,0.05138835683465004,1.6721668243408203,0.024127086624503136,0.21977996826171875,0.2335197411096015,0.013739772847882747,-1.7875442504882812,-1.6111025838044823,0.1764416666837989,7.369964599609375,8.172240080501311,0.8022754808919359,-0.005868720356374979,-0.04128757718283005,-0.03541885682645507,0.8002800941467285,0.9092105477414971,0.1089304535947686,-0.5977801084518433,-0.07248811086576623,0.525291997586077
150,-0.030114173889160156,-0.07451677322387695,0.062441349029541016,0.05138835683465004,1.6721668243408203,0.024127086624503136,0.24908447265625,0.2335197411096015,-0.015564731546648503,-1.611724853515625,-1.6111025838044823,0.0006222697111426534,7.6923065185546875,8.172240080501311,0.4799335619466234,-0.004534920211881399,-0.04128757718283005,-0.03675265697094865,0.8002800941467285,0.9092105477414971,0.1089304535947686,-0.5977801084518433,-0.07248811086576623,0.525291997586077
151,-0.030114173889160156,-0.07451677322387695,0.062441349029541016,0.05138835683465004,1.6721668243408203,0.024127086624503136,0.27838897705078125,0.2335197411096015,-0.04486923594117975,-1.8461532592773438,-1.6111025838044823,0.2350506754728614,6.959705352783203,8.172240080501311,1.2125347277181078,-0.0031121999491006136,-0.04128757718283005,-0.038175377233729435,0.8202600479125977,0.9092105477414971,0.08895049982889947,-0.6577199697494507,-0.07248811086576623,0.5852318588836845
152,-0.03049755096435547,-0.07470846176147461,0.062441349029541016,0.05138835683465004,1.672174096107483,0.02412470243871212,0.21977996826171875,0.2327291981063766,0.01294922984465785,-1.611724853515625,-1.6099885685503188,0.0017362849653062007,7.75091552734375,8.171386699577766,0.4204711722340164,-0.005868720356374979,-0.04150712757291841,-0.03563840721654343,0.839430034160614,0.9091542913539674,0.0697242571933534,-0.7168499231338501,-0.0724945327454174,0.6443553903884327
153,-0.030114173889160156,-0.07470846176147461,0.062441349029541016,0.052155349403619766,1.6721811294555664,0.024127058684825897,0.21977996826171875,0.2335197411096015,0.013739772847882747,-1.5531158447265625,-1.6090769445674376,-0.05596109984087505,7.25274658203125,8.17074158298995,0.9179950009586992,-0.007291440386325121,-0.04132844947805259,-0.034037009091727466,0.8737200498580933,0.9093965389877338,0.0356764891296405,-0.6139799952507019,-0.07248818612200392,0.541491809128698
154,-0.030114173889160156,-0.07470846176147461,0.062441349029541016,0.05138835683465004,1.67218816280365,0.024129416793584824,0.27838897705078125,0.2335197411096015,-0.04486923594117975,-1.7289352416992188,-1.6099603128872904,0.1189749288119284,7.399269104003906,8.17144147967553,0.772172375671623,-0.0031121999491006136,-0.04149029843865493,-0.03837809848955431,0.8613000512123108,0.9091609977470345,0.047860946534723725,-0.6512399315834045,-0.07248183450932189,0.5787580970740827
155,-0.030114173889160156,-0.07509231567382812,0.062441349029541016,0.052155349403619766,1.672202467918396,0.024134159088134766,0.21977996826171875,0.2335197411096015,0.013739772847882747,-1.4358978271484375,-1.6068317360956827,-0.17093390894724525,7.399269104003906,8.1690588397327,0.7697897357287946,-0.007113599684089422,-0.041759827955154316,-0.034646228271064894,0.9417600631713867,0.909287174208375,-0.0324728889630117,-0.5977800488471985,-0.0724690611292349,0.5253109877179636
156,-0.030114173889160156,-0.07509231567382812,0.062441349029541016,0.05138835683465004,1.672202467918396,0.024134159088134766,0.24908447265625,0.2335197411096015,-0.015564731546648503,-1.6703262329101562,-1.6077302457601084,0.06259598715004788,7.428569793701172,8.1697306160444,0.7411608223432289,-0.00577980000525713,-0.041930337842429166,-0.036150537837172037,0.912060022354126,0.9090481923500172,-0.003011830004108762,-0.6188400983810425,-0.0724690611292349,0.5463710372518076
157,-0.030114173889160156,-0.07509231567382812,0.062441349029541016,0.052155349403619766,1.672202467918396,0.024134159088134766,0.16117095947265625,0.2335197411096015,0.07234878163694525,-1.7875442504882812,-1.6068317360956827,0.1807125143925985,7.545787811279297,8.1690588397327,0.623271028453404,-0.004534920211881399,-0.041759827955154316,-0.03722490774327292,0.9417600631713867,0.909287174208375,-0.0324728889630117,-0.5977800488471985,-0.0724690611292349,0.5253109877179636
158,-0.030114173889160156,-0.07509231567382812,0.062441349029541016,0.052155349403619766,1.672223687171936,0.024141259491443634,0.27838897705078125,0.2335197411096015,-0.04486923594117975,-1.5531158447265625,-1.6067891032595911,-0.05367325853302862,7.663002014160156,8.169141451193903,0.5061394370337471,-0.005868720356374979,-0.04173444998861786,-0.03586572963224288,0.9738900661468506,0.9092972881345383,-0.06459277801231234,-0.6714900732040405,-0.07244993638883912,0.5990401368152014
159,-0.03049755096435547,-0.07509231567382812,0.062441349029541016,0.05138835683465004,1.672223687171936,0.024141259491443634,0.1904754638671875,0.2327291981063766,0.0422537342391891,-1.4358978271484375,-1.6076876311984432,-0.17178980405000566,6.959705352783203,8.169813269852343,1.2101079170691396,-0.004623840097337961,-0.041904944441709446,-0.037281104344371485,0.9803701043128967,0.9090583113922432,-0.07131179292065348,-0.6002101302146912,-0.07244993638883912,0.527760193825852
160,-0.030114173889160156,-0.07509231567382812,0.062441349029541016,0.052155349403619766,1.672223687171936,0.024141259491443634,0.24908447265625,0.2335197411096015,-0.015564731546648503,-1.4945068359375,-1.6067891032595911,-0.11228226732209112,7.282051086425781,8.169141451193903,0.8870903647681221,-0.004534920211881399,-0.04173444998861786,-0.03719952977673646,0.9990000128746033,0.9092972881345383,-0.08970272474006502,-0.5443201065063477,-0.07244993638883912,0.47187017011750854
161,-0.03049755096435547,-0.07509231567382812,0.062441349029541016,0.05138835683465004,1.6722307205200195,0.02414361573755741,0.21977996826171875,0.2327291981063766,0.01294922984465785,-1.7289352416992188,-1.607673506035467,0.12126173566375176,7.369964599609375,8.169840666080873,0.7998760664714979,-0.005868720356374979,-0.041896527622165,-0.036027807265790024,1.0038599967956543,0.9090616654654382,-0.09479833133021609,-0.6496200561523438,-0.07244358996071654,0.5771764661916272
162,-0.03049755096435547,-0.07509231567382812,0.062441349029541016,0.05138835683465004,1.6722663640975952,0.02415071614086628,0.27838897705078125,0.2327291981063766,-0.04565977894440465,-1.611724853515625,-1.6076019217278619,0.004122931787763129,7.164836883544922,8.169979502617023,1.0051426190721013,-0.005601960234344006,-0.041853873613569625,-0.03625191337922562,1.0465199947357178,0.9090786632923122,-0.13744133144340553,-0.5734800100326538,-0.07242446555644566,0.5010555444762081
163,-0.030114173889160156,-0.07528400421142578,0.062441349029541016,0.052155349403619766,1.6722875833511353,0.02415781468153,0.21977996826171875,0.2335197411096015,0.013739772847882747,-1.7289352416992188,-1.60556104735454,0.12337419434467867,7.282051086425781,8.168507940002488,0.886456853576707,-0.005957639776170254,-0.04188622918741225,-0.035928589411241996,1.1153700351715088,0.9092680393601156,-0.2061019958113932,-0.5532300472259521,-0.07240534642134655,0.4808247008046056
164,-0.03049755096435547,-0.07528400421142578,0.0620579719543457,0.052155349403619766,1.6723018884658813,0.02416255697607994,0.21977996826171875,0.2327291981063766,0.01294922984465785,-1.5531158447265625,-1.6063858940386266,-0.05327004931206414,7.487178802490234,8.166798105796381,0.6796193033061471,-0.005957639776170254,-0.04232560314607858,-0.03636796336990833,1.1210399866104126,0.909155416909558,-0.21188456970085456,-0.6561000943183899,-0.07239257371540653,0.5837075206029834
165,-0.030114173889160156,-0.07509231567382812,0.0620579719543457,0.05138835683465004,1.6726287603378296,0.024271462112665176,0.21977996826171875,0.2335197411096015,0.013739772847882747,-1.4945068359375,-1.6077280715879425,-0.11322123565044251,7.1941375732421875,8.169625594260676,0.9754880210184886,-0.005868720356374979,-0.04187683063982517,-0.03600811028345019,1.155060052871704,0.9091320185411742,-0.2459280343305299,-0.5540400743484497,-0.07209928396769794,0.48194079038075177
166,-0.030114173889160156,-0.07509231567382812,0.0620579719543457,0.05138835683465004,1.6726640462875366,0.024278560653328896,0.1904754638671875,0.2335197411096015,0.043044277242414,-1.7875442504882812,-1.6076572049433207,0.1798870455449606,7.223442077636719,8.169763036458978,0.946320958822259,-0.005868720356374979,-0.04183460508233794,-0.03596588472596296,1.2449700832366943,0.9091488512920105,-0.33582123194468383,-0.5208297371864319,-0.07208016912340387,0.448749568063028
167,-0.03049755096435547,-0.07509231567382812,0.0620579719543457,0.052155349403619766,1.6726995706558228,0.024285634979605675,0.1904754638671875,0.2327291981063766,0.0422537342391891,-1.4358978271484375,-1.6066859264150017,-0.17078809926656424,7.516483306884766,8.169229408034017,0.6527461011492512,-0.005868720356374979,-0.0416216855804894,-0.03575296522411442,1.2860100269317627,0.9094047523241695,-0.3766052746075932,-0.5856300592422485,-0.07206111973422136,0.5135689395080272
168,-0.03049755096435547,-0.07509231567382812,0.0620579719543457,0.052155349403619766,1.672763466835022,0.024302244186401367,0.27838897705078125,0.2327291981063766,-0.04565977894440465,-1.6703262329101562,-1.6065575392036324,0.06376869370652383,7.223442077636719,8.169478148166066,0.9460360705293471,-0.007202519569545984,-0.04154527472407721,-0.034342755154531224,1.3535101413726807,0.9094352183158115,-0.44407492305686913,-0.5516102313995361,-0.07201639628407364,0.4795938351154625
169,-0.030114173889160156,-0.07528400421142578,0.0620579719543457,0.05138835683465004,1.6727991104125977,0.024304628372192383,0.24908447265625,0.2335197411096015,-0.015564731546648503,-1.5531158447265625,-1.6062875434863306,-0.05317169875976813,7.428569793701172,8.169406021638864,0.7408362279376917,-0.004357079975306988,-0.04190128791152059,-0.0375442079362136,1.3991401195526123,0.9091535401317583,-0.489986579420854,-0.5054399967193604,-0.07200997652345542,0.43343002019590493
170,-0.030114173889160156,-0.07528400421142578,0.0620579719543457,0.05138835683465004,1.6728202104568481,0.024302218109369278,0.21977996826171875,0.2335197411096015,0.013739772847882747,-1.4945068359375,-1.6062451678221823,-0.1117383318846823,7.399269104003906,8.169488209918905,0.7702191059149985,-0.005957639776170254,-0.041876037600712124,-0.03591839782454187,1.3994101285934448,0.9091636072319359,-0.4902465213615089,-0.5062500238418579,-0.07201646650036331,0.4342335573414946
171,-0.030114173889160156,-0.07509231567382812,0.0620579719543457,0.05138835683465004,1.6728202104568481,0.024302218109369278,0.24908447265625,0.2335197411096015,-0.015564731546648503,-1.4358978271484375,-1.6073435553644098,-0.17144572821597226,7.047618865966797,8.170371272172783,1.1227524062059864,-0.007202519569545984,-0.0416477426312587,-0.034445223061712715,1.446930170059204,0.9092233488857296,-0.5377068211734745,-0.5289300084114075,-0.07201646650036331,0.45691354191104416
172,-0.030114173889160156,-0.07509231567382812,0.0620579719543457,0.05138835683465004,1.6728700399398804,0.02431880123913288,0.24908447265625,0.2335197411096015,-0.015564731546648503,-1.5531158447265625,-1.6072434690469484,-0.05412762432038587,7.457874298095703,8.170565337088691,0.7126910389929879,-0.007202519569545984,-0.04158812268455203,-0.03438560311500605,1.4650201797485352,0.9092471203190131,-0.555773059429522,-0.47466006875038147,-0.07197181464323954,0.40268825410714193
173,-0.030114173889160156,-0.07509231567382812,0.0620579719543457,0.05138835683465004,1.6728700399398804,0.02431880123913288,0.24908447265625,0.2335197411096015,-0.015564731546648503,-1.4358978271484375,-1.6072434690469484,-0.17134564189851087,7.106227874755859,8.170565337088691,1.0643374623328317,-0.007202519569545984,-0.04158812268455203,-0.03438560311500605,1.4579999446868896,0.9092471203190131,-0.5487528243678765,-0.5686198472976685,-0.07197181464323954,0.4966480326544289
174,-0.030114173889160156,-0.07509231567382812,0.0620579719543457,0.05138835683465004,1.6728700399398804,0.02431880123913288,0.21977996826171875,0.2335197411096015,0.013739772847882747,-1.377288818359375,-1.6072434690469484,-0.22995465068757337,6.75457763671875,8.170565337088691,1.415987700369941,-0.005868720356374979,-0.04158812268455203,-0.03571940232817705,1.4696099758148193,0.9092471203190131,-0.5603628554958062,-0.48680979013442993,-0.07197181464323954,0.4148379754911904
175,-0.030114173889160156,-0.07509231567382812,0.0620579719543457,0.052155349403619766,1.6728912591934204,0.0243258997797966,0.21977996826171875,0.2335197411096015,0.013739772847882747,-1.377288818359375,-1.606300751042089,-0.22901193268271403,7.340660095214844,8.1699755965338,0.8293155013189555,-0.006046559661626816,-0.04139246463501034,-0.035345904973383524,1.4966100454330444,0.9094961513590286,-0.5871138940740158,-0.4527897238731384,-0.07195270148125488,0.38083702239188355
176,-0.030114173889160156,-0.07509231567382812,0.0620579719543457,0.05138835683465004,1.6729055643081665,0.024330642074346542,0.27838897705078125,0.2335197411096015,-0.04486923594117975,-1.377288818359375,-1.6071721139409187,-0.22988329558154375,7.3113555908203125,8.170703685644487,0.8593480948241741,-0.007202519569545984,-0.04154561994955697,-0.03434310038001098,1.4879698753356934,0.9092640675488844,-0.5787058077868089,-0.4787098169326782,-0.0719399327657646,0.4067698841669136
177,-0.030114173889160156,-0.07509231567382812,0.0620579719543457,0.05138835683465004,1.6754125356674194,0.02516627311706543,0.3076934814453125,0.2335197411096015,-0.074173740335711,-1.4358978271484375,-1.6021329768762937,-0.16623514972785625,7.369964599609375,8.180458706562153,0.8104941069527776,-0.007202519569545984,-0.03854920716020538,-0.031346687590659394,1.4183100461959839,0.9104603166431512,-0.5078497295528327,-0.8043298721313477,-0.0696917388883378,0.7346381332430099
178,-0.03049755096435547,-0.07509231567382812,0.0620579719543457,0.05138835683465004,1.6754125356674194,0.02516627311706543,0.1904754638671875,0.2327291981063766,0.0422537342391891,-1.377288818359375,-1.6021329768762937,-0.22484415851691875,7.897434234619141,8.180458706562153,0.28302447194301195,-0.007291440386325121,-0.03854920716020538,-0.03125776677388026,1.429380178451538,0.9104603166431512,-0.5189198618083869,-0.8909999132156372,-0.0696917388883378,0.8213081743272994
179,-0.03049755096435547,-0.07528400421142578,0.0620579719543457,0.052155349403619766,1.6754125356674194,0.02516627311706543,0.27838897705078125,0.2327291981063766,-0.04565977894440465,-1.5531158447265625,-1.6001323864913561,-0.04701654176479364,7.135532379150391,8.178899905187144,1.0433675260367536,-0.008714159950613976,-0.038608466148660536,-0.02989430619804656,1.41264009475708,0.9106390770818518,-0.5020010176752283,-0.8942399024963379,-0.0696917388883378,0.8245481636080001
180,-0.03049755096435547,-0.07509231567382812,0.0620579719543457,0.05138835683465004,1.6754125356674194,0.02516627311706543,0.16117095947265625,0.2327291981063766,0.07155823863372035,-1.4358978271484375,-1.6021329768762937,-0.16623514972785625,7.1941375732421875,8.180458706562153,0.9863211333199651,-0.004623840097337961,-0.03854920716020538,-0.03392536706286742,1.4404500722885132,0.9104603166431512,-0.529989755645362,-0.8577899932861328,-0.0696917388883378,0.788098254397795
181,-0.03049755096435547,-0.07509231567382812,0.0620579719543457,0.05138835683465004,1.6754125356674194,0.02516627311706543,0.24908447265625,0.2327291981063766,-0.0163552745498734,-1.4358978271484375,-1.6021329768762937,-0.16623514972785625,7.282051086425781,8.180458706562153,0.8984076201363713,-0.007291440386325121,-0.03854920716020538,-0.03125776677388026,1.41156005859375,0.9104603166431512,-0.5010997419505988,-0.8245798349380493,-0.0696917388883378,0.7548880960497115
182,-0.030114173889160156,-0.07509231567382812,0.0620579719543457,0.05138835683465004,1.6754125356674194,0.02516627311706543,0.24908447265625,0.2335197411096015,-0.015564731546648503,-1.2014617919921875,-1.6021329768762937,-0.40067118488410625,7.369964599609375,8.180458706562153,0.8104941069527776,-0.007469280157238245,-0.03854920716020538,-0.031079927002967134,1.4315400123596191,0.9104603166431512,-0.521079695716468,-0.8845199942588806,-0.0696917388883378,0.8148282553705428
183,-0.03049755096435547,-0.07509231567382812,0.0620579719543457,0.05138835683465004,1.6754125356674194,0.02516627311706543,0.24908447265625,0.2327291981063766,-0.0163552745498734,-1.2014617919921875,-1.6021329768762937,-0.40067118488410625,7.428569793701172,8.180458706562153,0.7518889128609807,-0.007202519569545984,-0.03854920716020538,-0.031346687590659394,1.4315400123596191,0.9104603166431512,-0.521079695716468,-0.8845199942588806,-0.0696917388883378,0.8148282553705428
184,-0.030114173889160156,-0.07509231567382812,0.0620579719543457,0.05138835683465004,1.6754125356674194,0.02516627311706543,0.27838897705078125,0.2335197411096015,-0.04486923594117975,-1.2014617919921875,-1.6021329768762937,-0.40067118488410625,7.3113555908203125,8.180458706562153,0.8691031157418401,-0.007291440386325121,-0.03854920716020538,-0.03125776677388026,1.420470118522644,0.9104603166431512,-0.5100098018794929,-0.9177298545837402,-0.0696917388883378,0.8480381156954024
185,-0.03049755096435547,-0.07509231567382812,0.0620579719543457,0.05138835683465004,1.6754125356674194,0.02516627311706543,0.21977996826171875,0.2327291981063766,0.01294922984465785,-1.377288818359375,-1.6021329768762937,-0.22484415851691875,7.457874298095703,8.180458706562153,0.7225844084664494,-0.007202519569545984,-0.03854920716020538,-0.031346687590659394,1.4023799896240234,0.9104603166431512,-0.49191967298087225,-0.9720001220703125,-0.0696917388883378,0.9023083831819747
186,-0.030114173889160156,-0.07509231567382812,0.0620579719543457,0.05138835683465004,1.6754125356674194,0.02516627311706543,0.21977996826171875,0.2335197411096015,0.013739772847882747,-1.2014617919921875,-1.6021329768762937,-0.40067118488410625,7.369964599609375,8.180458706562153,0.8104941069527776,-0.007291440386325121,-0.03854920716020538,-0.03125776677388026,1.4223600625991821,0.9104603166431512,-0.5118997459560309,-0.9120599627494812,-0.0696917388883378,0.8423682238611434
187,-0.030114173889160156,-0.07528400421142578,0.0620579719543457,0.05138835683465004,1.6754125356674194,0.02516627311706543,0.27838897705078125,0.2335197411096015,-0.04486923594117975,-1.4358978271484375,-1.6010351462614212,-0.16513731911298368,7.047618865966797,8.179576939278663,1.131958073311866,-0.008625240065157413,-0.03877703026503698,-0.03015179019987957,1.430190086364746,0.9104007313572509,-0.5197893550074952,-0.9355499744415283,-0.0696917388883378,0.8658582355531905
188,-0.03049755096435547,-0.07509231567382812,0.0620579719543457,0.05138835683465004,1.675440788269043,0.025156816467642784,0.24908447265625,0.2327291981063766,-0.0163552745498734,-1.26007080078125,-1.6020761476450134,-0.3420053468637634,7.25274658203125,8.180568548482254,0.9278219664510043,-0.007291440386325121,-0.038515472774044435,-0.031224032387719314,1.4345101118087769,0.9104738009866814,-0.5240363108220955,-0.9485101103782654,-0.06971716163223984,0.8787929487460255
189,-0.030114173889160156,-0.07509231567382812,0.0620579719543457,0.05138835683465004,1.675440788269043,0.025156816467642784,0.27838897705078125,0.2335197411096015,-0.04486923594117975,-1.2014617919921875,-1.6020761476450134,-0.4006143556528259,7.282051086425781,8.180568548482254,0.8985174620564731,-0.007202519569545984,-0.038515472774044435,-0.03131295320449845,1.4069700241088867,0.9104738009866814,-0.4964962231222053,-0.9857699871063232,-0.06971716163223984,0.9160528254740834
190,-0.030114173889160156,-0.07509231567382812,0.0620579719543457,0.05138835683465004,1.675440788269043,0.025156816467642784,0.24908447265625,0.2335197411096015,-0.015564731546648503,-1.26007080078125,-1.6020761476450134,-0.3420053468637634,7.106227874755859,8.180568548482254,1.074340673726395,-0.008625240065157413,-0.038515472774044435,-0.02989023270888702,1.4237101078033447,0.9104738009866814,-0.5132363068166633,-0.9809102416038513,-0.06971716163223984,0.9111930799716115
191,-0.030114173889160156,-0.07509231567382812,0.0620579719543457,0.05138835683465004,1.675440788269043,0.025156816467642784,0.24908447265625,0.2335197411096015,-0.015564731546648503,-1.2014617919921875,-1.6020761476450134,-0.4006143556528259,7.457874298095703,8.180568548482254,0.7226942503865512,-0.008625240065157413,-0.038515472774044435,-0.02989023270888702,1.4269499778747559,0.9104738009866814,-0.5164761768880745,-1.0457100868225098,-0.06971716163223984,0.9759929251902699
192,-0.030114173889160156,-0.07509231567382812,0.0620579719543457,0.05138835683465004,1.675440788269043,0.025156816467642784,0.24908447265625,0.2335197411096015,-0.015564731546648503,-1.1428604125976562,-1.6020761476450134,-0.45921573504735713,7.633701324462891,8.180568548482254,0.5468672240193637,-0.008714159950613976,-0.038515472774044435,-0.02980131282343046,1.3821300268173218,0.9104738009866814,-0.4716562258306404,-1.0311299562454224,-0.06971716163223984,0.9614127946131825
193,-0.030114173889160156,-0.07509231567382812,0.0620579719543457,0.05138835683465004,1.6754337549209595,0.025154458358883858,0.3076934814453125,0.2335197411096015,-0.074173740335711,-1.3186798095703125,-1.6020902950898082,-0.28341048551949566,7.223442077636719,8.180541204064106,0.9570991264273871,-0.008714159950613976,-0.038523870714804564,-0.02980971076419059,1.4431500434875488,0.9104704441184087,-0.5326795993691401,-1.0408499240875244,-0.06972350111382486,0.9711264229736996
194,-0.03049755096435547,-0.07509231567382812,0.0620579719543457,0.05138835683465004,1.675440788269043,0.025156816467642784,0.3076934814453125,0.2327291981063766,-0.0749642833389359,-1.0842514038085938,-1.6020761476450134,-0.5178247438364196,7.223442077636719,8.180568548482254,0.9571264708455356,-0.010136879980564117,-0.038515472774044435,-0.028378592793480317,1.4231700897216797,0.9104738009866814,-0.5126962887349983,-1.100790023803711,-0.06971716163223984,1.031072862171471
195,-0.030114173889160156,-0.07509231567382812,0.0620579719543457,0.05138835683465004,1.6754337549209595,0.025154458358883858,0.3076934814453125,0.2335197411096015,-0.074173740335711,-1.2014617919921875,-1.6020902950898082,-0.40062850309762066,7.223442077636719,8.180541204064106,0.9570991264273871,-0.010047960095107555,-0.038523870714804564,-0.02847591061969701,1.421820044517517,0.9104704441184087,-0.5113496003991084,-1.030320167541504,-0.06972350111382486,0.960596666427679
196,-0.03049755096435547,-0.07509231567382812,0.0620579719543457,0.05138835683465004,1.6754337549209595,0.025154458358883858,0.3076934814453125,0.2327291981063766,-0.0749642833389359,-1.2014617919921875,-1.6020902950898082,-0.40062850309762066,7.340660095214844,8.180541204064106,0.8398811088492621,-0.010047960095107555,-0.038523870714804564,-0.02847591061969701,1.4269499778747559,0.9104704441184087,-0.5164795337563471,-1.0457100868225098,-0.06972350111382486,0.9759865857086849
197,-0.030114173889160156,-0.07509231567382812,0.0620579719543457,0.05138835683465004,1.6754337549209595,0.025154458358883858,0.27838897705078125,0.2335197411096015,-0.04486923594117975,-1.1428604125976562,-1.6020902950898082,-0.4592298824921519,7.135532379150391,8.180541204064106,1.0450088249137153,-0.007291440386325121,-0.038523870714804564,-0.031232430328479444,1.3910400867462158,0.9104704441184087,-0.4805696426278071,-1.0044000148773193,-0.06972350111382486,0.9346765137634945
198,-0.03049755096435547,-0.07509231567382812,0.0620579719543457,0.05138835683465004,1.6754337549209595,0.025154458358883858,0.24908447265625,0.2327291981063766,-0.0163552745498734,-1.1428604125976562,-1.6020902950898082,-0.4592298824921519,7.1941375732421875,8.180541204064106,0.9864036308219184,-0.008625240065157413,-0.038523870714804564,-0.02989863064964715,1.4145300388336182,0.9104704441184087,-0.5040595947152094,-1.0084502696990967,-0.06972350111382486,0.9387267685852718
199,-0.030114173889160156,-0.07509231567382812,0.0620579719543457,0.05138835683465004,1.6754337549209595,0.025154458358883858,0.27838897705078125,0.2335197411096015,-0.04486923594117975,-1.1428604125976562,-1.6020902950898082,-0.4592298824921519,7.457874298095703,8.180541204064106,0.7226669059684028,-0.008714159950613976,-0.038523870714804564,-0.02980971076419059,1.4083201885223389,0.9104704441184087,-0.49784974440393015,-1.0562400817871094,-0.06972350111382486,0.9865165806732845
200,-0.03049755096435547,-0.07509231567382812,0.0620579719543457,0.05138835683465004,1.6754337549209595,0.025154458358883858,0.27838897705078125,0.2327291981063766,-0.04565977894440465,-1.2014617919921875,-1.6020902950898082,-0.40062850309762066,7.018314361572266,8.180541204064106,1.1622268424918403,-0.008714159950613976,-0.038523870714804564,-0.02980971076419059,1.419390082359314,0.9104704441184087,-0.5089196382409052,-1.023030161857605,-0.06972350111382486,0.9533066607437801
201,-0.03049755096435547,-0.07509231567382812,0.0620579719543457,0.05138835683465004,1.6754337549209595,0.025154458358883858,0.24908447265625,0.2327291981063766,-0.0163552745498734,-1.0256423950195312,-1.6020902950898082,-0.5764479000702769,7.047618865966797,8.180541204064106,1.132922338097309,-0.009959040209650993,-0.038523870714804564,-0.02856483050515357,1.4145300388336182,0.9104704441184087,-0.5040595947152094,-1.0084502696990967,-0.06972350111382486,0.9387267685852718
202,-0.03049755096435547,-0.07509231567382812,0.0620579719543457,0.05138835683465004,1.6754337549209595,0.025154458358883858,0.24908447265625,0.2327291981063766,-0.0163552745498734,-1.26007080078125,-1.6020902950898082,-0.34201949430855816,7.340660095214844,8.180541204064106,0.8398811088492621,-0.010047960095107555,-0.038523870714804564,-0.02847591061969701,1.4069700241088867,0.9104704441184087,-0.496499579990478,-1.1056499481201172,-0.06972350111382486,1.0359264470062923
203,-0.03049755096435547,-0.07509231567382812,0.0620579719543457,0.05138835683465004,1.6754337549209595,0.025154458358883858,0.24908447265625,0.2327291981063766,-0.0163552745498734,-1.377288818359375,-1.6020902950898082,-0.22480147673043316,7.018314361572266,8.180541204064106,1.1622268424918403,-0.008714159950613976,-0.038523870714804564,-0.02980971076419059,1.394550085067749,0.9104704441184087,-0.4840796409493403,-1.068390130996704,-0.06972350111382486,0.9986666298828792
204,-0.03049755096435547,-0.07509231567382812,0.0620579719543457,0.05138835683465004,1.6754337549209595,0.025154458358883858,0.21977996826171875,0.2327291981063766,0.01294922984465785,-1.1428604125976562,-1.6020902950898082,-0.4592298824921519,7.780220031738281,8.180541204064106,0.40032117232582465,-0.008803078904747963,-0.038523870714804564,-0.0297207918100566,1.395900011062622,0.9104704441184087,-0.48542956694421335,-1.1388599872589111,-0.06972350111382486,1.0691364861450863
205,-0.030114173889160156,-0.07509231567382812,0.0620579719543457,0.05138835683465004,1.6754337549209595,0.025154458358883858,0.3076934814453125,0.2335197411096015,-0.074173740335711,-1.0842514038085938,-1.6020902950898082,-0.5178388912812144,7.3113555908203125,8.180541204064106,0.8691856132437934,-0.012804481200873852,-0.038523870714804564,-0.025719389513930713,1.394550085067749,0.9104704441184087,-0.4840796409493403,-1.068390130996704,-0.06972350111382486,0.9986666298828792
206,-0.030114173889160156,-0.07509231567382812,0.0620579719543457,0.05138835683465004,1.6754337549209595,0.025154458358883858,0.24908447265625,0.2335197411096015,-0.015564731546648503,-1.2014617919921875,-1.6020902950898082,-0.40062850309762066,7.340660095214844,8.180541204064106,0.8398811088492621,-0.011470680125057697,-0.038523870714804564,-0.027053190589746867,1.394279956817627,0.9104704441184087,-0.48380951269921824,-1.1874600648880005,-0.06972350111382486,1.1177365637741756
