yagami-light7/gravity_identification/results/trig_fit/mc02_capture_cleaned/20260425_221111/data/fit_predictions.csv
sample_id,theta1,theta2,theta3,theta4,theta5,theta6,tau_meas2,tau_pred2,err2,tau_meas3,tau_pred3,err3
0,0.2008209228515625,-0.10002660751342773,0.1111598014831543,0.0728640928864479,1.6506060361862183,0.24460363388061523,-1.5531158447265625,-1.7059614003255024,-0.15284555559893986,8.600730895996094,10.39933946549796,1.7986085695018659
1,0.2008209228515625,-0.10002660751342773,0.1111598014831543,0.0728640928864479,1.6506060361862183,0.24460363388061523,-1.7289352416992188,-1.7059614003255024,0.022973841373716386,8.600730895996094,10.39933946549796,1.7986085695018659
2,0.2008209228515625,-0.10002660751342773,0.1111598014831543,0.0728640928864479,1.6506060361862183,0.24460363388061523,-1.5531158447265625,-1.7059614003255024,-0.15284555559893986,8.717948913574219,10.39933946549796,1.6813905519237409
3,0.2008209228515625,-0.10002660751342773,0.1111598014831543,0.0728640928864479,1.6506060361862183,0.24460363388061523,-1.7289352416992188,-1.7059614003255024,0.022973841373716386,8.688644409179688,10.39933946549796,1.7106950563182721
4,0.2008209228515625,-0.10002660751342773,0.1111598014831543,0.0728640928864479,1.6506060361862183,0.24460363388061523,-1.611724853515625,-1.7059614003255024,-0.09423654680987736,8.600730895996094,10.39933946549796,1.7986085695018659
5,0.2008209228515625,-0.10002660751342773,0.1111598014831543,0.0728640928864479,1.6506060361862183,0.24460363388061523,-1.6703262329101562,-1.7059614003255024,-0.035635167415346114,8.512821197509766,10.39933946549796,1.886518267988194
6,0.2008209228515625,-0.10002660751342773,0.1111598014831543,0.0728640928864479,1.6506060361862183,0.24460363388061523,-1.6703262329101562,-1.7059614003255024,-0.035635167415346114,8.600730895996094,10.39933946549796,1.7986085695018659
7,0.2012042999267578,-0.10002660751342773,0.1111598014831543,0.0728640928864479,1.6506060361862183,0.24460363388061523,-1.611724853515625,-1.7059614003255024,-0.09423654680987736,8.659339904785156,10.39933946549796,1.7399995607128034
8,0.2008209228515625,-0.10002660751342773,0.1111598014831543,0.0728640928864479,1.6506060361862183,0.24460363388061523,-1.5531158447265625,-1.7059614003255024,-0.15284555559893986,8.571430206298828,10.39933946549796,1.8279092591991315
9,0.2012042999267578,-0.10002660751342773,0.1111598014831543,0.0728640928864479,1.6506060361862183,0.24460363388061523,-1.611724853515625,-1.7059614003255024,-0.09423654680987736,8.688644409179688,10.39933946549796,1.7106950563182721
10,0.2008209228515625,-0.10002660751342773,0.1111598014831543,0.0728640928864479,1.6506060361862183,0.24460363388061523,-1.6703262329101562,-1.7059614003255024,-0.035635167415346114,8.659339904785156,10.39933946549796,1.7399995607128034
11,0.2008209228515625,-0.10002660751342773,0.1111598014831543,0.0728640928864479,1.6506060361862183,0.24460363388061523,-1.6703262329101562,-1.7059614003255024,-0.035635167415346114,8.571430206298828,10.39933946549796,1.8279092591991315
12,0.2008209228515625,-0.10002660751342773,0.1111598014831543,0.0728640928864479,1.6506060361862183,0.24460363388061523,-1.5531158447265625,-1.7059614003255024,-0.15284555559893986,8.630035400390625,10.39933946549796,1.7693040651073346
13,0.2008209228515625,-0.10002660751342773,0.1111598014831543,0.0728640928864479,1.6506060361862183,0.24460363388061523,-1.6703262329101562,-1.7059614003255024,-0.035635167415346114,8.600730895996094,10.39933946549796,1.7986085695018659
14,0.2008209228515625,-0.10002660751342773,0.1111598014831543,0.0728640928864479,1.6506060361862183,0.24460363388061523,-1.7289352416992188,-1.7059614003255024,0.022973841373716386,8.571430206298828,10.39933946549796,1.8279092591991315
15,0.2008209228515625,-0.10002660751342773,0.1111598014831543,0.0728640928864479,1.6506060361862183,0.24460363388061523,-1.7289352416992188,-1.7059614003255024,0.022973841373716386,8.630035400390625,10.39933946549796,1.7693040651073346
16,0.2008209228515625,-0.10002660751342773,0.1111598014831543,0.0728640928864479,1.6506060361862183,0.24460363388061523,-1.5531158447265625,-1.7059614003255024,-0.15284555559893986,8.600730895996094,10.39933946549796,1.7986085695018659
17,0.2012042999267578,-0.10002660751342773,0.1111598014831543,0.0728640928864479,1.6506060361862183,0.24460363388061523,-1.7875442504882812,-1.7059614003255024,0.08158285016277889,8.630035400390625,10.39933946549796,1.7693040651073346
18,0.2008209228515625,-0.10002660751342773,0.1111598014831543,0.0728640928864479,1.6506060361862183,0.24460363388061523,-1.5531158447265625,-1.7059614003255024,-0.15284555559893986,8.600730895996094,10.39933946549796,1.7986085695018659
19,0.2008209228515625,-0.10002660751342773,0.1111598014831543,0.0728640928864479,1.6506060361862183,0.24460363388061523,-1.6703262329101562,-1.7059614003255024,-0.035635167415346114,8.630035400390625,10.39933946549796,1.7693040651073346
20,0.2008209228515625,-0.10002660751342773,0.1111598014831543,0.0728640928864479,1.6506060361862183,0.24460363388061523,-1.6703262329101562,-1.7059614003255024,-0.035635167415346114,8.571430206298828,10.39933946549796,1.8279092591991315
21,0.2008209228515625,-0.10002660751342773,0.1111598014831543,0.0728640928864479,1.6506060361862183,0.24460363388061523,-1.611724853515625,-1.7059614003255024,-0.09423654680987736,8.600730895996094,10.39933946549796,1.7986085695018659
22,0.2012042999267578,-0.10002660751342773,0.1111598014831543,0.0728640928864479,1.6506060361862183,0.24460363388061523,-1.611724853515625,-1.7059614003255024,-0.09423654680987736,8.659339904785156,10.39933946549796,1.7399995607128034
23,0.2008209228515625,-0.10002660751342773,0.1111598014831543,0.0728640928864479,1.6506060361862183,0.24460363388061523,-1.611724853515625,-1.7059614003255024,-0.09423654680987736,8.630035400390625,10.39933946549796,1.7693040651073346
24,0.2008209228515625,-0.10002660751342773,0.1111598014831543,0.0728640928864479,1.6506060361862183,0.24460363388061523,-1.5531158447265625,-1.7059614003255024,-0.15284555559893986,8.571430206298828,10.39933946549796,1.8279092591991315
25,0.2008209228515625,-0.10002660751342773,0.1111598014831543,0.0728640928864479,1.6506060361862183,0.24460363388061523,-1.6703262329101562,-1.7059614003255024,-0.035635167415346114,8.571430206298828,10.39933946549796,1.8279092591991315
26,0.2012042999267578,-0.10002660751342773,0.1111598014831543,0.0728640928864479,1.6506060361862183,0.24460363388061523,-1.611724853515625,-1.7059614003255024,-0.09423654680987736,8.630035400390625,10.39933946549796,1.7693040651073346
27,0.2008209228515625,-0.10002660751342773,0.1111598014831543,0.0728640928864479,1.6506060361862183,0.24460363388061523,-1.5531158447265625,-1.7059614003255024,-0.15284555559893986,8.600730895996094,10.39933946549796,1.7986085695018659
28,0.2008209228515625,-0.10002660751342773,0.1111598014831543,0.0728640928864479,1.6506060361862183,0.24460363388061523,-1.6703262329101562,-1.7059614003255024,-0.035635167415346114,8.571430206298828,10.39933946549796,1.8279092591991315
29,0.2008209228515625,-0.10002660751342773,0.1111598014831543,0.0728640928864479,1.6506060361862183,0.24460363388061523,-1.6703262329101562,-1.7059614003255024,-0.035635167415346114,8.630035400390625,10.39933946549796,1.7693040651073346
30,0.2012042999267578,-0.10002660751342773,0.1111598014831543,0.0728640928864479,1.6506060361862183,0.24460363388061523,-1.7289352416992188,-1.7059614003255024,0.022973841373716386,8.542125701904297,10.39933946549796,1.8572137635936627
31,0.2008209228515625,-0.10002660751342773,0.1111598014831543,0.0728640928864479,1.6506060361862183,0.24460363388061523,-1.5531158447265625,-1.7059614003255024,-0.15284555559893986,8.571430206298828,10.39933946549796,1.8279092591991315
32,0.2008209228515625,-0.10002660751342773,0.1111598014831543,0.0728640928864479,1.6506060361862183,0.24460363388061523,-1.5531158447265625,-1.7059614003255024,-0.15284555559893986,8.688644409179688,10.39933946549796,1.7106950563182721
33,0.004795074462890625,-0.6771707534790039,0.14606904983520508,0.08743690699338913,2.2833518981933594,-0.049444861710071564,2.6080551147460938,2.139576076225209,-0.46847903852088457,8.39560317993164,7.55222467343599,-0.8433785064956503
34,0.004795074462890625,-0.6771707534790039,0.1464533805847168,0.08820389956235886,2.2833518981933594,-0.049444861710071564,2.4322357177734375,2.137173069096115,-0.2950626486773227,7.428569793701172,7.552184707385343,0.12361491368417088
35,0.0051784515380859375,-0.6771707534790039,0.1464533805847168,0.08820389956235886,2.2833518981933594,-0.049444861710071564,2.3150177001953125,2.137173069096115,-0.17784463109919768,8.073261260986328,7.552184707385343,-0.5210765536009854
36,0.004795074462890625,-0.6771707534790039,0.1464533805847168,0.08820389956235886,2.2833518981933594,-0.049444861710071564,2.4908447265625,2.137173069096115,-0.3536716574663852,7.956043243408203,7.552184707385343,-0.40385853602286037
37,0.0051784515380859375,-0.6771707534790039,0.1464533805847168,0.08820389956235886,2.2833445072174072,-0.04944724589586258,2.4322357177734375,2.137234499994278,-0.29500121777915966,7.6923065185546875,7.552218994886035,-0.14008752366865274
38,0.0051784515380859375,-0.6771707534790039,0.1464533805847168,0.08743690699338913,2.2833445072174072,-0.04944724589586258,2.7252731323242188,2.1373327999637444,-0.5879403323604744,8.161170959472656,7.5518508252586605,-0.6093201342139958
39,0.004795074462890625,-0.6771707534790039,0.14606904983520508,0.08820389956235886,2.2833445072174072,-0.04944724589586258,2.25640869140625,2.139538092682339,-0.11687059872391092,8.014652252197266,7.55262663771364,-0.46202561448362545
40,0.0051784515380859375,-0.6771707534790039,0.1464533805847168,0.08743690699338913,2.2833445072174072,-0.04944724589586258,2.0805892944335938,2.1373327999637444,0.05674350553015062,7.926738739013672,7.5518508252586605,-0.3748879137550114
41,0.0051784515380859375,-0.6771707534790039,0.1464533805847168,0.08820389956235886,2.2833445072174072,-0.04944724589586258,2.4908447265625,2.137234499994278,-0.35361022656822216,7.663002014160156,7.552218994886035,-0.11078301927412149
42,0.0051784515380859375,-0.6771707534790039,0.1464533805847168,0.08743690699338913,2.2833445072174072,-0.04944724589586258,2.4322357177734375,2.1373327999637444,-0.29490291780969313,7.487178802490234,7.5518508252586605,0.0646720227684261
43,0.0051784515380859375,-0.6771707534790039,0.1464533805847168,0.08743690699338913,2.2833445072174072,-0.04944724589586258,2.4322357177734375,2.1373327999637444,-0.29490291780969313,7.633701324462891,7.5518508252586605,-0.08185049920423015
44,0.0051784515380859375,-0.6771707534790039,0.14606904983520508,0.08743690699338913,2.2833445072174072,-0.04944724589586258,2.373626708984375,2.139637505308878,-0.23398920367549714,7.985347747802734,7.552258938701213,-0.4330888091015215
45,0.0051784515380859375,-0.6771707534790039,0.14606904983520508,0.08743690699338913,2.2833445072174072,-0.04944724589586258,2.5494537353515625,2.139637505308878,-0.40981623004268464,7.369964599609375,7.552258938701213,0.1822943390918379
46,0.0051784515380859375,-0.6771707534790039,0.1464533805847168,0.08820389956235886,2.2833445072174072,-0.04944724589586258,2.0805892944335938,2.137234499994278,0.056645205560684087,7.838829040527344,7.552218994886035,-0.286610045641309
47,0.0051784515380859375,-0.6771707534790039,0.1464533805847168,0.08743690699338913,2.2833445072174072,-0.04944724589586258,2.4322357177734375,2.1373327999637444,-0.29490291780969313,7.721611022949219,7.5518508252586605,-0.16976019769055828
48,0.0051784515380859375,-0.6771707534790039,0.1464533805847168,0.08820389956235886,2.2833445072174072,-0.04944724589586258,2.373626708984375,2.137234499994278,-0.23639220899009716,8.014652252197266,7.552218994886035,-0.46243325731123086
49,0.0051784515380859375,-0.6771707534790039,0.1464533805847168,0.08820389956235886,2.2833445072174072,-0.04944724589586258,2.4908447265625,2.137234499994278,-0.35361022656822216,7.487178802490234,7.552218994886035,0.06504019239580039
50,0.0051784515380859375,-0.6771707534790039,0.1464533805847168,0.08820389956235886,2.2833445072174072,-0.04944724589586258,2.373626708984375,2.137234499994278,-0.23639220899009716,7.75091552734375,7.552218994886035,-0.19869653245771524
51,0.0051784515380859375,-0.6771707534790039,0.1464533805847168,0.08743690699338913,2.2833445072174072,-0.04944724589586258,2.3150177001953125,2.1373327999637444,-0.17768490023156813,7.926738739013672,7.5518508252586605,-0.3748879137550114
52,0.0051784515380859375,-0.6771707534790039,0.1464533805847168,0.08820389956235886,2.2833375930786133,-0.049449604004621506,2.373626708984375,2.137291967598378,-0.23633474138599686,7.633701324462891,7.552251070160815,-0.08145025430207564
53,0.0051784515380859375,-0.6771707534790039,0.1464533805847168,0.08743690699338913,2.2833375930786133,-0.049449604004621506,2.3150177001953125,2.1373902664451996,-0.17762743375011292,8.10256576538086,7.551882886680759,-0.5506828787001004
54,0.0051784515380859375,-0.6771707534790039,0.1464533805847168,0.08820389956235886,2.2833445072174072,-0.04944724589586258,2.4322357177734375,2.137234499994278,-0.29500121777915966,8.190475463867188,7.552218994886035,-0.6382564689811527
55,0.0051784515380859375,-0.6771707534790039,0.1464533805847168,0.08743690699338913,2.2833445072174072,-0.04944724589586258,2.3150177001953125,2.1373327999637444,-0.17768490023156813,7.223442077636719,7.5518508252586605,0.3284087476219417
56,0.0051784515380859375,-0.6771707534790039,0.1464533805847168,0.08820389956235886,2.2833445072174072,-0.04944724589586258,2.4322357177734375,2.137234499994278,-0.29500121777915966,7.6923065185546875,7.552218994886035,-0.14008752366865274
57,0.0051784515380859375,-0.6771707534790039,0.1464533805847168,0.08820389956235886,2.2833445072174072,-0.04944724589586258,2.373626708984375,2.137234499994278,-0.23639220899009716,7.457874298095703,7.552218994886035,0.09434469679033164
58,0.004795074462890625,-0.6771707534790039,0.1464533805847168,0.08820389956235886,2.2833445072174072,-0.04944724589586258,2.5494537353515625,2.137234499994278,-0.41221923535728466,7.75091552734375,7.552218994886035,-0.19869653245771524
59,0.0051784515380859375,-0.6771707534790039,0.14606904983520508,0.08743690699338913,2.2833445072174072,-0.04944724589586258,2.25640869140625,2.139637505308878,-0.11677118609737214,7.282051086425781,7.552258938701213,0.27020785227543165
60,0.0051784515380859375,-0.6771707534790039,0.14606904983520508,0.08820389956235886,2.2833445072174072,-0.04944724589586258,2.3150177001953125,2.139538092682339,-0.17547960751297342,7.780220031738281,7.55262663771364,-0.22759339402464107
61,0.0051784515380859375,-0.6771707534790039,0.1464533805847168,0.08820389956235886,2.2833445072174072,-0.04944724589586258,2.5494537353515625,2.137234499994278,-0.41221923535728466,7.663002014160156,7.552218994886035,-0.11078301927412149
62,0.0051784515380859375,-0.6771707534790039,0.1464533805847168,0.08820389956235886,2.2833445072174072,-0.04944724589586258,2.1977996826171875,2.137234499994278,-0.060565182622909663,7.3113555908203125,7.552218994886035,0.24086340406572226
63,0.004795074462890625,-0.6771707534790039,0.1464533805847168,0.08743690699338913,2.2833445072174072,-0.04944724589586258,2.6080551147460938,2.1373327999637444,-0.4707223147823494,7.8095245361328125,7.5518508252586605,-0.25767371087415203
64,0.0051784515380859375,-0.6771707534790039,0.1464533805847168,0.08820389956235886,2.2833445072174072,-0.04944724589586258,2.4322357177734375,2.137234499994278,-0.29500121777915966,7.575092315673828,7.552218994886035,-0.02287332078779336
65,0.0051784515380859375,-0.6771707534790039,0.1464533805847168,0.08743690699338913,2.2833445072174072,-0.04944724589586258,2.3150177001953125,2.1373327999637444,-0.17768490023156813,7.633701324462891,7.5518508252586605,-0.08185049920423015
66,0.0051784515380859375,-0.6771707534790039,0.1464533805847168,0.08820389956235886,2.2833445072174072,-0.04944724589586258,2.1977996826171875,2.137234499994278,-0.060565182622909663,8.073261260986328,7.552218994886035,-0.5210422661002934
67,0.004795074462890625,-0.6771707534790039,0.1464533805847168,0.08743690699338913,2.2833445072174072,-0.04944724589586258,2.373626708984375,2.1373327999637444,-0.23629390902063063,7.457874298095703,7.5518508252586605,0.09397652716295735
68,0.004795074462890625,-0.6771707534790039,0.1464533805847168,0.08743690699338913,2.2833445072174072,-0.04944724589586258,2.139190673828125,2.1373327999637444,-0.0018578738643806325,7.75091552734375,7.5518508252586605,-0.19906470208508953
69,0.0051784515380859375,-0.6771707534790039,0.14606904983520508,0.08820389956235886,2.2833445072174072,-0.04944724589586258,2.1977996826171875,2.139538092682339,-0.05826158993484842,7.8095245361328125,7.55262663771364,-0.2568978984191723
70,0.004795074462890625,-0.6771707534790039,0.1464533805847168,0.08743690699338913,2.2833445072174072,-0.04944724589586258,2.4322357177734375,2.1373327999637444,-0.29490291780969313,7.897434234619141,7.5518508252586605,-0.34558340936048015
71,0.004795074462890625,-0.6771707534790039,0.1464533805847168,0.08820389956235886,2.2833445072174072,-0.04944724589586258,2.4908447265625,2.137234499994278,-0.35361022656822216,7.721611022949219,7.552218994886035,-0.16939202806318399
72,0.0051784515380859375,-0.6771707534790039,0.1464533805847168,0.08820389956235886,2.2833445072174072,-0.04944724589586258,2.25640869140625,2.137234499994278,-0.11917419141197216,7.604396820068359,7.552218994886035,-0.05217782518232461
73,0.0051784515380859375,-0.6771707534790039,0.1464533805847168,0.08743690699338913,2.2833445072174072,-0.04944724589586258,2.139190673828125,2.1373327999637444,-0.0018578738643806325,7.721611022949219,7.5518508252586605,-0.16976019769055828
74,0.004795074462890625,-0.6771707534790039,0.1464533805847168,0.08820389956235886,2.2833445072174072,-0.04944724589586258,2.4908447265625,2.137234499994278,-0.35361022656822216,8.014652252197266,7.552218994886035,-0.46243325731123086
75,0.0051784515380859375,-0.6773624420166016,0.1464533805847168,0.08743690699338913,2.2833445072174072,-0.04944724589586258,2.373626708984375,2.140017110126815,-0.23360959885755994,7.985347747802734,7.551470438872306,-0.43387730893042864
76,0.0051784515380859375,-0.6771707534790039,0.14606904983520508,0.08820389956235886,2.2833445072174072,-0.04944724589586258,2.4908447265625,2.139538092682339,-0.3513066338801609,7.369964599609375,7.55262663771364,0.18266203810426518
77,0.0051784515380859375,-0.6773624420166016,0.1464533805847168,0.08743690699338913,2.2833445072174072,-0.04944724589586258,2.5494537353515625,2.140017110126815,-0.40943662522474744,8.131866455078125,7.551470438872306,-0.5803960162058193
78,0.004795074462890625,-0.6771707534790039,0.1464533805847168,0.08743690699338913,2.2833445072174072,-0.04944724589586258,2.4322357177734375,2.1373327999637444,-0.29490291780969313,7.8095245361328125,7.5518508252586605,-0.25767371087415203
79,0.0051784515380859375,-0.6773624420166016,0.14606904983520508,0.08743690699338913,2.2833445072174072,-0.04944724589586258,2.4322357177734375,2.142321172576797,-0.2899145451966403,7.604396820068359,7.551877476507583,-0.05251934356077648
80,0.004795074462890625,-0.6771707534790039,0.1464533805847168,0.08743690699338913,2.2833445072174072,-0.04944724589586258,2.3150177001953125,2.1373327999637444,-0.17768490023156813,7.457874298095703,7.5518508252586605,0.09397652716295735
81,0.004795074462890625,-0.6773624420166016,0.1464533805847168,0.08820389956235886,2.2833445072174072,-0.04944724589586258,2.373626708984375,2.139918255207455,-0.23370845377692007,7.897434234619141,7.551838373782889,-0.3455958608362515
82,0.004795074462890625,-0.6771707534790039,0.1464533805847168,0.08743690699338913,2.2833445072174072,-0.04944724589586258,2.1977996826171875,2.1373327999637444,-0.06046688265344313,7.135532379150391,7.5518508252586605,0.41631844610826985
83,0.0051784515380859375,-0.6773624420166016,0.14606904983520508,0.08743690699338913,2.2833445072174072,-0.04944724589586258,2.4322357177734375,2.142321172576797,-0.2899145451966403,7.487178802490234,7.551877476507583,0.06469867401734852
84,0.004795074462890625,-0.6771707534790039,0.1464533805847168,0.08820389956235886,2.2833445072174072,-0.04944724589586258,2.4908447265625,2.137234499994278,-0.35361022656822216,7.721611022949219,7.552218994886035,-0.16939202806318399
85,0.0051784515380859375,-0.6771707534790039,0.1464533805847168,0.08743690699338913,2.2833445072174072,-0.04944724589586258,2.4908447265625,2.1373327999637444,-0.35351192659875563,7.868133544921875,7.5518508252586605,-0.31628271966321453
86,0.004795074462890625,-0.6771707534790039,0.1464533805847168,0.08743690699338913,2.2833445072174072,-0.04944724589586258,2.3150177001953125,2.1373327999637444,-0.17768490023156813,8.10256576538086,7.5518508252586605,-0.5507149401221989
87,0.0051784515380859375,-0.6773624420166016,0.14606904983520508,0.08743690699338913,2.2833445072174072,-0.04944724589586258,2.3150177001953125,2.142321172576797,-0.17269652761851528,7.369964599609375,7.551877476507583,0.1819128768982079
88,0.0051784515380859375,-0.6771707534790039,0.14606904983520508,0.08743690699338913,2.2833445072174072,-0.04944724589586258,2.373626708984375,2.139637505308878,-0.23398920367549714,7.6923065185546875,7.552258938701213,-0.1400475798534746
89,0.004795074462890625,-0.6771707534790039,0.1464533805847168,0.08820389956235886,2.2833445072174072,-0.04944724589586258,2.4322357177734375,2.137234499994278,-0.29500121777915966,8.161170959472656,7.552218994886035,-0.6089519645866215
90,0.0051784515380859375,-0.6771707534790039,0.1464533805847168,0.08743690699338913,2.2833445072174072,-0.04944724589586258,2.1977996826171875,2.1373327999637444,-0.06046688265344313,7.956043243408203,7.5518508252586605,-0.40419241814954265
91,0.004795074462890625,-0.6771707534790039,0.14606904983520508,0.08743690699338913,2.2833375930786133,-0.049449604004621506,2.373626708984375,2.139694971215075,-0.23393173776929999,7.838829040527344,7.552290993174806,-0.28653804735253807
92,0.0051784515380859375,-0.6771707534790039,0.14606904983520508,0.08820389956235886,2.2833375930786133,-0.049449604004621506,2.373626708984375,2.1395955597281215,-0.23403114925625346,7.604396820068359,7.552658706049366,-0.05173811401899364
93,0.0051784515380859375,-0.6771707534790039,0.14606904983520508,0.08743690699338913,2.2833375930786133,-0.049449604004621506,2.4908447265625,2.139694971215075,-0.351149755347425,7.663002014160156,7.552290993174806,-0.11071102098535057
94,0.0051784515380859375,-0.6773624420166016,0.1464533805847168,0.08820389956235886,2.2833375930786133,-0.049449604004621506,2.4322357177734375,2.13997572253415,-0.2922599952392875,7.75091552734375,7.551870445597344,-0.199045081746406
95,0.0051784515380859375,-0.6771707534790039,0.1464533805847168,0.08743690699338913,2.2833375930786133,-0.049449604004621506,2.373626708984375,2.1373902664451996,-0.23623644253917542,7.457874298095703,7.551882886680759,0.0940085885850559
96,0.0051784515380859375,-0.6771707534790039,0.14606904983520508,0.08820389956235886,2.2833375930786133,-0.049449604004621506,2.3150177001953125,2.1395955597281215,-0.17542214046719096,7.838829040527344,7.552658706049366,-0.286170334477978
97,0.0051784515380859375,-0.6773624420166016,0.1464533805847168,0.08743690699338913,2.2833375930786133,-0.049449604004621506,2.25640869140625,2.140074576322416,-0.11633411508383418,7.985347747802734,7.5515024968293645,-0.4338452509733699
98,0.004795074462890625,-0.6771707534790039,0.1464533805847168,0.08820389956235886,2.2833375930786133,-0.049449604004621506,2.6666641235351562,2.137291967598378,-0.5293721559367781,7.663002014160156,7.552251070160815,-0.11075094399934127
99,0.0051784515380859375,-0.6771707534790039,0.1464533805847168,0.08743690699338913,2.2833375930786133,-0.049449604004621506,2.4322357177734375,2.1373902664451996,-0.2948454513282379,7.369964599609375,7.551882886680759,0.18191828707138402
100,0.004795074462890625,-0.6771707534790039,0.1464533805847168,0.08820389956235886,2.2833375930786133,-0.049449604004621506,2.3150177001953125,2.137291967598378,-0.17772573259693436,7.663002014160156,7.552251070160815,-0.11075094399934127
101,0.0051784515380859375,-0.6771707534790039,0.14606904983520508,0.08820389956235886,2.2833375930786133,-0.049449604004621506,2.25640869140625,2.1395955597281215,-0.11681313167812846,8.131866455078125,7.552658706049366,-0.5792077490287593
102,0.0051784515380859375,-0.6773624420166016,0.1464533805847168,0.08743690699338913,2.2833375930786133,-0.049449604004621506,2.373626708984375,2.140074576322416,-0.23355213266195918,7.75091552734375,7.5515024968293645,-0.19941303051438553
103,0.0051784515380859375,-0.6773624420166016,0.1464533805847168,0.08743690699338913,2.2833375930786133,-0.049449604004621506,2.3150177001953125,2.140074576322416,-0.17494312387289668,8.014652252197266,7.5515024968293645,-0.46314975536790115
104,0.0051784515380859375,-0.6773624420166016,0.14606904983520508,0.08820389956235886,2.2833445072174072,-0.04944724589586258,2.25640869140625,2.14222120500767,-0.1141874863985799,8.073261260986328,7.552244940776122,-0.5210163202102063
105,0.004795074462890625,-0.6771707534790039,0.1464533805847168,0.08743690699338913,2.2833445072174072,-0.04944724589586258,2.3150177001953125,2.1373327999637444,-0.17768490023156813,7.6923065185546875,7.5518508252586605,-0.14045569329602703
106,0.004795074462890625,-0.6771707534790039,0.1464533805847168,0.08743690699338913,2.2833445072174072,-0.04944724589586258,2.25640869140625,2.1373327999637444,-0.11907589144250563,8.014652252197266,7.5518508252586605,-0.46280142693860515
107,0.0051784515380859375,-0.6771707534790039,0.14606904983520508,0.08743690699338913,2.2833445072174072,-0.04944724589586258,2.3150177001953125,2.139637505308878,-0.17538019488643464,7.780220031738281,7.552258938701213,-0.22796109303706835
108,0.0051784515380859375,-0.6771707534790039,0.1464533805847168,0.08743690699338913,2.2833445072174072,-0.04944724589586258,2.139190673828125,2.1373327999637444,-0.0018578738643806325,8.219779968261719,7.5518508252586605,-0.6679291430030583
109,0.0051784515380859375,-0.6771707534790039,0.14606904983520508,0.08743690699338913,2.2833445072174072,-0.04944724589586258,2.1977996826171875,2.139637505308878,-0.05816217730830964,7.369964599609375,7.552258938701213,0.1822943390918379
110,0.0051784515380859375,-0.6771707534790039,0.1464533805847168,0.08743690699338913,2.2833445072174072,-0.04944724589586258,2.3150177001953125,2.1373327999637444,-0.17768490023156813,7.780220031738281,7.5518508252586605,-0.22836920647962078
111,0.0051784515380859375,-0.6771707534790039,0.1464533805847168,0.08743690699338913,2.2833445072174072,-0.04944724589586258,2.4908447265625,2.1373327999637444,-0.35351192659875563,7.926738739013672,7.5518508252586605,-0.3748879137550114
112,0.0051784515380859375,-0.6771707534790039,0.1464533805847168,0.08743690699338913,2.2833445072174072,-0.04944724589586258,2.5494537353515625,2.1373327999637444,-0.41212093538781813,7.663002014160156,7.5518508252586605,-0.11115118890149578
113,0.0051784515380859375,-0.6771707534790039,0.1464533805847168,0.08820389956235886,2.2833445072174072,-0.04944724589586258,2.4322357177734375,2.137234499994278,-0.29500121777915966,7.721611022949219,7.552218994886035,-0.16939202806318399
114,0.0051784515380859375,-0.6771707534790039,0.1464533805847168,0.08820389956235886,2.2833445072174072,-0.04944724589586258,2.3150177001953125,2.137234499994278,-0.17778320020103466,7.985347747802734,7.552218994886035,-0.4331287529166996
115,0.0051784515380859375,-0.6771707534790039,0.1464533805847168,0.08743690699338913,2.2833445072174072,-0.04944724589586258,2.4322357177734375,2.1373327999637444,-0.29490291780969313,7.926738739013672,7.5518508252586605,-0.3748879137550114
116,0.004795074462890625,-0.6771707534790039,0.14606904983520508,0.08820389956235886,2.2833445072174072,-0.04944724589586258,2.4908447265625,2.139538092682339,-0.3513066338801609,8.073261260986328,7.55262663771364,-0.520634623272688
117,0.0051784515380859375,-0.6771707534790039,0.1464533805847168,0.08743690699338913,2.283330202102661,-0.04944247752428055,2.373626708984375,2.1374516961209116,-0.23617501286346343,8.161170959472656,7.551917159097229,-0.6092538003754271
118,0.0051784515380859375,-0.6773624420166016,0.1464533805847168,0.08820389956235886,2.283323287963867,-0.04944014549255371,2.4908447265625,2.1400946204195552,-0.3507501061429448,8.24908447265625,7.551936800679199,-0.6971476719770511
119,0.0051784515380859375,-0.6771707534790039,0.1464533805847168,0.08743690699338913,2.283323287963867,-0.04944014549255371,2.4908447265625,2.1375091625811073,-0.35333556398139265,7.575092315673828,7.551949220260783,-0.023143095413044712
120,0.004795074462890625,-0.6771707534790039,0.14606904983520508,0.08820389956235886,2.283323287963867,-0.04944014549255371,2.373626708984375,2.1397144570320847,-0.23391225195229026,7.8095245361328125,7.552725053933716,-0.25679948219909665
121,0.0051784515380859375,-0.6771707534790039,0.1464533805847168,0.08743690699338913,2.283323287963867,-0.04944014549255371,2.4322357177734375,2.1375091625811073,-0.29472655519233015,7.926738739013672,7.551949220260783,-0.37478951875288846
122,0.0051784515380859375,-0.6771707534790039,0.1464533805847168,0.08743690699338913,2.283323287963867,-0.04944014549255371,2.3150177001953125,2.1375091625811073,-0.17750853761420515,7.6923065185546875,7.551949220260783,-0.1403572982939041
123,0.0051784515380859375,-0.6771707534790039,0.1464533805847168,0.08820389956235886,2.283323287963867,-0.04944014549255371,2.373626708984375,2.1374108660579667,-0.2362158429264083,7.8095245361328125,7.5523174324020985,-0.257207103730714
124,0.0051784515380859375,-0.6771707534790039,0.1464533805847168,0.08743690699338913,2.283323287963867,-0.04944014549255371,2.4322357177734375,2.1375091625811073,-0.29472655519233015,7.838829040527344,7.551949220260783,-0.28687982026656034
125,0.004795074462890625,-0.6771707534790039,0.1464533805847168,0.08743690699338913,2.283323287963867,-0.04944014549255371,2.4908447265625,2.1375091625811073,-0.35333556398139265,8.307693481445312,7.551949220260783,-0.7557442611845291
126,0.004795074462890625,-0.6771707534790039,0.1464533805847168,0.08743690699338913,2.283323287963867,-0.04944014549255371,2.139190673828125,2.1375091625811073,-0.001681511247017653,7.604396820068359,7.551949220260783,-0.05244759980757596
127,0.0051784515380859375,-0.6771707534790039,0.1464533805847168,0.08743690699338913,2.283323287963867,-0.04944014549255371,2.5494537353515625,2.1375091625811073,-0.41194457277045515,7.780220031738281,7.551949220260783,-0.22827081147749784
128,0.0051784515380859375,-0.6771707534790039,0.14606904983520508,0.08743690699338913,2.283323287963867,-0.04944014549255371,2.4908447265625,2.1398138661603086,-0.35103086040219145,7.985347747802734,7.55235731237834,-0.4329904354243945
129,0.004795074462890625,-0.6771707534790039,0.14606904983520508,0.08743690699338913,2.283323287963867,-0.04944014549255371,2.3150177001953125,2.1398138661603086,-0.17520383403500395,7.516483306884766,7.55235731237834,0.035874005493574224
130,0.004795074462890625,-0.6771707534790039,0.1464533805847168,0.08743690699338913,2.283323287963867,-0.04944014549255371,2.3150177001953125,2.1375091625811073,-0.17750853761420515,8.014652252197266,7.551949220260783,-0.4627030319364822
131,0.0051784515380859375,-0.6771707534790039,0.1464533805847168,0.08743690699338913,2.283323287963867,-0.04944014549255371,2.6666641235351562,2.1375091625811073,-0.5291549609540489,7.838829040527344,7.551949220260783,-0.28687982026656034
132,0.0051784515380859375,-0.6771707534790039,0.1464533805847168,0.08743690699338913,2.283323287963867,-0.04944014549255371,2.3150177001953125,2.1375091625811073,-0.17750853761420515,7.575092315673828,7.551949220260783,-0.023143095413044712
133,0.004795074462890625,-0.6771707534790039,0.1464533805847168,0.08820389956235886,2.283323287963867,-0.04944014549255371,2.4322357177734375,2.1374108660579667,-0.2948248517154708,7.545787811279297,7.5523174324020985,0.006529621122801643
134,0.004795074462890625,-0.6771707534790039,0.1464533805847168,0.08743690699338913,2.283323287963867,-0.04944014549255371,2.25640869140625,2.1375091625811073,-0.11889952882514265,7.838829040527344,7.551949220260783,-0.28687982026656034
135,0.0051784515380859375,-0.6771707534790039,0.1464533805847168,0.08743690699338913,2.283323287963867,-0.04944014549255371,2.0805892944335938,2.1375091625811073,0.0569198681475136,8.073261260986328,7.551949220260783,-0.5213120407255447
136,0.0051784515380859375,-0.6771707534790039,0.1464533805847168,0.08743690699338913,2.283323287963867,-0.04944014549255371,2.373626708984375,2.1375091625811073,-0.23611754640326765,7.545787811279297,7.551949220260783,0.006161408981486538
137,0.0051784515380859375,-0.6771707534790039,0.1464533805847168,0.08743690699338913,2.283323287963867,-0.04944014549255371,2.6666641235351562,2.1375091625811073,-0.5291549609540489,7.985347747802734,7.551949220260783,-0.43339852754195096
138,0.004795074462890625,-0.6771707534790039,0.1464533805847168,0.08743690699338913,2.283323287963867,-0.04944014549255371,2.1977996826171875,2.1375091625811073,-0.06029052003608015,7.25274658203125,7.551949220260783,0.2992026382295334
139,0.004795074462890625,-0.6771707534790039,0.1464533805847168,0.08743690699338913,2.283323287963867,-0.04944014549255371,2.6666641235351562,2.1375091625811073,-0.5291549609540489,7.604396820068359,7.551949220260783,-0.05244759980757596
140,0.0051784515380859375,-0.6773624420166016,0.1464533805847168,0.08820389956235886,2.283323287963867,-0.04944014549255371,2.4322357177734375,2.1400946204195552,-0.2921410973538823,7.780220031738281,7.551936800679199,-0.22828323105908233
141,0.004795074462890625,-0.6771707534790039,0.1464533805847168,0.08743690699338913,2.283323287963867,-0.04944014549255371,2.4322357177734375,2.1375091625811073,-0.29472655519233015,7.780220031738281,7.551949220260783,-0.22827081147749784
142,0.004795074462890625,-0.6771707534790039,0.1464533805847168,0.08743690699338913,2.283323287963867,-0.04944014549255371,2.4908447265625,2.1375091625811073,-0.35333556398139265,7.721611022949219,7.551949220260783,-0.16966180268843534
143,0.004795074462890625,-0.6773624420166016,0.14606904983520508,0.08743690699338913,2.283323287963867,-0.04944014549255371,2.3150177001953125,2.1424975325377162,-0.17252016765759626,7.575092315673828,7.551975839543239,-0.023116476130589092
144,0.0051784515380859375,-0.6771707534790039,0.1464533805847168,0.08743690699338913,2.283323287963867,-0.04944014549255371,2.3150177001953125,2.1375091625811073,-0.17750853761420515,7.516483306884766,7.551949220260783,0.03546591337601779
145,0.004795074462890625,-0.6771707534790039,0.14606904983520508,0.08743690699338913,2.283323287963867,-0.04944014549255371,2.6080551147460938,2.1398138661603086,-0.4682412485857852,7.8095245361328125,7.55235731237834,-0.25716722375447265
146,0.004795074462890625,-0.6771707534790039,0.1464533805847168,0.08743690699338913,2.283323287963867,-0.04944014549255371,2.3150177001953125,2.1375091625811073,-0.17750853761420515,7.663002014160156,7.551949220260783,-0.11105279389937284
147,0.0051784515380859375,-0.6771707534790039,0.1464533805847168,0.08820389956235886,2.283323287963867,-0.04944014549255371,2.1977996826171875,2.1374108660579667,-0.06038881655922079,7.956043243408203,7.5523174324020985,-0.4037258110061046
148,0.004795074462890625,-0.6771707534790039,0.1464533805847168,0.08743690699338913,2.283323287963867,-0.04944014549255371,2.139190673828125,2.1375091625811073,-0.001681511247017653,7.868133544921875,7.551949220260783,-0.3161843246610916
149,0.0051784515380859375,-0.6771707534790039,0.1464533805847168,0.08820389956235886,2.283323287963867,-0.04944014549255371,2.3150177001953125,2.1374108660579667,-0.1776068341373458,7.721611022949219,7.5523174324020985,-0.16929359054712023
150,0.0051784515380859375,-0.6771707534790039,0.1464533805847168,0.08743690699338913,2.283323287963867,-0.04944014549255371,2.373626708984375,2.1375091625811073,-0.23611754640326765,7.516483306884766,7.551949220260783,0.03546591337601779
151,0.0051784515380859375,-0.6771707534790039,0.1464533805847168,0.08743690699338913,2.283323287963867,-0.04944014549255371,2.373626708984375,2.1375091625811073,-0.23611754640326765,7.956043243408203,7.551949220260783,-0.4040940231474197
152,0.0051784515380859375,-0.6771707534790039,0.1464533805847168,0.08743690699338913,2.283323287963867,-0.04944014549255371,2.139190673828125,2.1375091625811073,-0.001681511247017653,7.516483306884766,7.551949220260783,0.03546591337601779
153,0.004795074462890625,-0.6771707534790039,0.14606904983520508,0.08743690699338913,2.283323287963867,-0.04944014549255371,2.25640869140625,2.1398138661603086,-0.11659482524594145,8.043956756591797,7.55235731237834,-0.491599444213457
154,0.0051784515380859375,-0.6771707534790039,0.1464533805847168,0.08743690699338913,2.283323287963867,-0.04944014549255371,2.4322357177734375,2.1375091625811073,-0.29472655519233015,8.014652252197266,7.551949220260783,-0.4627030319364822
155,0.0051784515380859375,-0.6771707534790039,0.1464533805847168,0.08743690699338913,2.283323287963867,-0.04944014549255371,2.373626708984375,2.1375091625811073,-0.23611754640326765,7.721611022949219,7.551949220260783,-0.16966180268843534
156,0.004795074462890625,-0.6771707534790039,0.1464533805847168,0.08743690699338913,2.283323287963867,-0.04944014549255371,2.139190673828125,2.1375091625811073,-0.001681511247017653,7.780220031738281,7.551949220260783,-0.22827081147749784
157,0.004795074462890625,-0.6771707534790039,0.1464533805847168,0.08743690699338913,2.283323287963867,-0.04944014549255371,2.1977996826171875,2.1375091625811073,-0.06029052003608015,8.10256576538086,7.551949220260783,-0.550616545120076
158,0.004795074462890625,-0.6771707534790039,0.1464533805847168,0.08743690699338913,2.283323287963867,-0.04944014549255371,2.1977996826171875,2.1375091625811073,-0.06029052003608015,7.575092315673828,7.551949220260783,-0.023143095413044712
159,0.0051784515380859375,-0.6771707534790039,0.1464533805847168,0.08743690699338913,2.283323287963867,-0.04944014549255371,2.373626708984375,2.1375091625811073,-0.23611754640326765,8.014652252197266,7.551949220260783,-0.4627030319364822
160,0.0051784515380859375,-0.6771707534790039,0.1464533805847168,0.08820389956235886,2.283323287963867,-0.04944014549255371,2.373626708984375,2.1374108660579667,-0.2362158429264083,8.512821197509766,7.5523174324020985,-0.9605037651076671
161,0.0051784515380859375,-0.6771707534790039,0.1464533805847168,0.08743690699338913,2.283323287963867,-0.04944014549255371,2.373626708984375,2.1375091625811073,-0.23611754640326765,7.780220031738281,7.551949220260783,-0.22827081147749784
162,0.0051784515380859375,-0.6771707534790039,0.14606904983520508,0.08820389956235886,2.283323287963867,-0.04944014549255371,2.1977996826171875,2.1397144570320847,-0.05808522558510276,7.8095245361328125,7.552725053933716,-0.25679948219909665
163,0.0051784515380859375,-0.6771707534790039,0.1464533805847168,0.08743690699338913,2.283323287963867,-0.04944014549255371,2.3150177001953125,2.1375091625811073,-0.17750853761420515,7.780220031738281,7.551949220260783,-0.22827081147749784
164,0.004795074462890625,-0.6771707534790039,0.1464533805847168,0.08820389956235886,2.283323287963867,-0.04944014549255371,2.3150177001953125,2.1374108660579667,-0.1776068341373458,7.282051086425781,7.5523174324020985,0.27026634597631727
165,0.004795074462890625,-0.6771707534790039,0.1464533805847168,0.08743690699338913,2.283323287963867,-0.04944014549255371,2.3150177001953125,2.1375091625811073,-0.17750853761420515,7.985347747802734,7.551949220260783,-0.43339852754195096
166,0.0051784515380859375,-0.6773624420166016,0.1464533805847168,0.08820389956235886,2.283323287963867,-0.04944014549255371,2.25640869140625,2.1400946204195552,-0.11631407098669477,7.721611022949219,7.551936800679199,-0.16967422227001983
167,0.0051784515380859375,-0.6771707534790039,0.1464533805847168,0.08743690699338913,2.283323287963867,-0.04944014549255371,2.4322357177734375,2.1375091625811073,-0.29472655519233015,7.487178802490234,7.551949220260783,0.06477041777054904
168,0.0051784515380859375,-0.6771707534790039,0.1464533805847168,0.08820389956235886,2.283323287963867,-0.04944014549255371,2.4908447265625,2.1374108660579667,-0.3534338605045333,8.10256576538086,7.5523174324020985,-0.5502483329787609
169,0.004795074462890625,-0.6773624420166016,0.14606904983520508,0.08743690699338913,2.283323287963867,-0.04944014549255371,2.5494537353515625,2.1424975325377162,-0.40695620281384626,7.721611022949219,7.551975839543239,-0.16963518340597972
170,0.0051784515380859375,-0.6771707534790039,0.1464533805847168,0.08820389956235886,2.283323287963867,-0.04944014549255371,2.25640869140625,2.1374108660579667,-0.11899782534828329,8.014652252197266,7.5523174324020985,-0.4623348197951671
171,0.004795074462890625,-0.6771707534790039,0.14606904983520508,0.08743690699338913,2.283323287963867,-0.04944014549255371,2.5494537353515625,2.1398138661603086,-0.40963986919125395,7.663002014160156,7.55235731237834,-0.1106447017818164
172,0.004795074462890625,-0.6771707534790039,0.1464533805847168,0.08743690699338913,2.283323287963867,-0.04944014549255371,2.4908447265625,2.1375091625811073,-0.35333556398139265,7.721611022949219,7.551949220260783,-0.16966180268843534
173,0.004795074462890625,-0.6771707534790039,0.1464533805847168,0.08820389956235886,2.283323287963867,-0.04944014549255371,2.3150177001953125,2.1374108660579667,-0.1776068341373458,7.926738739013672,7.5523174324020985,-0.37442130661157336
174,0.0051784515380859375,-0.6771707534790039,0.1464533805847168,0.08743690699338913,2.283323287963867,-0.04944014549255371,2.25640869140625,2.1375091625811073,-0.11889952882514265,7.956043243408203,7.551949220260783,-0.4040940231474197
175,0.004795074462890625,-0.6771707534790039,0.1464533805847168,0.08820389956235886,2.283323287963867,-0.04944014549255371,2.5494537353515625,2.1374108660579667,-0.4120428692935958,7.6923065185546875,7.5523174324020985,-0.13998908615258898
176,0.004795074462890625,-0.6771707534790039,0.1464533805847168,0.08743690699338913,2.283323287963867,-0.04944014549255371,2.4908447265625,2.1375091625811073,-0.35333556398139265,7.956043243408203,7.551949220260783,-0.4040940231474197
177,0.004795074462890625,-0.6771707534790039,0.1464533805847168,0.08743690699338913,2.283323287963867,-0.04944014549255371,2.25640869140625,2.1375091625811073,-0.11889952882514265,8.131866455078125,7.551949220260783,-0.5799172348173416
178,0.0051784515380859375,-0.6771707534790039,0.1464533805847168,0.08743690699338913,2.283323287963867,-0.04944014549255371,2.4322357177734375,2.1375091625811073,-0.29472655519233015,7.575092315673828,7.551949220260783,-0.023143095413044712
179,0.0051784515380859375,-0.6771707534790039,0.1464533805847168,0.08743690699338913,2.283323287963867,-0.04944014549255371,1.9633712768554688,2.1375091625811073,0.1741378857256386,7.956043243408203,7.551949220260783,-0.4040940231474197
180,0.0051784515380859375,-0.6771707534790039,0.1464533805847168,0.08743690699338913,2.283323287963867,-0.04944014549255371,2.373626708984375,2.1375091625811073,-0.23611754640326765,7.575092315673828,7.551949220260783,-0.023143095413044712
181,0.0051784515380859375,-0.6771707534790039,0.1464533805847168,0.08743690699338913,2.283323287963867,-0.04944014549255371,2.3150177001953125,2.1375091625811073,-0.17750853761420515,7.3113555908203125,7.551949220260783,0.2405936294404709
182,0.0051784515380859375,-0.6771707534790039,0.1464533805847168,0.08743690699338913,2.283323287963867,-0.04944014549255371,2.25640869140625,2.1375091625811073,-0.11889952882514265,7.399269104003906,7.551949220260783,0.15268011625687716
183,0.0051784515380859375,-0.6771707534790039,0.14606904983520508,0.08820389956235886,2.283323287963867,-0.04944014549255371,2.5494537353515625,2.1397144570320847,-0.40973927831947776,7.633701324462891,7.552725053933716,-0.08097627052917478
184,0.0051784515380859375,-0.6771707534790039,0.1464533805847168,0.08743690699338913,2.283323287963867,-0.04944014549255371,2.3150177001953125,2.1375091625811073,-0.17750853761420515,8.131866455078125,7.551949220260783,-0.5799172348173416
185,0.004795074462890625,-0.6771707534790039,0.1464533805847168,0.08820389956235886,2.283323287963867,-0.04944014549255371,2.1977996826171875,2.1374108660579667,-0.06038881655922079,7.868133544921875,7.5523174324020985,-0.3158161125197765
186,0.0051784515380859375,-0.6771707534790039,0.14606904983520508,0.08743690699338913,2.283323287963867,-0.04944014549255371,2.4322357177734375,2.1398138661603086,-0.29242185161312895,7.6923065185546875,7.55235731237834,-0.13994920617634765
187,0.0051784515380859375,-0.6771707534790039,0.1464533805847168,0.08743690699338913,2.283323287963867,-0.04944014549255371,2.3150177001953125,2.1375091625811073,-0.17750853761420515,7.633701324462891,7.551949220260783,-0.08175210420210721
188,0.0051784515380859375,-0.6771707534790039,0.1464533805847168,0.08743690699338913,2.283323287963867,-0.04944014549255371,2.373626708984375,2.1375091625811073,-0.23611754640326765,7.428569793701172,7.551949220260783,0.12337942655961154
189,0.0051784515380859375,-0.6771707534790039,0.14606904983520508,0.08743690699338913,2.283323287963867,-0.04944014549255371,2.6080551147460938,2.1398138661603086,-0.4682412485857852,7.487178802490234,7.55235731237834,0.06517850988810547
190,0.004795074462890625,-0.6771707534790039,0.1464533805847168,0.08743690699338913,2.283323287963867,-0.04944014549255371,2.5494537353515625,2.1375091625811073,-0.41194457277045515,7.633701324462891,7.551949220260783,-0.08175210420210721
191,0.004795074462890625,-0.6771707534790039,0.1464533805847168,0.08743690699338913,2.283323287963867,-0.04944014549255371,2.3150177001953125,2.1375091625811073,-0.17750853761420515,7.6923065185546875,7.551949220260783,-0.1403572982939041
192,0.004795074462890625,-0.6771707534790039,0.1464533805847168,0.08743690699338913,2.283323287963867,-0.04944014549255371,2.4322357177734375,2.1375091625811073,-0.29472655519233015,7.868133544921875,7.551949220260783,-0.3161843246610916
193,0.004795074462890625,-0.6771707534790039,0.14606904983520508,0.08743690699338913,2.283323287963867,-0.04944014549255371,2.25640869140625,2.1398138661603086,-0.11659482524594145,7.721611022949219,7.55235731237834,-0.1692537105708789
194,0.0051784515380859375,-0.6773624420166016,0.14606904983520508,0.08820389956235886,2.283323287963867,-0.04944014549255371,2.3150177001953125,2.142397568492833,-0.17262013170247936,7.6923065185546875,7.5523433463691925,-0.13996317218549503
195,0.004795074462890625,-0.6771707534790039,0.1464533805847168,0.08743690699338913,2.283323287963867,-0.04944014549255371,2.373626708984375,2.1375091625811073,-0.23611754640326765,7.780220031738281,7.551949220260783,-0.22827081147749784
196,0.004795074462890625,-0.6771707534790039,0.1464533805847168,0.08820389956235886,2.283323287963867,-0.04944014549255371,2.373626708984375,2.1374108660579667,-0.2362158429264083,8.219779968261719,7.5523174324020985,-0.6674625358596202
197,0.0051784515380859375,-0.6771707534790039,0.1464533805847168,0.08743690699338913,2.283323287963867,-0.04944014549255371,2.4322357177734375,2.1375091625811073,-0.29472655519233015,7.897434234619141,7.551949220260783,-0.3454850143583572
198,0.004795074462890625,-0.6771707534790039,0.1464533805847168,0.08743690699338913,2.283323287963867,-0.04944014549255371,2.4908447265625,2.1375091625811073,-0.35333556398139265,7.75091552734375,7.551949220260783,-0.1989663070829666
199,0.0051784515380859375,-0.6771707534790039,0.14606904983520508,0.08743690699338913,2.283323287963867,-0.04944014549255371,2.4322357177734375,2.1398138661603086,-0.29242185161312895,7.428569793701172,7.55235731237834,0.12378751867716797
200,0.0051784515380859375,-0.6771707534790039,0.14606904983520508,0.08743690699338913,2.283323287963867,-0.04944014549255371,2.4322357177734375,2.1398138661603086,-0.29242185161312895,7.838829040527344,7.55235731237834,-0.2864717281490039
201,0.0051784515380859375,-0.6771707534790039,0.1464533805847168,0.08820389956235886,2.283323287963867,-0.04944014549255371,2.1977996826171875,2.1374108660579667,-0.06038881655922079,7.75091552734375,7.5523174324020985,-0.19859809494165148
202,0.0051784515380859375,-0.6771707534790039,0.1464533805847168,0.08743690699338913,2.283323287963867,-0.04944014549255371,2.7838821411132812,2.1375091625811073,-0.6463729785321739,7.8095245361328125,7.551949220260783,-0.2575753158720291
203,0.004795074462890625,-0.6771707534790039,0.1464533805847168,0.08743690699338913,2.283323287963867,-0.04944014549255371,2.4322357177734375,2.1375091625811073,-0.29472655519233015,8.043956756591797,7.551949220260783,-0.49200753633101346
204,0.004795074462890625,-0.6771707534790039,0.1464533805847168,0.08743690699338913,2.283323287963867,-0.04944014549255371,2.4322357177734375,2.1375091625811073,-0.29472655519233015,7.721611022949219,7.551949220260783,-0.16966180268843534
205,0.004795074462890625,-0.6771707534790039,0.1464533805847168,0.08820389956235886,2.283323287963867,-0.04944014549255371,2.4908447265625,2.1374108660579667,-0.3534338605045333,7.780220031738281,7.5523174324020985,-0.22790259933618273
206,0.0051784515380859375,-0.6771707534790039,0.14606904983520508,0.08743690699338913,2.283323287963867,-0.04944014549255371,2.4322357177734375,2.1398138661603086,-0.29242185161312895,7.663002014160156,7.55235731237834,-0.1106447017818164
207,0.0051784515380859375,-0.6771707534790039,0.1464533805847168,0.08743690699338913,2.283323287963867,-0.04944014549255371,2.373626708984375,2.1375091625811073,-0.23611754640326765,7.457874298095703,7.551949220260783,0.09407492216508029
208,0.004795074462890625,-0.6771707534790039,0.1464533805847168,0.08743690699338913,2.283323287963867,-0.04944014549255371,2.3150177001953125,2.1375091625811073,-0.17750853761420515,7.897434234619141,7.551949220260783,-0.3454850143583572
209,0.0051784515380859375,-0.6771707534790039,0.1464533805847168,0.08820389956235886,2.283302068710327,-0.04943301901221275,2.373626708984375,2.137587232027707,-0.23603947695666783,8.307693481445312,7.552415868742771,-0.7552776127025416
210,0.0051784515380859375,-0.6771707534790039,0.14606904983520508,0.08743690699338913,2.283302068710327,-0.04943301901221275,2.6080551147460938,2.1399902269134823,-0.46806488783261146,7.428569793701172,7.552455684877671,0.12388589117649929
211,0.0051784515380859375,-0.6771707534790039,0.14606904983520508,0.08743690699338913,2.283302068710327,-0.04943301901221275,2.4908447265625,2.1399902269134823,-0.3508544996490177,8.131866455078125,7.552455684877671,-0.5794107702004538
212,0.0051784515380859375,-0.6771707534790039,0.14606904983520508,0.08743690699338913,2.283302068710327,-0.04943301901221275,2.373626708984375,2.1399902269134823,-0.23363648207089271,8.073261260986328,7.552455684877671,-0.520805576108657
213,0.0051784515380859375,-0.6771707534790039,0.1464533805847168,0.08743690699338913,2.283302068710327,-0.04943301901221275,2.373626708984375,2.137685525101651,-0.23594118388272411,8.043956756591797,7.552047614085913,-0.49190914250588413
214,0.0051784515380859375,-0.6771707534790039,0.1464533805847168,0.08743690699338913,2.283302068710327,-0.04943301901221275,2.1977996826171875,2.137685525101651,-0.060114157515536615,7.838829040527344,7.552047614085913,-0.286781426441431
215,0.0051784515380859375,-0.6771707534790039,0.1464533805847168,0.08743690699338913,2.283302068710327,-0.04943301901221275,2.373626708984375,2.137685525101651,-0.23594118388272411,7.663002014160156,7.552047614085913,-0.11095440007424351
216,0.0051784515380859375,-0.6771707534790039,0.14606904983520508,0.08820389956235886,2.283302068710327,-0.04943301901221275,2.6666641235351562,2.139890821286443,-0.5267733022487131,7.457874298095703,7.552823468977598,0.09494917088189503
217,0.004795074462890625,-0.6771707534790039,0.1464533805847168,0.08820389956235886,2.283302068710327,-0.04943301901221275,2.3150177001953125,2.137587232027707,-0.17743046816760533,8.24908447265625,7.552415868742771,-0.6966686039134791
218,0.0051784515380859375,-0.6773624420166016,0.14606904983520508,0.08743690699338913,2.283302068710327,-0.04943301901221275,2.373626708984375,2.1426738923996607,-0.23095281658471434,7.838829040527344,7.5520742014007,-0.2867548391266439
219,0.0051784515380859375,-0.6771707534790039,0.1464533805847168,0.08743690699338913,2.283302068710327,-0.04943301901221275,2.4908447265625,2.137685525101651,-0.3531592014608491,7.721611022949219,7.552047614085913,-0.169563408863306
220,0.0051784515380859375,-0.6771707534790039,0.14606904983520508,0.08820389956235886,2.283302068710327,-0.04943301901221275,2.0805892944335938,2.139890821286443,0.059301526852849396,7.780220031738281,7.552823468977598,-0.2273965627606831
221,0.0051784515380859375,-0.6773624420166016,0.14606904983520508,0.08743690699338913,2.283302068710327,-0.04943301901221275,2.373626708984375,2.1426738923996607,-0.23095281658471434,7.545787811279297,7.5520742014007,0.006286390121402974
222,0.0051784515380859375,-0.6771707534790039,0.14606904983520508,0.08743690699338913,2.283302068710327,-0.04943301901221275,2.0805892944335938,2.1399902269134823,0.059400932479888535,7.428569793701172,7.552455684877671,0.12388589117649929
223,0.0051784515380859375,-0.6773624420166016,0.1464533805847168,0.08743690699338913,2.283302068710327,-0.04943301901221275,2.25640869140625,2.140369833508966,-0.11603885789728396,7.575092315673828,7.55166720643071,-0.023425109243118136
224,0.0051784515380859375,-0.6771707534790039,0.1464533805847168,0.08743690699338913,2.283302068710327,-0.04943301901221275,2.25640869140625,2.137685525101651,-0.11872316630459911,7.985347747802734,7.552047614085913,-0.43330013371682163
225,0.0051784515380859375,-0.6773624420166016,0.1464533805847168,0.08743690699338913,2.283294916152954,-0.04943537712097168,2.4908447265625,2.14042928123157,-0.35041544533092983,7.545787811279297,7.551700369038581,0.005912557759284454
226,0.0051784515380859375,-0.6771707534790039,0.14606904983520508,0.08743690699338913,2.283294916152954,-0.04943537712097168,2.373626708984375,2.140049674336215,-0.23357703464815982,7.897434234619141,7.552488843881685,-0.3449453907374558
227,0.004795074462890625,-0.6771707534790039,0.1464533805847168,0.08820389956235886,2.283294916152954,-0.04943537712097168,2.25640869140625,2.1376466812098047,-0.11876201019644528,7.897434234619141,7.552449049266879,-0.34498518535226186
228,0.0051784515380859375,-0.6773624420166016,0.1464533805847168,0.08743690699338913,2.283294916152954,-0.04943537712097168,2.4908447265625,2.14042928123157,-0.35041544533092983,7.721611022949219,7.551700369038581,-0.16991065391063742
229,0.0051784515380859375,-0.6771707534790039,0.1464533805847168,0.08743690699338913,2.283294916152954,-0.04943537712097168,2.4322357177734375,2.1377449731204514,-0.2944907446529861,7.926738739013672,7.552080780278578,-0.374657958735094
230,0.004795074462890625,-0.6771707534790039,0.1464533805847168,0.08820389956235886,2.283294916152954,-0.04943537712097168,2.373626708984375,2.1376466812098047,-0.23598002777457028,7.721611022949219,7.552449049266879,-0.16916197368233998
231,0.004795074462890625,-0.6771707534790039,0.14606904983520508,0.08743690699338913,2.283294916152954,-0.04943537712097168,2.4322357177734375,2.140049674336215,-0.2921860434372223,7.047618865966797,7.552488843881685,0.504869977914888
232,0.0051784515380859375,-0.6771707534790039,0.14606904983520508,0.08743690699338913,2.283294916152954,-0.04943537712097168,2.5494537353515625,2.140049674336215,-0.4094040610153473,8.014652252197266,7.552488843881685,-0.4621634083155808
233,0.0051784515380859375,-0.6771707534790039,0.14606904983520508,0.08743690699338913,2.283294916152954,-0.04943537712097168,2.4908447265625,2.140049674336215,-0.3507950522262848,7.369964599609375,7.552488843881685,0.18252424427230984
234,0.0051784515380859375,-0.6771707534790039,0.14606904983520508,0.08743690699338913,2.283294916152954,-0.04943537712097168,2.0219802856445312,2.140049674336215,0.11806938869168393,7.8095245361328125,7.552488843881685,-0.25703569225112766
235,0.004795074462890625,-0.6771707534790039,0.14606904983520508,0.08743690699338913,2.283294916152954,-0.04943537712097168,2.373626708984375,2.140049674336215,-0.23357703464815982,7.8095245361328125,7.552488843881685,-0.25703569225112766
236,0.0051784515380859375,-0.6771707534790039,0.1464533805847168,0.08820389956235886,2.283294916152954,-0.04943537712097168,2.3150177001953125,2.1376466812098047,-0.17737101898550778,7.8095245361328125,7.552449049266879,-0.25707548686593373
237,0.0051784515380859375,-0.6771707534790039,0.1464533805847168,0.08743690699338913,2.283294916152954,-0.04943537712097168,2.139190673828125,2.1377449731204514,-0.0014457007076735806,7.164836883544922,7.552080780278578,0.387243896733656
238,0.0051784515380859375,-0.6771707534790039,0.14606904983520508,0.08743690699338913,2.283294916152954,-0.04943537712097168,2.4908447265625,2.140049674336215,-0.3507950522262848,7.75091552734375,7.552488843881685,-0.19842668346206516
239,0.0051784515380859375,-0.6771707534790039,0.1464533805847168,0.08743690699338913,2.283294916152954,-0.04943537712097168,2.373626708984375,2.1377449731204514,-0.23588173586392358,7.868133544921875,7.552080780278578,-0.3160527646432971
240,0.004795074462890625,-0.6771707534790039,0.1464533805847168,0.08820389956235886,2.283294916152954,-0.04943537712097168,2.6666641235351562,2.1376466812098047,-0.5290174423253515,7.868133544921875,7.552449049266879,-0.31568449565499623
241,0.0051784515380859375,-0.6771707534790039,0.14606904983520508,0.08743690699338913,2.283294916152954,-0.04943537712097168,2.1977996826171875,2.140049674336215,-0.05775000828097232,7.575092315673828,7.552488843881685,-0.02260347179214328
242,0.0051784515380859375,-0.6771707534790039,0.1464533805847168,0.08820389956235886,2.283294916152954,-0.04943537712097168,2.3150177001953125,2.1376466812098047,-0.17737101898550778,7.487178802490234,7.552449049266879,0.06527024677664439
243,0.004795074462890625,-0.6773624420166016,0.14606904983520508,0.08743690699338913,2.283294916152954,-0.04943537712097168,2.1977996826171875,2.142733339521818,-0.05506634309536951,7.545787811279297,7.552107356817475,0.006319545538177707
244,0.0051784515380859375,-0.6771707534790039,0.1464533805847168,0.08820389956235886,2.283294916152954,-0.04943537712097168,2.4322357177734375,2.1376466812098047,-0.2945890365636328,8.043956756591797,7.552449049266879,-0.4915077073249181
245,0.004795074462890625,-0.6771707534790039,0.14606904983520508,0.08743690699338913,2.283294916152954,-0.04943537712097168,2.4908447265625,2.140049674336215,-0.3507950522262848,7.1941375732421875,7.552488843881685,0.35835127063949734
246,0.0051784515380859375,-0.6771707534790039,0.1464533805847168,0.08743690699338913,2.283294916152954,-0.04943537712097168,2.4908447265625,2.1377449731204514,-0.3530997534420486,7.487178802490234,7.552080780278578,0.0649019777883435
247,0.0051784515380859375,-0.6771707534790039,0.1464533805847168,0.08743690699338913,2.283294916152954,-0.04943537712097168,2.4322357177734375,2.1377449731204514,-0.2944907446529861,7.545787811279297,7.552080780278578,0.006292968999281001
248,0.0051784515380859375,-0.6771707534790039,0.14606904983520508,0.08743690699338913,2.283294916152954,-0.04943537712097168,2.3150177001953125,2.140049674336215,-0.17496802585909732,7.6923065185546875,7.552488843881685,-0.13981767467300266
249,0.0051784515380859375,-0.6771707534790039,0.14606904983520508,0.08743690699338913,2.283294916152954,-0.04943537712097168,2.4322357177734375,2.140049674336215,-0.2921860434372223,7.516483306884766,7.552488843881685,0.03600553699691922
250,0.0051784515380859375,-0.6771707534790039,0.1464533805847168,0.08743690699338913,2.283294916152954,-0.04943537712097168,2.4908447265625,2.1377449731204514,-0.3530997534420486,7.868133544921875,7.552080780278578,-0.3160527646432971
251,0.0051784515380859375,-0.6771707534790039,0.1464533805847168,0.08743690699338913,2.283294916152954,-0.04943537712097168,2.4322357177734375,2.1377449731204514,-0.2944907446529861,7.604396820068359,7.552080780278578,-0.0523160397897815
252,0.004795074462890625,-0.6771707534790039,0.1464533805847168,0.08743690699338913,2.283294916152954,-0.04943537712097168,2.3150177001953125,2.1377449731204514,-0.17727272707486108,7.604396820068359,7.552080780278578,-0.0523160397897815
253,0.0051784515380859375,-0.6771707534790039,0.1464533805847168,0.08743690699338913,2.283294916152954,-0.04943537712097168,2.3150177001953125,2.1377449731204514,-0.17727272707486108,7.75091552734375,7.552080780278578,-0.19883474706517212
254,0.004795074462890625,-0.6771707534790039,0.1464533805847168,0.08743690699338913,2.283294916152954,-0.04943537712097168,2.6666641235351562,2.1377449731204514,-0.5289191504147048,7.633701324462891,7.552080780278578,-0.08162054418431275
255,0.0051784515380859375,-0.6771707534790039,0.1464533805847168,0.08743690699338913,2.283294916152954,-0.04943537712097168,2.25640869140625,2.1377449731204514,-0.11866371828579858,7.6923065185546875,7.552080780278578,-0.14022573827610962
256,0.004795074462890625,-0.6771707534790039,0.1464533805847168,0.08743690699338913,2.283294916152954,-0.04943537712097168,2.4908447265625,2.1377449731204514,-0.3530997534420486,8.219779968261719,7.552080780278578,-0.6676991879831409
257,0.0051784515380859375,-0.6771707534790039,0.14606904983520508,0.08820389956235886,2.283294916152954,-0.04943537712097168,2.3150177001953125,2.139950269889998,-0.17506743030531435,8.014652252197266,7.552856642322832,-0.461795609874434
258,0.0051784515380859375,-0.6773624420166016,0.1464533805847168,0.08743690699338913,2.283294916152954,-0.04943537712097168,2.373626708984375,2.14042928123157,-0.23319742775280483,7.897434234619141,7.551700369038581,-0.3457338655805593
259,0.0051784515380859375,-0.6771707534790039,0.1464533805847168,0.08820389956235886,2.283294916152954,-0.04943537712097168,2.25640869140625,2.1376466812098047,-0.11876201019644528,7.516483306884766,7.552449049266879,0.03596574238211314
260,0.0051784515380859375,-0.6771707534790039,0.1464533805847168,0.08743690699338913,2.283294916152954,-0.04943537712097168,2.4322357177734375,2.1377449731204514,-0.2944907446529861,7.457874298095703,7.552080780278578,0.09420648218287475
261,0.0051784515380859375,-0.6771707534790039,0.1464533805847168,0.08743690699338913,2.283294916152954,-0.04943537712097168,2.0219802856445312,2.1377449731204514,0.11576468747592017,7.428569793701172,7.552080780278578,0.123510986577406
262,0.004795074462890625,-0.6771707534790039,0.1464533805847168,0.08820389956235886,2.283294916152954,-0.04943537712097168,2.373626708984375,2.1376466812098047,-0.23598002777457028,7.897434234619141,7.552449049266879,-0.34498518535226186
263,0.0051784515380859375,-0.6771707534790039,0.14606904983520508,0.08743690699338913,2.283294916152954,-0.04943537712097168,2.4322357177734375,2.140049674336215,-0.2921860434372223,7.223442077636719,7.552488843881685,0.3290467662449661
264,0.0051784515380859375,-0.6771707534790039,0.14606904983520508,0.08820389956235886,2.283294916152954,-0.04943537712097168,2.3150177001953125,2.139950269889998,-0.17506743030531435,8.014652252197266,7.552856642322832,-0.461795609874434
265,0.0051784515380859375,-0.6771707534790039,0.14606904983520508,0.08743690699338913,2.283294916152954,-0.04943537712097168,2.6666641235351562,2.140049674336215,-0.5266144491989411,7.8095245361328125,7.552488843881685,-0.25703569225112766
266,0.0051784515380859375,-0.6771707534790039,0.1464533805847168,0.08820389956235886,2.283294916152954,-0.04943537712097168,2.4908447265625,2.1376466812098047,-0.3531980453526953,7.926738739013672,7.552449049266879,-0.3742896897467931
267,0.004795074462890625,-0.6771707534790039,0.1464533805847168,0.08820389956235886,2.283294916152954,-0.04943537712097168,2.373626708984375,2.1376466812098047,-0.23598002777457028,7.282051086425781,7.552449049266879,0.2703979628410975
268,0.0051784515380859375,-0.6771707534790039,0.1464533805847168,0.08820389956235886,2.283294916152954,-0.04943537712097168,2.4322357177734375,2.1376466812098047,-0.2945890365636328,7.663002014160156,7.552449049266879,-0.11055296489327748
269,0.0051784515380859375,-0.6773624420166016,0.1464533805847168,0.08743690699338913,2.283294916152954,-0.04943537712097168,2.4908447265625,2.14042928123157,-0.35041544533092983,7.780220031738281,7.551700369038581,-0.22851966269969992
270,0.0051784515380859375,-0.6773624420166016,0.14606904983520508,0.08743690699338913,2.283294916152954,-0.04943537712097168,2.373626708984375,2.142733339521818,-0.230893369462557,7.1941375732421875,7.552107356817475,0.3579697835752871
271,0.0051784515380859375,-0.6771707534790039,0.14606904983520508,0.08820389956235886,2.283294916152954,-0.04943537712097168,2.25640869140625,2.139950269889998,-0.11645842151625185,7.868133544921875,7.552856642322832,-0.3152769025990434
272,0.004795074462890625,-0.6771707534790039,0.1464533805847168,0.08743690699338913,2.283294916152954,-0.04943537712097168,2.4908447265625,2.1377449731204514,-0.3530997534420486,7.545787811279297,7.552080780278578,0.006292968999281001
273,0.004795074462890625,-0.6771707534790039,0.1464533805847168,0.08820389956235886,2.283294916152954,-0.04943537712097168,2.5494537353515625,2.1376466812098047,-0.4118070541417578,7.663002014160156,7.552449049266879,-0.11055296489327748
274,0.004795074462890625,-0.6771707534790039,0.14606904983520508,0.08743690699338913,2.283294916152954,-0.04943537712097168,2.25640869140625,2.140049674336215,-0.11635901707003482,7.575092315673828,7.552488843881685,-0.02260347179214328
275,0.0051784515380859375,-0.6771707534790039,0.14606904983520508,0.08820389956235886,2.283294916152954,-0.04943537712097168,2.139190673828125,2.139950269889998,0.0007595960618731468,7.956043243408203,7.552856642322832,-0.4031866010853715
276,0.0051784515380859375,-0.6773624420166016,0.1464533805847168,0.08743690699338913,2.283294916152954,-0.04943537712097168,2.4322357177734375,2.14042928123157,-0.29180643654186733,7.457874298095703,7.551700369038581,0.0938260709428782
277,0.004795074462890625,-0.6771707534790039,0.1464533805847168,0.08820389956235886,2.283294916152954,-0.04943537712097168,2.25640869140625,2.1376466812098047,-0.11876201019644528,7.926738739013672,7.552449049266879,-0.3742896897467931
278,0.004795074462890625,-0.6773624420166016,0.1464533805847168,0.08820389956235886,2.283294916152954,-0.04943537712097168,2.0805892944335938,2.1403304344316307,0.059741139998036985,8.014652252197266,7.552068403343905,-0.46258384885336046
279,0.0051784515380859375,-0.6773624420166016,0.1464533805847168,0.08820389956235886,2.283294916152954,-0.04943537712097168,2.139190673828125,2.1403304344316307,0.001139760603505735,7.838829040527344,7.552068403343905,-0.2867606371834386
280,0.0051784515380859375,-0.6773624420166016,0.1464533805847168,0.08743690699338913,2.283302068710327,-0.04943301901221275,2.0805892944335938,2.140369833508966,0.059780539075372285,8.014652252197266,7.55166720643071,-0.46298504576655564
281,0.004795074462890625,-0.6773624420166016,0.14606904983520508,0.08743690699338913,2.283294916152954,-0.04943537712097168,1.9047622680664062,2.142733339521818,0.23797107145541174,8.10256576538086,7.552107356817475,-0.5504584085633848
282,0.0051784515380859375,-0.6773624420166016,0.1464533805847168,0.08743690699338913,2.283294916152954,-0.04943537712097168,2.0219802856445312,2.14042928123157,0.11844899558703892,8.24908447265625,7.551700369038581,-0.6973841036176687
283,0.0051784515380859375,-0.6773624420166016,0.1464533805847168,0.08743690699338913,2.283294916152954,-0.04943537712097168,1.8461532592773438,2.14042928123157,0.2942760219542264,8.014652252197266,7.551700369038581,-0.4629518831586843
284,0.0051784515380859375,-0.6773624420166016,0.1464533805847168,0.08743690699338913,2.283294916152954,-0.04943537712097168,1.611724853515625,2.14042928123157,0.5287044277159452,7.868133544921875,7.551700369038581,-0.31643317588329367
285,0.0051784515380859375,-0.6773624420166016,0.1464533805847168,0.08743690699338913,2.283294916152954,-0.04943537712097168,1.7289352416992188,2.14042928123157,0.4114940395323514,7.956043243408203,7.551700369038581,-0.4043428743696218
286,0.0051784515380859375,-0.6773624420166016,0.1464533805847168,0.08743690699338913,2.283302068710327,-0.04943301901221275,1.9047622680664062,2.140369833508966,0.23560756544255979,7.604396820068359,7.55166720643071,-0.052729613637649386
287,0.004795074462890625,-0.6775546073913574,0.1464533805847168,0.08820389956235886,2.283302068710327,-0.04943301901221275,1.8461532592773438,2.1429610662760674,0.29680780699872367,8.39560317993164,7.551653253031473,-0.8439499269001676
288,0.0051784515380859375,-0.6775546073913574,0.1464533805847168,0.08743690699338913,2.283302068710327,-0.04943301901221275,1.8461532592773438,2.143060470522777,0.2969072112454332,7.604396820068359,7.551285468347696,-0.05311135172066361
289,0.0051784515380859375,-0.6775546073913574,0.1464533805847168,0.08820389956235886,2.283302068710327,-0.04943301901221275,1.7289352416992188,2.1429610662760674,0.41402582457684867,8.278388977050781,7.551653253031473,-0.7267357240193082
290,0.0051784515380859375,-0.6777462959289551,0.1468367576599121,0.08743690699338913,2.283302068710327,-0.04943301901221275,1.611724853515625,2.143446982941089,0.5317221294254639,8.307693481445312,7.550498978400189,-0.7571945030451239
291,0.004795074462890625,-0.6779379844665527,0.1468367576599121,0.08743690699338913,2.283302068710327,-0.04943301901221275,1.5531158447265625,2.146130889361013,0.5930150446344506,7.8095245361328125,7.550118494869135,-0.25940604126367717
292,0.0051784515380859375,-0.6781296730041504,0.14722013473510742,0.08743690699338913,2.283302068710327,-0.04943301901221275,1.377288818359375,2.146518587429181,0.7692297690698058,7.897434234619141,7.549332981045678,-0.34810125357346244
293,0.0051784515380859375,-0.6781296730041504,0.14722013473510742,0.08743690699338913,2.283302068710327,-0.04943301901221275,1.1428604125976562,2.146518587429181,1.0036581748315245,7.956043243408203,7.549332981045678,-0.40671026236252494
294,0.004795074462890625,-0.6785135269165039,0.14760351181030273,0.08820389956235886,2.283302068710327,-0.04943301901221275,1.1428604125976562,2.1494991492894173,1.006638736691761,8.073261260986328,7.548535342105162,-0.5247259188811659
295,0.0051784515380859375,-0.6942415237426758,0.16409921646118164,0.08743690699338913,2.2833943367004395,-0.04940223693847656,1.4945068359375,2.2713646967087118,0.7768578607712118,7.956043243408203,7.5003076569683955,-0.4557355864398076
296,0.0051784515380859375,-0.6944332122802734,0.16409921646118164,0.08743690699338913,2.2834014892578125,-0.04939985275268555,1.8461532592773438,2.2739883030696397,0.427835043792296,7.663002014160156,7.499909514920718,-0.16309249923943803
297,0.0051784515380859375,-0.6946249008178711,0.16409921646118164,0.08743690699338913,2.2834084033966064,-0.04939749464392662,1.7289352416992188,2.276613548610534,0.5476783069113154,7.6923065185546875,7.499512104831855,-0.19279441372283213
298,0.004795074462890625,-0.6953921318054199,0.16409921646118164,0.08743690699338913,2.2834227085113525,-0.04939746856689453,1.9633712768554688,2.2872287422986513,0.3238574654431825,7.399269104003906,7.497979706488339,0.09871060248443264
299,0.0051784515380859375,-0.6955838203430176,0.16409921646118164,0.08743690699338913,2.2834441661834717,-0.04939036816358566,1.7875442504882812,2.289731397137823,0.5021871466495416,7.75091552734375,7.497513005259734,-0.25340252208401637
300,0.0051784515380859375,-0.6957755088806152,0.16448259353637695,0.08743690699338913,2.2834441661834717,-0.04939036816358566,1.4358978271484375,2.2901724151286302,0.8542745879801927,7.956043243408203,7.496772844485333,-0.4592703989228699
301,0.0051784515380859375,-0.6959676742553711,0.16448259353637695,0.08820389956235886,2.2834510803222656,-0.049388010054826736,1.4945068359375,2.292702029632504,0.7981951936950038,7.75091552734375,7.496739981905357,-0.25417554543839316
302,0.0051784515380859375,-0.6961593627929688,0.16448259353637695,0.08743690699338913,2.2834653854370117,-0.049383267760276794,1.3186798095703125,2.295364284016282,0.9766844744459693,7.897434234619141,7.495939369947072,-0.40149486467206863
303,0.0051784515380859375,-0.6963510513305664,0.16448259353637695,0.08743690699338913,2.283493995666504,-0.04937858134508133,1.2014617919921875,2.297806762672815,1.0963449706806276,7.780220031738281,7.495439110526223,-0.2847809212120582
304,0.0051784515380859375,-0.6965427398681641,0.16448259353637695,0.08820389956235886,2.283515214920044,-0.04937148094177246,1.377288818359375,2.3002081113304182,0.9229192929710432,7.956043243408203,7.495338929456052,-0.46070431395215117
305,0.004795074462890625,-0.6969265937805176,0.16486597061157227,0.08743690699338913,2.283515214920044,-0.04937148094177246,1.4945068359375,2.303439940400995,0.8089331044634949,7.868133544921875,7.4938669838439385,-0.37426656107793654
306,0.004795074462890625,-0.6971182823181152,0.16486597061157227,0.08743690699338913,2.283536672592163,-0.04936438053846359,1.4945068359375,2.3059411363959783,0.8114343004584783,7.721611022949219,7.4933994662492225,-0.22821155669999627
307,0.004795074462890625,-0.6973099708557129,0.16486597061157227,0.08743690699338913,2.283536672592163,-0.04936438053846359,1.3186798095703125,2.3086203274145167,0.9899405178442042,8.161170959472656,7.493031004024456,-0.6681399554482006
308,0.0051784515380859375,-0.6980772018432617,0.1656336784362793,0.08743690699338913,2.2836644649505615,-0.04932178556919098,1.2014617919921875,2.31380839157736,1.1123465995851727,7.75091552734375,7.490232518706456,-0.26068300863729377
309,0.0051784515380859375,-1.0279836654663086,0.4226527214050293,0.08053399622440338,2.357558250427246,-0.03946211561560631,3.8388290405273438,5.026309854817609,1.1874808142902653,7.633701324462891,6.633020385521803,-1.0006809389410876
310,0.0051784515380859375,-1.0293264389038086,0.42418718338012695,0.07976700365543365,2.357536792755127,-0.039469242095947266,4.131866455078125,5.039465579426933,0.907599124348808,7.75091552734375,6.632977364293567,-1.1179381630501828
311,0.0051784515380859375,-1.0899372100830078,0.47866010665893555,0.07976700365543365,2.3675715923309326,-0.040655214339494705,5.128204345703125,5.587340402435687,0.45913605673256175,7.780220031738281,6.585309821507488,-1.194910210230793
312,0.004795074462890625,-1.092430591583252,0.48211240768432617,0.07976700365543365,2.3672873973846436,-0.040560510009527206,5.1868133544921875,5.611985812424874,0.4251724579326863,6.989009857177734,6.588876681961929,-0.4001331752158057
313,0.004795074462890625,-1.0926222801208496,0.48211240768432617,0.07976700365543365,2.3672521114349365,-0.040548697113990784,5.479850769042969,5.614880591198738,0.13502982215576953,7.223442077636719,6.588857240263044,-0.6345848373736747
314,0.004795074462890625,-1.093581199645996,0.4851813316345215,0.08053399622440338,2.3670389652252197,-0.04048718512058258,5.1868133544921875,5.619028646399644,0.43221529190745667,7.223442077636719,6.59315518174766,-0.6302868958890588
315,0.004795074462890625,-1.0937728881835938,0.48748350143432617,0.07976700365543365,2.366840124130249,-0.04042559117078781,5.362640380859375,5.6159425599707635,0.2533021791113885,6.725273132324219,6.596876297908146,-0.12839683441607264
316,0.004795074462890625,-1.0939650535583496,0.48748350143432617,0.07976700365543365,2.3667547702789307,-0.040397193282842636,5.3040313720703125,5.619267871123587,0.3152364990532748,6.549449920654297,6.597101018612545,0.047651097958247846
317,0.004795074462890625,-1.094348430633545,0.48901796340942383,0.08053399622440338,2.363189697265625,-0.039232492446899414,5.538459777832031,5.64858601994925,0.11012624211721889,6.901100158691406,6.6154007918935385,-0.2856993667978678
318,0.004795074462890625,-1.094348430633545,0.48901796340942383,0.07976700365543365,2.363189697265625,-0.039232492446899414,5.3040313720703125,5.64895643065742,0.34492505858710754,7.1941375732421875,6.61530631489252,-0.5788312583496671
319,0.004795074462890625,-1.094348430633545,0.48901796340942383,0.08053399622440338,2.363168478012085,-0.03923016041517258,5.010986328125,5.648762374699972,0.637776046574972,7.1941375732421875,6.615499094083026,-0.5786384791591619
320,0.0051784515380859375,-1.094348430633545,0.48901796340942383,0.07976700365543365,2.363133192062378,-0.03922306001186371,5.421241760253906,5.649426039197987,0.2281842789440809,7.516483306884766,6.615567969573243,-0.9009153373115231
321,0.0051784515380859375,-1.0945401191711426,0.48901796340942383,0.08053399622440338,2.363126039505005,-0.039225418120622635,5.24542236328125,5.651725649118828,0.4063032858375779,7.545787811279297,6.615526065124095,-0.9302617461552023
322,0.0051784515380859375,-1.0945401191711426,0.48940134048461914,0.07976700365543365,2.3630974292755127,-0.03921593725681305,5.3040313720703125,5.651043975879897,0.3470126038095849,7.399269104003906,6.616070520795287,-0.7831985832086197
323,0.004795074462890625,-1.094923973083496,0.48940134048461914,0.08053399622440338,2.3618688583374023,-0.03885851800441742,5.128204345703125,5.66611290290008,0.5379085571969551,7.487178802490234,6.621515571122959,-0.8656632313672752
324,0.004795074462890625,-1.094923973083496,0.48978471755981445,0.07976700365543365,2.361826181411743,-0.038872718811035156,5.24542236328125,5.665548468759672,0.4201261054784222,8.24908447265625,6.6221243949110224,-1.6269600777452276
325,0.004795074462890625,-1.094923973083496,0.48978471755981445,0.07976700365543365,2.361798048019409,-0.03888217732310295,5.0695953369140625,5.665782274469712,0.5961869375556494,7.106227874755859,6.6222545846104,-0.4839732901454594
326,0.004795074462890625,-1.0951156616210938,0.48978471755981445,0.07976700365543365,2.361790895462036,-0.03888453543186188,5.24542236328125,5.668453431532374,0.4230310682511238,7.25274658203125,6.622118754496926,-0.6306278275343242
327,0.004795074462890625,-1.0951156616210938,0.48978471755981445,0.07976700365543365,2.36177659034729,-0.03888927400112152,5.128204345703125,5.668572315017659,0.5403679693145342,7.399269104003906,6.622184944366011,-0.7770841596378952
328,0.004795074462890625,-1.0951156616210938,0.48978471755981445,0.08053399622440338,2.36173415184021,-0.03890347480773926,5.24542236328125,5.6685548557514585,0.42313249247020845,7.75091552734375,6.622478713337139,-1.1284368140066112
329,0.004795074462890625,-1.0951156616210938,0.48978471755981445,0.07976700365543365,2.3617055416107178,-0.03891295939683914,5.010986328125,5.669162768912242,0.6581764407872424,7.223442077636719,6.622513679402238,-0.6009283982344806
330,0.004795074462890625,-1.0951156616210938,0.48978471755981445,0.08053399622440338,2.3616416454315186,-0.03891531750559807,5.0695953369140625,5.669323650772545,0.5997283138584821,7.6923065185546875,6.622906904454736,-1.069399614099951
331,0.004795074462890625,-1.0953073501586914,0.49016904830932617,0.07976700365543365,2.3604557514190674,-0.039282217621803284,4.9523773193359375,5.68086783013291,0.7284905107969726,7.6923065185546875,6.628635709864477,-1.063670808690211
332,0.0051784515380859375,-1.0953073501586914,0.49016904830932617,0.08053399622440338,2.3604485988616943,-0.03927985951304436,5.479850769042969,5.680558017813191,0.2007072487702226,7.428569793701172,6.6287690809304936,-0.7998007127706783
333,0.004795074462890625,-1.0954995155334473,0.49016904830932617,0.07976700365543365,2.3604485988616943,-0.03927985951304436,5.0695953369140625,5.683545559984687,0.6139502230706242,7.487178802490234,6.628499129291591,-0.858679673198643
334,0.004795074462890625,-1.0953073501586914,0.49016904830932617,0.08053399622440338,2.3604342937469482,-0.039275091141462326,4.893775939941406,5.680676899938761,0.7869009599973547,7.076923370361328,6.628835256388433,-0.4480881139728954
335,0.0051784515380859375,-1.0954995155334473,0.49016904830932617,0.07976700365543365,2.360413074493408,-0.03927278518676758,5.1868133544921875,5.683840775178951,0.49702742068676375,7.604396820068359,6.62866337420881,-0.9757334458595492
336,0.004795074462890625,-1.095691204071045,0.4905524253845215,0.07976700365543365,2.360320806503296,-0.039256174117326736,4.9523773193359375,5.685930179525688,0.7335528601897501,7.3113555908203125,6.629431314448262,-0.6819242763720501
337,0.004795074462890625,-1.095691204071045,0.4909358024597168,0.07976700365543365,2.3602569103240967,-0.03925381600856781,4.776557922363281,5.685171356867444,0.9086134345041623,7.516483306884766,6.630236335221011,-0.8862469716637547
338,0.004795074462890625,-1.095691204071045,0.4909358024597168,0.07976700365543365,2.3601856231689453,-0.03925378993153572,5.0695953369140625,5.685763775249705,0.6161684383356425,7.868133544921875,6.630565996082091,-1.2375675488397837
339,0.004795074462890625,-1.095691204071045,0.4913191795349121,0.07976700365543365,2.360136032104492,-0.03924671933054924,4.835166931152344,5.684885134435933,0.8497182032835893,7.399269104003906,6.631303561554901,-0.7679655424490051
340,0.0051784515380859375,-1.095691204071045,0.4913191795349121,0.07976700365543365,2.360057830810547,-0.03923487663269043,4.893775939941406,5.685535016601211,0.7917590766598046,7.721611022949219,6.631665249604791,-1.0899457733444278
341,0.004795074462890625,-1.0958828926086426,0.4913191795349121,0.07976700365543365,2.3599443435668945,-0.03922067582607269,5.010986328125,5.689091452355665,0.6781051242306653,7.545787811279297,6.632023093026888,-0.9137647182524091
342,0.004795074462890625,-1.0964584350585938,0.49247026443481445,0.07976700365543365,2.357025384902954,-0.039388760924339294,4.9523773193359375,5.717320211153018,0.7649428918170802,7.780220031738281,6.646540937531379,-1.1336790942069026
343,0.004795074462890625,-1.0966501235961914,0.49285364151000977,0.07976700365543365,2.357004165649414,-0.039381664246320724,5.010986328125,5.718819941019148,0.7078336128941478,7.75091552734375,6.646982999568311,-1.1039325277754388
344,0.004795074462890625,-1.096841812133789,0.49285364151000977,0.07976700365543365,2.356989860534668,-0.03937689587473869,5.010986328125,5.721553390711294,0.7105670625862937,7.604396820068359,6.646883060442574,-0.957513759625785
345,0.004795074462890625,-1.097033977508545,0.4932370185852051,0.07976700365543365,2.356975793838501,-0.03937217965722084,4.893775939941406,5.723000781163699,0.8292248412222927,7.6923065185546875,6.647292695077364,-1.0450138234773236
346,0.004795074462890625,-1.0972256660461426,0.4932370185852051,0.07976700365543365,2.356940269470215,-0.03936036303639412,4.835166931152344,5.7259106953238135,0.8907437641714697,7.164836883544922,6.647291097298739,-0.517545786246183
347,0.004795074462890625,-1.0974173545837402,0.4932370185852051,0.07976700365543365,2.3569259643554688,-0.03935559466481209,5.010986328125,5.728644001304065,0.7176576731790654,7.721611022949219,6.647191146958056,-1.074419875991163
348,0.004795074462890625,-1.097609043121338,0.4936213493347168,0.07976700365543365,2.3569047451019287,-0.03935326635837555,4.717948913574219,5.730142130258161,1.0121932166839427,6.871795654296875,6.647637233484144,-0.2241584208127314
349,0.0051784515380859375,-1.097609043121338,0.4936213493347168,0.07976700365543365,2.3568551540374756,-0.03934613987803459,4.717948913574219,5.730554213482953,1.012605299908734,7.457874298095703,6.647866225550962,-0.8100080725447407
350,0.004795074462890625,-1.0978007316589355,0.4936213493347168,0.07976700365543365,2.3568265438079834,-0.039350882172584534,5.3040313720703125,5.733406528129319,0.4293751560590069,7.6923065185546875,6.647832649423368,-1.0444738691313198
351,0.004795074462890625,-1.0979928970336914,0.4936213493347168,0.07976700365543365,2.356727361679077,-0.039350852370262146,5.010986328125,5.736851477666211,0.7258651495412112,7.516483306884766,6.64812406842725,-0.8683592384575158
352,0.004795074462890625,-1.098184585571289,0.4936213493347168,0.07976700365543365,2.3565709590911865,-0.03935556858778,5.128204345703125,5.740765096031071,0.6125607503279458,7.633701324462891,6.648679525136577,-0.9850217993263133
353,0.004795074462890625,-1.0991435050964355,0.4940047264099121,0.08053399622440338,2.3554060459136963,-0.03897680342197418,5.3040313720703125,5.761864062772862,0.45783269070254917,7.838829040527344,6.653845345405036,-1.184983695122308
354,0.004795074462890625,-1.1125702857971191,0.500525951385498,0.07976700365543365,2.355541229248047,-0.03898869454860687,5.3040313720703125,5.9223000928428196,0.618268720772507,7.75091552734375,6.65042007785608,-1.1004954494876698
355,0.004795074462890625,-1.1127619743347168,0.5009093284606934,0.07976700365543365,2.355548143386841,-0.0389910526573658,5.362640380859375,5.923596418470131,0.5609560376107563,7.340660095214844,6.650784090684193,-0.6898760045306505
356,0.004795074462890625,-1.1129536628723145,0.5009093284606934,0.07976700365543365,2.355605125427246,-0.03899576887488365,5.362640380859375,5.925728779505378,0.5630883986460029,7.1941375732421875,6.650349195055751,-0.5437883781864361
357,0.004795074462890625,-1.1160225868225098,0.507047176361084,0.07976700365543365,2.356144905090332,-0.0389389730989933,5.3040313720703125,5.942944062374955,0.6389126903046423,7.3113555908203125,6.654251659444372,-0.6571039313759401
358,0.004795074462890625,-1.1164064407348633,0.5089659690856934,0.07976700365543365,2.356180191040039,-0.03893187269568443,4.835166931152344,5.9415897569226,1.106422825770256,7.369964599609375,6.656572464570429,-0.713392135038946
359,0.004795074462890625,-1.1164064407348633,0.5089659690856934,0.07976700365543365,2.3562231063842773,-0.03894135728478432,4.776557922363281,5.941233198483161,1.1646752761198798,7.3113555908203125,6.656374769541763,-0.6549808212785493
360,0.004795074462890625,-1.1167898178100586,0.5097336769104004,0.07976700365543365,2.3562726974487305,-0.03894371539354324,5.421241760253906,5.943529902335066,0.5222881420811598,7.457874298095703,6.656948584405248,-0.8009257136904555
361,0.004795074462890625,-1.1173653602600098,0.510500431060791,0.07976700365543365,2.356393337249756,-0.03897921368479729,5.128204345703125,5.947863532263746,0.8196591865606209,7.135532379150391,6.657039931597488,-0.47849244755290243
362,0.004795074462890625,-1.117940902709961,0.5108838081359863,0.07976700365543365,2.356464385986328,-0.0390029214322567,5.597068786621094,5.953870761045794,0.35680197442469996,6.989009857177734,6.6568061069131,-0.3322037502646342
363,0.004795074462890625,-1.117940902709961,0.511268138885498,0.07976700365543365,2.3564999103546143,-0.03901473805308342,5.538459777832031,5.952312836129538,0.41385305829750685,6.959705352783203,6.657201002790304,-0.30250434999289944
364,0.004795074462890625,-1.119091510772705,0.5116515159606934,0.07976700365543365,2.356656074523926,-0.039057306945323944,5.597068786621094,5.96546576934575,0.36839698272465604,7.106227874755859,6.656117247946196,-0.4501106268096633
365,0.004795074462890625,-1.1192831993103027,0.5116515159606934,0.07976700365543365,2.356691598892212,-0.039069175720214844,5.714286804199219,5.967787076749266,0.25350027255004726,7.545787811279297,6.655799205017525,-0.8899886062617721
366,0.004795074462890625,-1.1208176612854004,0.5120348930358887,0.07976700365543365,2.356961488723755,-0.03913543000817299,5.479850769042969,5.985228421215928,0.5053776521729594,7.956043243408203,6.6538784928263315,-1.3021647505818716
367,0.004795074462890625,-1.1217765808105469,0.5120348930358887,0.07976700365543365,2.3575937747955322,-0.0393366813659668,5.479850769042969,5.993052474220514,0.5132017051775453,7.282051086425781,6.650183001889436,-0.6318680845363449
368,0.004795074462890625,-1.1217765808105469,0.512418270111084,0.07976700365543365,2.3576149940490723,-0.03932958096265793,5.890106201171875,5.991627573611872,0.10152137243999704,7.897434234619141,6.650657985589993,-1.2467762490291472
369,0.004795074462890625,-1.122352123260498,0.512418270111084,0.07976700365543365,2.3576149940490723,-0.03932958096265793,5.597068786621094,5.99947533760674,0.4024065509856465,7.487178802490234,6.650187006127534,-0.8369917963627005
370,0.004795074462890625,-1.1231193542480469,0.512418270111084,0.07976700365543365,2.3576362133026123,-0.03932248055934906,5.831504821777344,6.009756652561013,0.1782518307836689,7.8095245361328125,6.649456768780745,-1.1600677673520678
371,0.004795074462890625,-1.1238865852355957,0.5128026008605957,0.07976700365543365,2.3576648235321045,-0.039313025772571564,5.831504821777344,6.018727214466034,0.18722239268869068,7.516483306884766,6.649271364368271,-0.8672119425164944
372,0.004795074462890625,-1.1240782737731934,0.5128026008605957,0.07976700365543365,2.3576648235321045,-0.039313025772571564,5.597068786621094,6.021338889020881,0.42427010239978724,7.3113555908203125,6.649112190481487,-0.6622434003388253
373,0.004795074462890625,-1.1242704391479492,0.5128026008605957,0.07976700365543365,2.3576860427856445,-0.039305899292230606,5.362640380859375,6.023780498342008,0.661140117482633,7.545787811279297,6.648854676258141,-0.8969331350211558
374,0.004795074462890625,-1.1242704391479492,0.513185977935791,0.07976700365543365,2.3576860427856445,-0.039305899292230606,5.479850769042969,6.022539104268076,0.5426883352251073,7.8095245361328125,6.649438001914725,-1.1600865342180873
375,0.004795074462890625,-1.1244621276855469,0.513185977935791,0.07976700365543365,2.3576860427856445,-0.039305899292230606,5.655677795410156,6.025150933988951,0.3694731385787948,7.780220031738281,6.649279211620559,-1.130940820117722
376,0.004795074462890625,-1.1246538162231445,0.513185977935791,0.07976700365543365,2.3577072620391846,-0.03929882496595383,5.479850769042969,6.027586202761309,0.5477354337183407,7.604396820068359,6.64902247702012,-0.9553743430482395
377,0.004795074462890625,-1.1246538162231445,0.5135693550109863,0.07976700365543365,2.3577287197113037,-0.03929169848561287,5.655677795410156,6.026166939971167,0.37048914456101034,8.307693481445312,6.649507680398321,-1.6581858010469919
378,0.004795074462890625,-1.1248455047607422,0.5135693550109863,0.07976700365543365,2.3577499389648438,-0.03930354118347168,5.1868133544921875,6.028602644356176,0.8417892898639883,7.956043243408203,6.6492516666881585,-1.3067915767200446
379,0.004795074462890625,-1.125037670135498,0.5135693550109863,0.07976700365543365,2.3577568531036377,-0.03929641470313072,5.128204345703125,6.031163409444892,0.9029590637417666,7.838829040527344,6.64906074368653,-1.189768296840814
380,0.004795074462890625,-1.1252293586730957,0.5139527320861816,0.07976700365543365,2.357792615890503,-0.03928457200527191,5.128204345703125,6.0322378413895885,0.9040334956864635,7.780220031738281,6.649322712027842,-1.1308973197104395
381,0.004795074462890625,-1.1258049011230469,0.5147204399108887,0.07976700365543365,2.360682725906372,-0.03832586482167244,5.597068786621094,6.013585740755795,0.4165169541347016,7.633701324462891,6.636711722456868,-0.9969896020060229
382,0.004795074462890625,-1.1259965896606445,0.5147204399108887,0.07976700365543365,2.360675811767578,-0.038328222930431366,5.1868133544921875,6.016255819656485,0.8294424651642975,7.487178802490234,6.636587824384246,-0.8505909781059886
383,0.004795074462890625,-1.1261882781982422,0.5147204399108887,0.07976700365543365,2.360682725906372,-0.03833058103919029,5.479850769042969,6.018810726156852,0.5389599571138834,7.457874298095703,6.636399862738281,-0.8214744353574224
384,0.004795074462890625,-1.1263799667358398,0.515871524810791,0.07976700365543365,2.3607113361358643,-0.038340065628290176,5.597068786621094,6.017461715439461,0.42039292881836765,7.575092315673828,6.637861836136548,-0.9372304795372806
385,0.004795074462890625,-1.1265716552734375,0.515871524810791,0.07976700365543365,2.3607113361358643,-0.038340065628290176,5.1868133544921875,6.020075652002733,0.8332622975105455,7.399269104003906,6.637708228119066,-0.7615608758848404
386,0.004795074462890625,-1.126955509185791,0.5166382789611816,0.07976700365543365,2.3607113361358643,-0.038340065628290176,5.479850769042969,6.022828111050676,0.5429773420077071,7.223442077636719,6.638564389175859,-0.5848776884608595
387,0.004795074462890625,-1.126955509185791,0.5166382789611816,0.07976700365543365,2.3607113361358643,-0.038340065628290176,5.479850769042969,6.022828111050676,0.5429773420077071,7.6923065185546875,6.638564389175859,-1.0537421293788283
388,0.004795074462890625,-1.1271471977233887,0.517021656036377,0.07976700365543365,2.3607113361358643,-0.038340065628290176,5.597068786621094,6.024201258775316,0.4271324721542227,6.959705352783203,6.638993090113691,-0.32071226266951225
389,0.004795074462890625,-1.1273388862609863,0.517021656036377,0.07976700365543365,2.3607254028320312,-0.03834475576877594,5.597068786621094,6.026699338440738,0.4296305518196446,7.487178802490234,6.638776417226829,-0.8484023852634053
390,0.004795074462890625,-1.1275310516357422,0.517789363861084,0.07976700365543365,2.3607397079467773,-0.03834952414035797,5.421241760253906,6.026715561599427,0.6054738013455205,7.223442077636719,6.639721551796933,-0.5837205258397855
391,0.004795074462890625,-1.1277227401733398,0.517789363861084,0.07976700365543365,2.3607397079467773,-0.03834952414035797,5.538459777832031,6.0293313895972185,0.49087161176518723,7.457874298095703,6.639571180378677,-0.8183031177170257
392,0.004795074462890625,-1.1277227401733398,0.517789363861084,0.07976700365543365,2.3607397079467773,-0.03834952414035797,5.421241760253906,6.0293313895972185,0.6080896293433122,7.457874298095703,6.639571180378677,-0.8183031177170257
393,0.0051784515380859375,-1.1281061172485352,0.5185561180114746,0.07976700365543365,2.3607397079467773,-0.03834952414035797,5.362640380859375,6.032079324615898,0.6694389437565231,7.457874298095703,6.640431979683988,-0.8174423184117154
394,0.004795074462890625,-1.128298282623291,0.5185561180114746,0.07976700365543365,2.3607397079467773,-0.03834952414035797,5.538459777832031,6.034702250210174,0.49624247237814245,7.545787811279297,6.640282322171997,-0.9055054891073002
395,0.004795074462890625,-1.1292572021484375,0.519707202911377,0.07976700365543365,2.3607540130615234,-0.03835897892713547,5.714286804199219,6.043945430388096,0.329658626188877,7.721611022949219,6.641217576212983,-1.0803934467362355
396,0.004795074462890625,-1.1294488906860352,0.519707202911377,0.07976700365543365,2.3607540130615234,-0.03835897892713547,5.772895812988281,6.046562318747613,0.2736665057593317,7.838829040527344,6.641069420245445,-1.1977596202818983
397,0.004795074462890625,-1.1296405792236328,0.5200905799865723,0.07976700365543365,2.3607540130615234,-0.03835897892713547,5.597068786621094,6.04793850465468,0.45086971803358633,7.663002014160156,6.641503947797793,-1.021498066362363
398,0.0051784515380859375,-1.1298327445983887,0.5200905799865723,0.07976700365543365,2.3607540130615234,-0.03835897892713547,5.831504821777344,6.050562059652143,0.21905723787479925,7.457874298095703,6.641355797692352,-0.816518500403351
399,0.0051784515380859375,-1.1300244331359863,0.5200905799865723,0.07976700365543365,2.3607540130615234,-0.03835897892713547,6.00732421875,6.053178827619737,0.045854608869737135,7.633701324462891,6.641207676751594,-0.9924936477112967
400,0.004795074462890625,-1.130216121673584,0.5200905799865723,0.07976700365543365,2.3607540130615234,-0.03835897892713547,5.772895812988281,6.055795318867308,0.2828995058790271,7.487178802490234,6.641059217783273,-0.8461195847069618
401,0.004795074462890625,-1.1304078102111816,0.5200905799865723,0.07976700365543365,2.3607540130615234,-0.03835897892713547,5.831504821777344,6.0584115332987265,0.22690671152138275,7.340660095214844,6.6409104207928475,-0.6997496744219962
402,0.004795074462890625,-1.1304078102111816,0.5204739570617676,0.07976700365543365,2.3607609272003174,-0.038361337035894394,5.772895812988281,6.057115462513366,0.2842196495250846,7.897434234619141,6.641464279488561,-1.2559699551305794
403,0.004795074462890625,-1.1304078102111816,0.5200905799865723,0.07976700365543365,2.3607752323150635,-0.038366105407476425,5.9487152099609375,6.0582352240922885,0.10952001413135104,7.780220031738281,6.640812576287724,-1.1394074554505575
404,0.004795074462890625,-1.1305999755859375,0.5204739570617676,0.07976700365543365,2.3607752323150635,-0.038366105407476425,6.124542236328125,6.05961975918195,-0.06492247714617516,7.516483306884766,6.6412498592181795,-0.8752334476665862
405,0.004795074462890625,-1.1305999755859375,0.5204739570617676,0.07976700365543365,2.3607752323150635,-0.038366105407476425,6.124542236328125,6.05961975918195,-0.06492247714617516,7.1941375732421875,6.6412498592181795,-0.552887714024008
406,0.004795074462890625,-1.1305999755859375,0.5204739570617676,0.07976700365543365,2.3607752323150635,-0.038366105407476425,5.538459777832031,6.05961975918195,0.5211599813499186,7.897434234619141,6.6412498592181795,-1.2561843754009612
407,0.0051784515380859375,-1.1305999755859375,0.5204739570617676,0.07976700365543365,2.3607752323150635,-0.038366105407476425,5.714286804199219,6.05961975918195,0.3453329549827311,7.428569793701172,6.6412498592181795,-0.7873199344829924
408,0.0051784515380859375,-1.1307916641235352,0.5204739570617676,0.07976700365543365,2.3607752323150635,-0.038366105407476425,5.597068786621094,6.062236131476161,0.4651673448550673,7.223442077636719,6.641101446165888,-0.5823406314708306
409,0.004795074462890625,-1.1307916641235352,0.5208582878112793,0.07976700365543365,2.3607752323150635,-0.038366105407476425,5.421241760253906,6.0609948093436525,0.6397530490897463,7.340660095214844,6.641689254709108,-0.6989708405057353
410,0.004795074462890625,-1.1307916641235352,0.5208582878112793,0.07976700365543365,2.3607752323150635,-0.038366105407476425,5.24542236328125,6.0609948093436525,0.8155724460624025,7.721611022949219,6.641689254709108,-1.0799217682401103
411,0.004795074462890625,-1.1332850456237793,0.5254616737365723,0.07976700365543365,2.3607966899871826,-0.038377948105335236,5.128204345703125,6.079994238678125,0.9517898929750004,7.3113555908203125,6.646731786176046,-0.6646238046442665
412,0.004795074462890625,-1.133476734161377,0.5254616737365723,0.07976700365543365,2.3607966899871826,-0.038377948105335236,5.479850769042969,6.082615979190822,0.6027652101478536,7.868133544921875,6.6465923102129185,-1.2215412347089565
413,0.004795074462890625,-1.1336684226989746,0.5258450508117676,0.07976700365543365,2.3607966899871826,-0.038377948105335236,5.479850769042969,6.083996262451462,0.6041454934084936,7.487178802490234,6.6470353640491995,-0.8401434384410349
414,0.004795074462890625,-1.1338605880737305,0.5258450508117676,0.07976700365543365,2.3607966899871826,-0.038377948105335236,5.24542236328125,6.08662468347497,0.8412023201937204,7.575092315673828,6.646895915801659,-0.928196399872169
415,0.004795074462890625,-1.1342439651489258,0.5266118049621582,0.07976700365543365,2.3607823848724365,-0.03838269039988518,5.1868133544921875,6.0895052695320935,0.902691915039906,7.487178802490234,6.647850368777406,-0.8393284337128284
416,0.004795074462890625,-1.1344356536865234,0.5266118049621582,0.07976700365543365,2.3607823848724365,-0.03838269039988518,5.714286804199219,6.0921277594618966,0.3778409552626778,7.428569793701172,6.6477123451395626,-0.7808574485616093
417,0.004795074462890625,-1.1346278190612793,0.5269961357116699,0.07976700365543365,2.3607823848724365,-0.03838269039988518,5.1868133544921875,6.093512625632306,0.9066992711401181,7.780220031738281,6.648158792333679,-1.1320612394046021
418,0.004795074462890625,-1.134819507598877,0.5269961357116699,0.07976700365543365,2.3607823848724365,-0.03838269039988518,5.772895812988281,6.096135275782679,0.3232394627943975,7.6923065185546875,6.648021144689643,-1.0442853738650442
419,0.004795074462890625,-1.1350111961364746,0.5273795127868652,0.07976700365543365,2.3607823848724365,-0.03838269039988518,5.714286804199219,6.097517230038378,0.38323042583915967,7.457874298095703,6.648467480361064,-0.8094068177346392
420,0.004795074462890625,-1.1352028846740723,0.5273795127868652,0.07976700365543365,2.3607752323150635,-0.038385048508644104,5.772895812988281,6.100199474707697,0.32730366171941583,7.633701324462891,6.648363235862457,-0.9853380886004333
